Cinematic 05.cube
#Created by: Pixelmator Pro
#Color profile: "sRGB IEC61966-2.1"
TITLE "Cinematic 05"
#Data domain
DOMAIN_MIN 0.000 0.000 0.000
DOMAIN_MAX 1.000 1.000 1.000
#LUT size
LUT_3D_SIZE 35
0.061 0.060 0.034
0.061 0.060 0.034
0.061 0.060 0.034
0.061 0.060 0.034
0.061 0.060 0.034
0.061 0.060 0.034
0.084 0.061 0.034
0.131 0.063 0.034
0.173 0.066 0.034
0.212 0.068 0.034
0.249 0.071 0.034
0.284 0.074 0.034
0.319 0.077 0.034
0.346 0.084 0.037
0.371 0.093 0.041
0.396 0.102 0.045
0.420 0.111 0.050
0.443 0.120 0.054
0.466 0.129 0.059
0.489 0.139 0.064
0.512 0.149 0.069
0.534 0.159 0.075
0.557 0.170 0.081
0.580 0.181 0.087
0.603 0.193 0.094
0.627 0.206 0.102
0.650 0.220 0.111
0.674 0.236 0.121
0.697 0.254 0.133
0.721 0.272 0.147
0.745 0.294 0.164
0.768 0.321 0.188
0.791 0.356 0.223
0.814 0.404 0.281
0.837 0.473 0.385
0.061 0.060 0.034
0.061 0.060 0.034
0.061 0.060 0.034
0.061 0.060 0.034
0.061 0.060 0.034
0.094 0.066 0.034
0.129 0.070 0.034
0.165 0.074 0.034
0.199 0.078 0.034
0.233 0.081 0.034
0.266 0.084 0.034
0.299 0.087 0.034
0.328 0.094 0.036
0.353 0.101 0.040
0.378 0.109 0.044
0.402 0.118 0.048
0.425 0.126 0.052
0.448 0.134 0.057
0.471 0.143 0.062
0.493 0.152 0.067
0.515 0.161 0.072
0.538 0.171 0.077
0.560 0.181 0.083
0.583 0.192 0.090
0.606 0.203 0.097
0.629 0.216 0.105
0.652 0.229 0.113
0.675 0.245 0.123
0.699 0.262 0.135
0.722 0.280 0.149
0.746 0.302 0.167
0.769 0.328 0.190
0.791 0.363 0.226
0.814 0.410 0.284
0.837 0.478 0.388
0.061 0.060 0.034
0.061 0.060 0.034
0.065 0.063 0.034
0.082 0.071 0.034
0.104 0.077 0.034
0.129 0.081 0.034
0.158 0.085 0.034
0.188 0.090 0.034
0.218 0.093 0.034
0.249 0.097 0.034
0.281 0.100 0.034
0.311 0.104 0.035
0.336 0.111 0.039
0.360 0.118 0.043
0.384 0.126 0.047
0.407 0.134 0.051
0.430 0.141 0.055
0.453 0.149 0.060
0.475 0.157 0.065
0.497 0.166 0.069
0.519 0.174 0.075
0.541 0.183 0.080
0.563 0.193 0.086
0.586 0.203 0.092
0.608 0.214 0.099
0.631 0.226 0.107
0.654 0.239 0.116
0.677 0.254 0.126
0.700 0.271 0.137
0.724 0.288 0.151
0.747 0.310 0.169
0.770 0.336 0.193
0.792 0.370 0.228
0.814 0.416 0.287
0.837 0.482 0.391
0.063 0.084 0.034
0.076 0.092 0.034
0.093 0.096 0.034
0.114 0.099 0.034
0.134 0.102 0.034
0.157 0.104 0.034
0.181 0.107 0.034
0.206 0.109 0.034
0.234 0.112 0.034
0.263 0.115 0.034
0.294 0.118 0.034
0.320 0.123 0.037
0.344 0.130 0.041
0.368 0.136 0.045
0.391 0.143 0.049
0.414 0.150 0.053
0.436 0.157 0.058
0.458 0.164 0.062
0.480 0.172 0.067
0.502 0.180 0.072
0.523 0.188 0.077
0.545 0.196 0.083
0.567 0.205 0.089
0.589 0.215 0.095
0.611 0.225 0.102
0.633 0.237 0.110
0.656 0.250 0.118
0.679 0.264 0.128
0.702 0.280 0.140
0.725 0.297 0.154
0.748 0.318 0.172
0.770 0.344 0.196
0.792 0.377 0.231
0.814 0.422 0.290
0.837 0.488 0.394
0.068 0.129 0.034
0.089 0.132 0.034
0.110 0.132 0.034
0.133 0.132 0.034
0.156 0.131 0.034
0.177 0.132 0.034
0.200 0.133 0.034
0.224 0.134 0.034
0.250 0.135 0.034
0.276 0.137 0.034
0.305 0.139 0.034
0.330 0.143 0.037
0.353 0.149 0.042
0.376 0.155 0.046
0.399 0.161 0.051
0.421 0.167 0.056
0.443 0.173 0.060
0.464 0.180 0.065
0.486 0.187 0.070
0.507 0.194 0.075
0.528 0.202 0.080
0.549 0.210 0.085
0.571 0.218 0.091
0.592 0.228 0.098
0.614 0.238 0.104
0.636 0.249 0.112
0.658 0.261 0.121
0.681 0.275 0.131
0.703 0.290 0.143
0.726 0.307 0.157
0.749 0.327 0.174
0.771 0.353 0.199
0.793 0.385 0.235
0.815 0.429 0.293
0.837 0.493 0.397
0.073 0.170 0.034
0.097 0.170 0.034
0.121 0.169 0.034
0.145 0.167 0.034
0.169 0.165 0.034
0.194 0.163 0.034
0.216 0.163 0.034
0.240 0.163 0.034
0.265 0.162 0.034
0.289 0.163 0.036
0.314 0.164 0.037
0.339 0.166 0.039
0.363 0.169 0.042
0.386 0.174 0.047
0.407 0.179 0.052
0.429 0.185 0.057
0.450 0.191 0.062
0.471 0.197 0.067
0.492 0.203 0.072
0.512 0.210 0.077
0.533 0.217 0.082
0.554 0.225 0.088
0.575 0.233 0.094
0.596 0.241 0.100
0.618 0.251 0.107
0.639 0.262 0.115
0.661 0.274 0.124
0.683 0.288 0.134
0.705 0.302 0.145
0.728 0.318 0.159
0.750 0.338 0.177
0.772 0.362 0.202
0.793 0.394 0.238
0.815 0.437 0.297
0.837 0.499 0.401
0.077 0.208 0.034
0.103 0.208 0.034
0.129 0.206 0.034
0.154 0.203 0.034
0.179 0.201 0.034
0.204 0.198 0.034
0.230 0.195 0.035
0.252 0.194 0.037
0.275 0.193 0.039
0.298 0.193 0.041
0.322 0.193 0.044
0.346 0.194 0.046
0.370 0.195 0.048
0.394 0.197 0.050
0.417 0.200 0.052
0.438 0.204 0.058
0.458 0.210 0.063
0.478 0.215 0.068
0.499 0.221 0.074
0.519 0.227 0.079
0.539 0.234 0.084
0.559 0.241 0.090
0.580 0.248 0.096
0.600 0.257 0.103
0.621 0.266 0.110
0.643 0.276 0.118
0.664 0.288 0.126
0.686 0.300 0.136
0.708 0.314 0.148
0.729 0.330 0.162
0.751 0.350 0.181
0.773 0.373 0.205
0.794 0.404 0.242
0.815 0.446 0.302
0.838 0.506 0.405
0.081 0.247 0.034
0.108 0.246 0.034
0.135 0.244 0.034
0.160 0.241 0.034
0.186 0.238 0.034
0.211 0.235 0.034
0.238 0.231 0.035
0.263 0.226 0.042
0.285 0.225 0.045
0.308 0.224 0.048
0.331 0.224 0.050
0.354 0.224 0.053
0.377 0.224 0.055
0.400 0.225 0.057
0.423 0.226 0.059
0.445 0.228 0.061
0.467 0.230 0.063
0.487 0.235 0.069
0.506 0.240 0.075
0.526 0.246 0.080
0.545 0.252 0.086
0.565 0.258 0.092
0.585 0.266 0.098
0.605 0.274 0.105
0.626 0.282 0.112
0.646 0.292 0.120
0.667 0.303 0.129
0.689 0.315 0.139
0.710 0.328 0.151
0.731 0.343 0.166
0.753 0.362 0.184
0.773 0.385 0.209
0.795 0.415 0.246
0.816 0.455 0.306
0.838 0.513 0.410
0.084 0.287 0.034
0.111 0.286 0.034
0.138 0.283 0.034
0.165 0.280 0.034
0.190 0.277 0.034
0.217 0.273 0.034
0.244 0.269 0.036
0.270 0.263 0.043
0.296 0.258 0.051
0.318 0.256 0.054
0.341 0.256 0.057
0.363 0.255 0.060
0.386 0.255 0.062
0.408 0.255 0.064
0.429 0.256 0.066
0.451 0.257 0.069
0.472 0.258 0.071
0.493 0.260 0.073
0.514 0.262 0.076
0.533 0.266 0.081
0.552 0.272 0.087
0.572 0.278 0.093
0.591 0.285 0.100
0.610 0.292 0.107
0.630 0.300 0.115
0.650 0.310 0.123
0.671 0.320 0.132
0.692 0.331 0.142
0.713 0.343 0.154
0.733 0.358 0.169
0.754 0.376 0.188
0.775 0.398 0.213
0.795 0.427 0.251
0.816 0.465 0.311
0.838 0.521 0.414
0.087 0.329 0.034
0.113 0.329 0.034
0.141 0.325 0.034
0.167 0.322 0.034
0.194 0.318 0.034
0.220 0.315 0.034
0.248 0.309 0.038
0.275 0.302 0.045
0.302 0.296 0.052
0.328 0.291 0.060
0.351 0.289 0.064
0.373 0.288 0.067
0.394 0.287 0.070
0.416 0.287 0.072
0.437 0.287 0.074
0.458 0.287 0.077
0.478 0.288 0.079
0.498 0.289 0.081
0.519 0.291 0.084
0.539 0.292 0.086
0.559 0.295 0.089
0.578 0.299 0.094
0.597 0.305 0.101
0.616 0.312 0.108
0.636 0.320 0.116
0.655 0.329 0.125
0.675 0.338 0.134
0.695 0.348 0.145
0.716 0.360 0.157
0.736 0.374 0.172
0.756 0.391 0.192
0.776 0.412 0.218
0.796 0.439 0.256
0.817 0.476 0.317
0.838 0.529 0.420
0.089 0.371 0.034
0.113 0.371 0.034
0.142 0.368 0.034
0.169 0.365 0.034
0.195 0.361 0.034
0.223 0.356 0.036
0.251 0.349 0.041
0.279 0.343 0.047
0.307 0.337 0.053
0.334 0.330 0.061
0.360 0.325 0.070
0.382 0.323 0.074
0.403 0.321 0.077
0.424 0.321 0.080
0.445 0.320 0.083
0.465 0.320 0.085
0.485 0.320 0.087
0.504 0.320 0.090
0.524 0.321 0.092
0.544 0.322 0.094
0.563 0.324 0.097
0.583 0.326 0.100
0.603 0.329 0.103
0.622 0.333 0.108
0.641 0.341 0.117
0.660 0.348 0.126
0.680 0.356 0.136
0.699 0.366 0.147
0.719 0.377 0.160
0.738 0.391 0.176
0.758 0.407 0.195
0.777 0.427 0.222
0.797 0.453 0.261
0.817 0.488 0.323
0.839 0.538 0.425
0.090 0.412 0.034
0.114 0.413 0.034
0.142 0.410 0.034
0.169 0.407 0.034
0.198 0.401 0.037
0.225 0.396 0.040
0.253 0.390 0.044
0.282 0.383 0.049
0.310 0.377 0.056
0.338 0.370 0.063
0.365 0.364 0.071
0.390 0.359 0.079
0.412 0.356 0.084
0.433 0.355 0.088
0.453 0.354 0.090
0.472 0.353 0.093
0.492 0.353 0.096
0.511 0.353 0.098
0.530 0.353 0.101
0.549 0.354 0.103
0.568 0.355 0.106
0.587 0.356 0.109
0.607 0.358 0.112
0.626 0.360 0.115
0.646 0.363 0.118
0.665 0.368 0.126
0.684 0.376 0.137
0.703 0.385 0.149
0.722 0.395 0.162
0.740 0.408 0.178
0.759 0.423 0.199
0.778 0.442 0.226
0.798 0.466 0.266
0.818 0.499 0.328
0.839 0.547 0.431
0.098 0.448 0.039
0.119 0.450 0.037
0.144 0.449 0.037
0.172 0.444 0.039
0.200 0.439 0.041
0.227 0.434 0.044
0.255 0.428 0.048
0.284 0.422 0.053
0.312 0.416 0.058
0.341 0.410 0.065
0.368 0.404 0.072
0.395 0.398 0.080
0.420 0.392 0.089
0.441 0.389 0.095
0.461 0.388 0.098
0.480 0.387 0.101
0.499 0.386 0.104
0.518 0.385 0.107
0.536 0.385 0.109
0.555 0.385 0.112
0.573 0.386 0.115
0.592 0.387 0.117
0.611 0.388 0.120
0.630 0.389 0.124
0.650 0.390 0.127
0.670 0.392 0.130
0.689 0.396 0.137
0.707 0.404 0.149
0.725 0.414 0.164
0.743 0.425 0.181
0.761 0.440 0.202
0.780 0.457 0.230
0.799 0.480 0.271
0.818 0.511 0.334
0.839 0.557 0.436
0.108 0.481 0.045
0.127 0.483 0.044
0.148 0.483 0.042
0.175 0.479 0.044
0.202 0.475 0.046
0.229 0.470 0.049
0.257 0.465 0.052
0.285 0.459 0.056
0.314 0.453 0.061
0.343 0.447 0.067
0.371 0.441 0.074
0.398 0.435 0.082
0.423 0.430 0.090
0.447 0.424 0.098
0.469 0.421 0.106
0.488 0.420 0.109
0.506 0.419 0.112
0.524 0.418 0.115
0.542 0.417 0.118
0.560 0.417 0.121
0.579 0.417 0.124
0.597 0.417 0.127
0.616 0.417 0.130
0.634 0.417 0.132
0.654 0.418 0.135
0.673 0.419 0.139
0.692 0.421 0.143
0.711 0.424 0.149
0.728 0.433 0.165
0.746 0.443 0.182
0.763 0.456 0.205
0.781 0.473 0.234
0.800 0.494 0.276
0.819 0.523 0.340
0.839 0.566 0.442
0.117 0.512 0.052
0.135 0.513 0.050
0.154 0.514 0.049
0.178 0.512 0.049
0.204 0.508 0.051
0.231 0.503 0.054
0.258 0.499 0.057
0.286 0.494 0.061
0.315 0.488 0.065
0.344 0.483 0.071
0.373 0.477 0.077
0.400 0.471 0.084
0.426 0.466 0.091
0.451 0.460 0.100
0.474 0.455 0.108
0.495 0.451 0.116
0.513 0.450 0.120
0.531 0.449 0.124
0.549 0.448 0.127
0.566 0.448 0.130
0.584 0.447 0.133
0.602 0.446 0.136
0.621 0.446 0.139
0.639 0.446 0.142
0.658 0.446 0.145
0.676 0.446 0.148
0.695 0.447 0.152
0.713 0.448 0.157
0.731 0.452 0.164
0.748 0.461 0.183
0.765 0.473 0.207
0.783 0.488 0.237
0.801 0.508 0.280
0.820 0.535 0.345
0.840 0.575 0.448
0.126 0.540 0.058
0.143 0.541 0.057
0.160 0.542 0.056
0.181 0.541 0.055
0.207 0.538 0.057
0.233 0.534 0.059
0.259 0.530 0.062
0.287 0.525 0.065
0.316 0.520 0.069
0.345 0.515 0.074
0.374 0.510 0.080
0.402 0.504 0.086
0.428 0.499 0.093
0.453 0.494 0.101
0.477 0.489 0.110
0.499 0.485 0.118
0.520 0.480 0.128
0.538 0.479 0.132
0.555 0.478 0.135
0.573 0.477 0.139
0.590 0.476 0.142
0.608 0.475 0.145
0.626 0.474 0.148
0.643 0.473 0.151
0.661 0.473 0.154
0.680 0.473 0.158
0.697 0.473 0.162
0.715 0.473 0.167
0.733 0.475 0.172
0.751 0.479 0.183
0.767 0.490 0.208
0.784 0.503 0.240
0.802 0.522 0.285
0.820 0.546 0.350
0.840 0.585 0.453
0.135 0.565 0.065
0.151 0.566 0.064
0.167 0.567 0.063
0.184 0.568 0.061
0.209 0.565 0.063
0.234 0.562 0.065
0.261 0.558 0.067
0.288 0.554 0.070
0.317 0.550 0.074
0.346 0.545 0.078
0.375 0.540 0.084
0.403 0.535 0.089
0.430 0.530 0.096
0.455 0.525 0.103
0.479 0.521 0.111
0.502 0.516 0.120
0.523 0.512 0.129
0.544 0.508 0.138
0.562 0.506 0.143
0.579 0.505 0.147
0.596 0.504 0.151
0.613 0.502 0.154
0.631 0.501 0.158
0.648 0.500 0.161
0.665 0.499 0.165
0.683 0.499 0.168
0.700 0.498 0.173
0.718 0.498 0.177
0.735 0.499 0.183
0.753 0.500 0.189
0.769 0.506 0.208
0.786 0.519 0.242
0.803 0.535 0.288
0.821 0.559 0.355
0.840 0.595 0.458
0.143 0.590 0.072
0.159 0.591 0.071
0.174 0.591 0.070
0.190 0.592 0.069
0.211 0.591 0.069
0.236 0.588 0.070
0.262 0.585 0.073
0.289 0.581 0.075
0.317 0.577 0.079
0.346 0.573 0.083
0.375 0.568 0.088
0.403 0.564 0.093
0.430 0.559 0.099
0.456 0.555 0.106
0.481 0.550 0.113
0.504 0.546 0.121
0.526 0.542 0.130
0.547 0.537 0.139
0.567 0.533 0.149
0.585 0.531 0.156
0.602 0.530 0.160
0.619 0.529 0.164
0.636 0.527 0.168
0.653 0.526 0.172
0.669 0.525 0.175
0.686 0.524 0.179
0.703 0.523 0.184
0.720 0.522 0.189
0.737 0.522 0.194
0.754 0.523 0.201
0.771 0.524 0.209
0.787 0.534 0.243
0.804 0.549 0.291
0.821 0.571 0.360
0.841 0.605 0.463
0.152 0.613 0.080
0.166 0.614 0.079
0.181 0.614 0.078
0.196 0.615 0.076
0.213 0.616 0.075
0.237 0.613 0.076
0.263 0.610 0.079
0.290 0.607 0.081
0.318 0.603 0.084
0.347 0.599 0.088
0.375 0.595 0.092
0.403 0.591 0.097
0.430 0.587 0.103
0.457 0.583 0.109
0.481 0.578 0.116
0.505 0.574 0.123
0.528 0.570 0.131
0.549 0.566 0.140
0.570 0.562 0.150
0.590 0.557 0.161
0.608 0.555 0.169
0.624 0.554 0.173
0.640 0.552 0.178
0.657 0.551 0.182
0.674 0.550 0.187
0.690 0.548 0.191
0.706 0.547 0.196
0.723 0.546 0.201
0.739 0.545 0.207
0.756 0.545 0.214
0.772 0.545 0.222
0.789 0.549 0.242
0.805 0.563 0.293
0.822 0.583 0.365
0.841 0.615 0.468
0.160 0.635 0.087
0.174 0.636 0.087
0.188 0.636 0.086
0.202 0.637 0.084
0.218 0.638 0.083
0.238 0.637 0.083
0.264 0.634 0.085
0.290 0.631 0.087
0.317 0.628 0.090
0.346 0.625 0.093
0.374 0.621 0.097
0.402 0.617 0.101
0.430 0.613 0.106
0.456 0.609 0.112
0.481 0.605 0.118
0.506 0.601 0.125
0.529 0.597 0.133
0.551 0.593 0.142
0.572 0.589 0.151
0.592 0.585 0.162
0.612 0.581 0.174
0.629 0.578 0.183
0.646 0.577 0.188
0.662 0.575 0.193
0.678 0.574 0.199
0.693 0.572 0.204
0.709 0.571 0.209
0.725 0.569 0.214
0.741 0.568 0.221
0.757 0.567 0.228
0.774 0.567 0.237
0.790 0.567 0.248
0.806 0.577 0.294
0.823 0.596 0.368
0.842 0.625 0.473
0.169 0.656 0.096
0.181 0.657 0.095
0.194 0.658 0.094
0.208 0.658 0.093
0.222 0.659 0.091
0.238 0.660 0.089
0.262 0.658 0.091
0.288 0.655 0.093
0.316 0.652 0.095
0.344 0.649 0.098
0.372 0.646 0.102
0.401 0.642 0.106
0.428 0.639 0.110
0.455 0.635 0.116
0.481 0.631 0.122
0.505 0.627 0.128
0.529 0.623 0.136
0.551 0.619 0.144
0.573 0.615 0.153
0.594 0.611 0.163
0.614 0.607 0.175
0.633 0.603 0.188
0.650 0.600 0.199
0.666 0.599 0.205
0.682 0.597 0.211
0.697 0.595 0.217
0.712 0.594 0.223
0.728 0.592 0.229
0.743 0.590 0.236
0.759 0.589 0.243
0.775 0.588 0.253
0.791 0.588 0.264
0.807 0.592 0.294
0.824 0.609 0.371
0.842 0.636 0.478
0.174 0.677 0.104
0.186 0.678 0.103
0.198 0.678 0.102
0.212 0.679 0.101
0.226 0.679 0.100
0.241 0.680 0.098
0.260 0.680 0.097
0.286 0.678 0.099
0.313 0.675 0.101
0.341 0.672 0.104
0.370 0.669 0.107
0.399 0.666 0.111
0.426 0.663 0.115
0.453 0.660 0.120
0.479 0.656 0.125
0.504 0.652 0.132
0.528 0.649 0.138
0.551 0.645 0.146
0.573 0.641 0.155
0.595 0.637 0.165
0.615 0.633 0.176
0.635 0.629 0.189
0.654 0.625 0.204
0.671 0.622 0.217
0.686 0.620 0.224
0.701 0.619 0.231
0.716 0.617 0.238
0.731 0.615 0.245
0.746 0.613 0.252
0.761 0.611 0.261
0.776 0.610 0.270
0.792 0.608 0.282
0.808 0.609 0.299
0.825 0.622 0.372
0.843 0.647 0.482
0.179 0.697 0.113
0.191 0.697 0.112
0.203 0.698 0.111
0.215 0.698 0.110
0.229 0.699 0.109
0.244 0.699 0.108
0.260 0.700 0.106
0.282 0.699 0.106
0.310 0.697 0.108
0.338 0.694 0.110
0.367 0.692 0.113
0.396 0.689 0.117
0.424 0.686 0.121
0.451 0.683 0.125
0.477 0.680 0.130
0.502 0.677 0.136
0.527 0.673 0.142
0.550 0.670 0.149
0.573 0.666 0.158
0.595 0.663 0.167
0.616 0.659 0.178
0.636 0.655 0.190
0.655 0.651 0.205
0.673 0.647 0.222
0.690 0.643 0.238
0.704 0.641 0.246
0.719 0.640 0.254
0.733 0.638 0.262
0.748 0.636 0.271
0.763 0.633 0.280
0.778 0.631 0.290
0.793 0.630 0.302
0.809 0.629 0.319
0.826 0.636 0.373
0.843 0.659 0.486
0.185 0.715 0.124
0.195 0.716 0.122
0.207 0.716 0.121
0.219 0.716 0.120
0.232 0.717 0.119
0.247 0.717 0.118
0.262 0.718 0.116
0.280 0.719 0.114
0.306 0.717 0.115
0.334 0.715 0.118
0.363 0.713 0.120
0.392 0.710 0.123
0.420 0.708 0.127
0.447 0.705 0.131
0.474 0.702 0.136
0.500 0.699 0.141
0.525 0.696 0.147
0.548 0.693 0.153
0.572 0.690 0.161
0.594 0.687 0.170
0.615 0.683 0.180
0.636 0.680 0.192
0.656 0.676 0.206
0.674 0.672 0.223
0.692 0.668 0.242
0.708 0.664 0.261
0.722 0.662 0.271
0.736 0.660 0.281
0.750 0.658 0.290
0.765 0.656 0.300
0.779 0.653 0.311
0.794 0.651 0.324
0.810 0.649 0.340
0.827 0.650 0.372
0.844 0.671 0.489
0.191 0.732 0.135
0.201 0.733 0.134
0.211 0.733 0.132
0.223 0.734 0.131
0.236 0.734 0.130
0.249 0.734 0.129
0.265 0.735 0.128
0.282 0.735 0.126
0.301 0.736 0.123
0.329 0.734 0.126
0.358 0.732 0.128
0.387 0.730 0.131
0.415 0.728 0.134
0.443 0.726 0.138
0.470 0.723 0.142
0.496 0.721 0.147
0.521 0.718 0.152
0.546 0.715 0.159
0.569 0.713 0.166
0.592 0.710 0.174
0.614 0.707 0.184
0.635 0.703 0.195
0.656 0.700 0.208
0.675 0.696 0.224
0.693 0.692 0.243
0.710 0.688 0.266
0.726 0.684 0.289
0.739 0.682 0.300
0.753 0.680 0.312
0.767 0.678 0.323
0.781 0.675 0.335
0.795 0.673 0.348
0.811 0.670 0.364
0.827 0.669 0.388
0.844 0.683 0.492
0.197 0.749 0.149
0.206 0.749 0.147
0.216 0.749 0.145
0.226 0.750 0.144
0.239 0.750 0.143
0.252 0.750 0.142
0.267 0.751 0.140
0.284 0.751 0.139
0.302 0.752 0.136
0.323 0.752 0.135
0.352 0.750 0.137
0.381 0.749 0.139
0.410 0.747 0.142
0.438 0.745 0.146
0.465 0.743 0.150
0.491 0.741 0.154
0.517 0.738 0.159
0.542 0.736 0.165
0.566 0.734 0.172
0.589 0.731 0.179
0.612 0.728 0.188
0.634 0.726 0.199
0.655 0.723 0.212
0.674 0.719 0.227
0.693 0.716 0.245
