Cinematic 06.cube
#Created by: Pixelmator Pro
#Color profile: "sRGB IEC61966-2.1"
TITLE "Cinematic 06"
#Data domain
DOMAIN_MIN 0.000 0.000 0.000
DOMAIN_MAX 1.000 1.000 1.000
#LUT size
LUT_3D_SIZE 35
0.021 0.023 0.024
0.031 0.025 0.023
0.040 0.027 0.024
0.053 0.030 0.024
0.069 0.032 0.024
0.089 0.035 0.024
0.113 0.037 0.023
0.141 0.040 0.022
0.171 0.044 0.021
0.205 0.047 0.020
0.241 0.051 0.018
0.278 0.055 0.017
0.315 0.060 0.017
0.347 0.066 0.017
0.380 0.073 0.017
0.412 0.079 0.017
0.443 0.087 0.017
0.474 0.094 0.017
0.503 0.102 0.017
0.531 0.110 0.017
0.558 0.119 0.017
0.582 0.129 0.017
0.606 0.139 0.017
0.627 0.151 0.017
0.647 0.163 0.017
0.666 0.176 0.017
0.683 0.192 0.017
0.700 0.209 0.017
0.716 0.228 0.017
0.732 0.251 0.017
0.749 0.279 0.017
0.768 0.313 0.017
0.789 0.357 0.017
0.812 0.417 0.017
0.833 0.507 0.023
0.024 0.028 0.027
0.027 0.030 0.027
0.036 0.034 0.027
0.055 0.038 0.026
0.085 0.042 0.025
0.121 0.043 0.022
0.143 0.046 0.022
0.170 0.049 0.021
0.199 0.052 0.020
0.232 0.055 0.019
0.267 0.060 0.018
0.302 0.064 0.017
0.336 0.069 0.017
0.368 0.075 0.017
0.399 0.082 0.017
0.430 0.088 0.017
0.460 0.095 0.017
0.489 0.103 0.017
0.517 0.111 0.017
0.543 0.119 0.017
0.568 0.128 0.017
0.591 0.138 0.017
0.613 0.148 0.017
0.633 0.159 0.017
0.652 0.171 0.017
0.670 0.184 0.017
0.687 0.199 0.017
0.703 0.216 0.017
0.718 0.235 0.017
0.734 0.258 0.017
0.751 0.285 0.017
0.769 0.319 0.017
0.790 0.362 0.017
0.812 0.422 0.017
0.833 0.511 0.024
0.026 0.033 0.031
0.029 0.035 0.032
0.034 0.039 0.032
0.045 0.043 0.032
0.065 0.050 0.030
0.098 0.056 0.028
0.141 0.060 0.025
0.191 0.062 0.020
0.237 0.063 0.017
0.266 0.066 0.017
0.297 0.070 0.017
0.327 0.075 0.017
0.358 0.080 0.017
0.388 0.086 0.017
0.418 0.092 0.017
0.448 0.099 0.017
0.477 0.106 0.017
0.504 0.113 0.017
0.531 0.120 0.017
0.555 0.129 0.017
0.579 0.137 0.017
0.600 0.147 0.017
0.621 0.157 0.017
0.640 0.168 0.017
0.658 0.179 0.017
0.674 0.193 0.017
0.690 0.207 0.017
0.705 0.224 0.017
0.720 0.243 0.017
0.736 0.265 0.017
0.752 0.292 0.017
0.771 0.325 0.017
0.792 0.368 0.017
0.813 0.427 0.017
0.833 0.515 0.025
0.029 0.040 0.035
0.033 0.042 0.036
0.037 0.045 0.036
0.044 0.049 0.037
0.057 0.056 0.037
0.080 0.065 0.036
0.116 0.073 0.033
0.163 0.080 0.028
0.217 0.083 0.023
0.275 0.084 0.018
0.323 0.085 0.017
0.352 0.089 0.017
0.381 0.094 0.017
0.410 0.099 0.017
0.438 0.105 0.017
0.466 0.111 0.017
0.494 0.118 0.017
0.520 0.124 0.017
0.544 0.132 0.017
0.567 0.140 0.017
0.589 0.148 0.017
0.609 0.157 0.017
0.628 0.167 0.017
0.646 0.177 0.017
0.663 0.189 0.017
0.679 0.202 0.017
0.694 0.216 0.017
0.709 0.232 0.017
0.723 0.251 0.017
0.738 0.273 0.017
0.754 0.299 0.017
0.772 0.332 0.017
0.793 0.375 0.017
0.813 0.433 0.018
0.833 0.519 0.026
0.033 0.049 0.040
0.037 0.049 0.042
0.040 0.053 0.042
0.046 0.057 0.042
0.055 0.063 0.043
0.072 0.071 0.043
0.099 0.082 0.042
0.138 0.094 0.038
0.188 0.103 0.033
0.244 0.108 0.027
0.302 0.110 0.021
0.360 0.110 0.017
0.402 0.112 0.017
0.434 0.116 0.017
0.460 0.120 0.017
0.487 0.126 0.017
0.512 0.132 0.017
0.536 0.138 0.017
0.558 0.145 0.017
0.579 0.153 0.017
0.600 0.160 0.017
0.618 0.169 0.017
0.636 0.178 0.017
0.653 0.188 0.017
0.669 0.200 0.017
0.684 0.212 0.017
0.698 0.226 0.017
0.712 0.242 0.017
0.726 0.260 0.017
0.740 0.281 0.017
0.756 0.307 0.017
0.774 0.340 0.017
0.794 0.382 0.017
0.814 0.440 0.018
0.833 0.524 0.027
0.037 0.060 0.046
0.041 0.059 0.048
0.045 0.063 0.049
0.050 0.067 0.049
0.058 0.072 0.050
0.070 0.080 0.050
0.090 0.091 0.051
0.120 0.103 0.049
0.162 0.116 0.045
0.213 0.127 0.040
0.269 0.135 0.033
0.328 0.139 0.026
0.387 0.140 0.020
0.438 0.140 0.017
0.476 0.142 0.017
0.507 0.144 0.017
0.530 0.149 0.017
0.552 0.155 0.017
0.573 0.161 0.017
0.592 0.168 0.017
0.610 0.175 0.017
0.628 0.183 0.017
0.644 0.192 0.017
0.660 0.201 0.017
0.675 0.212 0.017
0.689 0.224 0.017
0.702 0.237 0.017
0.715 0.253 0.017
0.729 0.270 0.017
0.743 0.291 0.017
0.758 0.317 0.017
0.776 0.348 0.017
0.795 0.389 0.017
0.814 0.447 0.019
0.834 0.529 0.028
0.042 0.073 0.053
0.047 0.072 0.055
0.051 0.074 0.057
0.056 0.079 0.058
0.062 0.084 0.058
0.072 0.091 0.059
0.087 0.100 0.059
0.111 0.112 0.060
0.144 0.126 0.059
0.187 0.141 0.054
0.238 0.154 0.048
0.294 0.163 0.040
0.352 0.168 0.033
0.410 0.171 0.025
0.465 0.172 0.019
0.508 0.172 0.017
0.541 0.173 0.017
0.569 0.175 0.017
0.588 0.180 0.017
0.605 0.186 0.017
0.622 0.192 0.017
0.638 0.200 0.017
0.653 0.208 0.017
0.667 0.217 0.017
0.680 0.227 0.017
0.694 0.238 0.017
0.706 0.251 0.017
0.719 0.265 0.017
0.732 0.282 0.017
0.746 0.302 0.017
0.761 0.327 0.017
0.778 0.358 0.017
0.797 0.398 0.017
0.815 0.455 0.020
0.834 0.535 0.030
0.048 0.089 0.062
0.053 0.088 0.064
0.059 0.088 0.066
0.063 0.093 0.067
0.069 0.098 0.068
0.077 0.104 0.069
0.089 0.112 0.069
0.107 0.123 0.070
0.133 0.136 0.071
0.168 0.152 0.070
0.212 0.167 0.065
0.263 0.181 0.059
0.318 0.192 0.050
0.375 0.199 0.042
0.431 0.204 0.033
0.484 0.206 0.025
0.532 0.206 0.019
0.568 0.206 0.017
0.594 0.207 0.017
0.617 0.208 0.017
0.633 0.213 0.017
0.648 0.219 0.017
0.661 0.226 0.017
0.674 0.234 0.017
0.687 0.243 0.017
0.699 0.254 0.017
0.711 0.266 0.017
0.723 0.280 0.017
0.735 0.296 0.017
0.749 0.315 0.017
0.763 0.339 0.017
0.780 0.369 0.017
0.798 0.408 0.017
0.816 0.463 0.021
0.834 0.541 0.031
0.055 0.107 0.072
0.061 0.106 0.075
0.067 0.105 0.077
0.072 0.108 0.078
0.077 0.113 0.079
0.085 0.119 0.080
0.095 0.126 0.081
0.109 0.136 0.081
0.129 0.147 0.082
0.157 0.161 0.083
0.194 0.178 0.083
0.237 0.194 0.078
0.286 0.209 0.071
0.340 0.222 0.063
0.395 0.231 0.053
0.449 0.237 0.044
0.501 0.241 0.035
0.547 0.242 0.026
0.586 0.242 0.019
0.616 0.242 0.017
0.637 0.243 0.017
0.656 0.243 0.017
0.670 0.248 0.017
0.682 0.254 0.017
0.693 0.263 0.017
0.704 0.272 0.017
0.715 0.283 0.017
0.727 0.296 0.017
0.739 0.312 0.017
0.752 0.330 0.017
0.766 0.353 0.017
0.783 0.381 0.017
0.800 0.419 0.018
0.817 0.473 0.022
0.835 0.548 0.033
0.063 0.127 0.084
0.070 0.126 0.086
0.076 0.125 0.089
0.081 0.125 0.091
0.087 0.130 0.092
0.094 0.136 0.093
0.103 0.142 0.093
0.115 0.151 0.094
0.131 0.161 0.095
0.153 0.173 0.095
0.182 0.188 0.096
0.219 0.205 0.097
0.261 0.222 0.093
0.309 0.238 0.086
0.360 0.251 0.077
0.414 0.262 0.068
0.467 0.270 0.057
0.516 0.275 0.047
0.560 0.279 0.037
0.598 0.280 0.028
0.631 0.280 0.020
0.655 0.279 0.017
0.672 0.279 0.017
0.688 0.279 0.017
0.699 0.285 0.017
0.710 0.293 0.017
0.720 0.303 0.017
0.731 0.315 0.017
0.742 0.329 0.017
0.755 0.346 0.017
0.769 0.368 0.017
0.785 0.395 0.017
0.801 0.432 0.018
0.818 0.483 0.024
0.835 0.554 0.035
0.073 0.149 0.096
0.079 0.147 0.098
0.085 0.146 0.101
0.092 0.144 0.104
0.098 0.148 0.105
0.104 0.153 0.106
0.112 0.160 0.107
0.123 0.167 0.108
0.136 0.176 0.108
0.154 0.187 0.109
0.177 0.200 0.110
0.207 0.215 0.111
0.244 0.232 0.112
0.285 0.249 0.108
0.331 0.266 0.102
0.381 0.280 0.094
0.432 0.293 0.084
0.484 0.302 0.073
0.531 0.309 0.061
0.574 0.314 0.050
0.610 0.317 0.038
0.641 0.318 0.028
0.668 0.317 0.020
0.687 0.316 0.017
0.702 0.316 0.017
0.715 0.316 0.017
0.725 0.324 0.017
0.735 0.335 0.017
0.746 0.348 0.017
0.758 0.364 0.017
0.772 0.384 0.017
0.787 0.410 0.017
0.803 0.445 0.019
0.819 0.494 0.024
0.836 0.562 0.036
0.083 0.171 0.109
0.089 0.169 0.112
0.096 0.168 0.114
0.103 0.166 0.117
0.109 0.167 0.119
0.115 0.172 0.120
0.123 0.178 0.121
0.132 0.185 0.122
0.144 0.193 0.123
0.159 0.203 0.123
0.178 0.214 0.124
0.202 0.227 0.125
0.232 0.242 0.126
0.269 0.259 0.127
0.309 0.277 0.125
0.353 0.294 0.119
0.401 0.309 0.111
0.451 0.323 0.102
0.500 0.334 0.090
0.547 0.342 0.078
0.587 0.349 0.065
0.622 0.353 0.051
0.652 0.355 0.039
0.678 0.355 0.028
0.700 0.354 0.018
0.715 0.353 0.017
0.728 0.352 0.017
0.739 0.357 0.017
0.750 0.368 0.017
0.762 0.383 0.017
0.775 0.401 0.017
0.790 0.426 0.017
0.805 0.459 0.019
0.820 0.505 0.025
0.836 0.569 0.038
0.093 0.194 0.123
0.100 0.192 0.125
0.107 0.190 0.127
0.114 0.189 0.130
0.121 0.187 0.133
0.127 0.191 0.134
0.135 0.197 0.135
0.143 0.203 0.137
0.154 0.211 0.137
0.167 0.219 0.138
0.183 0.230 0.139
0.203 0.241 0.140
0.227 0.255 0.140
0.257 0.270 0.141
0.293 0.286 0.143
0.333 0.304 0.142
0.375 0.321 0.136
0.422 0.337 0.129
0.470 0.352 0.119
0.518 0.364 0.108
0.562 0.374 0.095
0.601 0.382 0.081
0.635 0.388 0.066
0.664 0.391 0.051
0.688 0.392 0.037
0.710 0.391 0.025
0.728 0.389 0.017
0.741 0.388 0.017
0.754 0.390 0.017
0.765 0.403 0.017
0.778 0.419 0.017
0.792 0.442 0.017
0.807 0.473 0.018
0.821 0.516 0.026
0.837 0.577 0.039
0.105 0.217 0.137
0.111 0.215 0.139
0.118 0.213 0.141
0.125 0.212 0.144
0.133 0.210 0.147
0.140 0.211 0.149
0.147 0.216 0.150
0.155 0.222 0.151
0.165 0.229 0.152
0.176 0.237 0.153
0.190 0.246 0.154
0.207 0.257 0.155
0.228 0.268 0.156
0.253 0.282 0.156
0.282 0.297 0.157
0.317 0.313 0.159
0.357 0.331 0.159
0.398 0.348 0.154
0.443 0.365 0.147
0.490 0.380 0.138
0.536 0.394 0.126
0.578 0.405 0.113
0.615 0.415 0.098
0.648 0.421 0.081
0.676 0.426 0.064
0.700 0.427 0.046
0.720 0.427 0.031
0.740 0.425 0.018
0.755 0.422 0.017
0.769 0.424 0.017
0.781 0.439 0.017
0.795 0.459 0.017
0.809 0.487 0.018
0.822 0.528 0.026
0.838 0.584 0.040
0.116 0.240 0.151
0.123 0.238 0.153
0.130 0.236 0.156
0.137 0.235 0.158
0.145 0.233 0.161
0.153 0.231 0.164
0.159 0.235 0.165
0.167 0.241 0.167
0.176 0.247 0.168
0.187 0.255 0.169
0.199 0.263 0.170
0.214 0.273 0.171
0.232 0.283 0.171
0.253 0.295 0.172
0.278 0.309 0.173
0.307 0.323 0.174
0.341 0.340 0.175
0.381 0.357 0.176
0.421 0.375 0.171
0.465 0.392 0.165
0.510 0.408 0.156
0.554 0.423 0.144
0.595 0.435 0.131
0.631 0.446 0.115
0.662 0.453 0.096
0.688 0.459 0.077
0.711 0.461 0.056
0.732 0.461 0.037
0.753 0.459 0.021
0.770 0.455 0.017
0.784 0.459 0.017
0.797 0.476 0.017
0.811 0.502 0.017
0.824 0.540 0.025
0.838 0.592 0.041
0.129 0.263 0.166
0.135 0.261 0.168
0.142 0.260 0.170
0.149 0.258 0.172
0.157 0.256 0.175
0.165 0.254 0.178
0.173 0.255 0.181
0.180 0.260 0.182
0.188 0.266 0.183
0.198 0.273 0.184
0.210 0.281 0.185
0.223 0.290 0.186
0.239 0.299 0.187
0.257 0.310 0.188
0.278 0.322 0.188
0.302 0.335 0.189
0.331 0.350 0.190
0.365 0.366 0.191
0.404 0.384 0.193
0.445 0.402 0.189
0.487 0.419 0.182
0.531 0.436 0.174
0.573 0.451 0.162
0.612 0.465 0.148
0.646 0.476 0.131
0.676 0.484 0.111
0.701 0.490 0.088
0.724 0.493 0.064
0.746 0.493 0.041
0.768 0.490 0.021
0.785 0.486 0.017
0.799 0.494 0.017
0.813 0.517 0.017
0.825 0.551 0.024
0.839 0.600 0.042
0.141 0.286 0.181
0.148 0.285 0.183
0.155 0.283 0.185
0.162 0.282 0.187
0.169 0.280 0.190
0.177 0.278 0.192
0.186 0.276 0.196
0.193 0.280 0.197
0.201 0.286 0.199
0.210 0.292 0.200
0.221 0.299 0.201
0.233 0.307 0.202
0.247 0.316 0.203
0.263 0.326 0.204
0.281 0.337 0.204
0.302 0.349 0.205
0.327 0.362 0.206
0.356 0.376 0.207
0.390 0.392 0.208
0.428 0.410 0.210
0.469 0.428 0.207
0.510 0.446 0.200
0.552 0.463 0.191
0.593 0.479 0.179
0.629 0.493 0.164
0.662 0.505 0.146
0.690 0.514 0.124
0.715 0.520 0.098
0.738 0.523 0.070
0.761 0.522 0.042
0.784 0.518 0.019
0.801 0.513 0.017
0.814 0.532 0.017
0.827 0.563 0.023
0.840 0.607 0.041
0.154 0.310 0.196
0.161 0.309 0.198
0.168 0.307 0.200
0.175 0.305 0.202
0.182 0.304 0.204
0.190 0.302 0.207
0.198 0.300 0.210
0.207 0.300 0.213
0.214 0.305 0.214
0.223 0.311 0.216
0.233 0.318 0.217
0.244 0.326 0.218
0.257 0.334 0.219
0.271 0.343 0.220
0.287 0.353 0.221
0.305 0.363 0.221
0.327 0.375 0.222
0.352 0.388 0.223
0.381 0.403 0.224
0.414 0.419 0.225
0.452 0.436 0.227
0.493 0.455 0.225
0.533 0.473 0.218
0.573 0.490 0.209
0.612 0.506 0.196
0.647 0.521 0.180
0.678 0.533 0.160
0.705 0.542 0.135
0.730 0.547 0.106
0.754 0.550 0.073
0.778 0.549 0.040
0.802 0.543 0.017
0.816 0.548 0.017
0.828 0.574 0.020
0.841 0.614 0.037
0.168 0.334 0.212
0.174 0.333 0.213
0.181 0.331 0.215
0.188 0.330 0.217
0.195 0.328 0.220
0.203 0.326 0.222
0.212 0.324 0.225
0.221 0.322 0.229
0.228 0.326 0.231
0.237 0.331 0.232
0.246 0.338 0.233
0.256 0.344 0.235
0.268 0.352 0.236
0.280 0.360 0.237
0.295 0.369 0.237
0.311 0.379 0.238
0.330 0.389 0.239
0.351 0.401 0.240
0.376 0.414 0.240
0.406 0.429 0.241
0.439 0.445 0.243
0.477 0.462 0.244
0.517 0.481 0.243
0.556 0.499 0.236
0.595 0.517 0.226
0.632 0.533 0.213
0.665 0.547 0.195
0.695 0.559 0.172
0.721 0.568 0.144
0.746 0.573 0.110
0.772 0.574 0.070
0.797 0.572 0.032
0.817 0.565 0.017
0.830 0.586 0.018
0.842 0.622 0.033
0.182 0.359 0.228
0.188 0.357 0.229
0.195 0.356 0.231
0.202 0.354 0.233
0.209 0.352 0.236
0.217 0.351 0.238
0.225 0.349 0.241
0.234 0.347 0.244
0.243 0.346 0.247
0.251 0.352 0.249
0.259 0.357 0.250
0.269 0.364 0.251
0.280 0.371 0.253
0.291 0.378 0.254
0.304 0.387 0.255
0.319 0.395 0.255
0.336 0.405 0.256
0.354 0.416 0.257
0.376 0.427 0.258
0.401 0.440 0.258
0.430 0.455 0.259
0.464 0.471 0.261
0.501 0.488 0.262
0.540 0.507 0.262
0.578 0.525 0.255
0.616 0.542 0.244
0.651 0.558 0.229
0.683 0.572 0.209
0.712 0.584 0.183
0.738 0.591 0.149
0.765 0.596 0.108
0.792 0.596 0.060
0.817 0.591 0.019
0.831 0.598 0.017
0.843 0.629 0.027
0.197 0.384 0.244
0.203 0.382 0.246
0.209 0.381 0.248
0.216 0.379 0.250
0.223 0.378 0.252
0.231 0.376 0.255
0.239 0.374 0.257
0.248 0.372 0.260
0.257 0.370 0.264
0.266 0.373 0.266
0.274 0.378 0.267
0.283 0.384 0.269
0.293 0.390 0.270
0.303 0.397 0.271
0.315 0.405 0.272
0.329 0.413 0.273
0.343 0.422 0.274
0.360 0.431 0.275
0.379 0.442 0.276
0.401 0.453 0.276
0.426 0.466 0.277
0.455 0.480 0.278
0.489 0.496 0.279
0.526 0.513 0.281
0.564 0.532 0.281
0.601 0.550 0.273
0.637 0.567 0.261
0.671 0.583 0.244
0.701 0.596 0.221
0.729 0.606 0.190
0.757 0.613 0.149
0.786 0.616 0.098
0.813 0.614 0.042
0.832 0.610 0.017
0.844 0.636 0.021
0.212 0.409 0.262
0.218 0.408 0.264
0.224 0.407 0.265
0.231 0.405 0.267
0.238 0.404 0.269
0.245 0.402 0.272
0.254 0.400 0.274
0.263 0.398 0.277
0.272 0.396 0.281
0.281 0.394 0.284
0.289 0.399 0.286
0.298 0.405 0.287
0.307 0.411 0.288
0.317 0.417 0.289
0.328 0.424 0.291
0.340 0.432 0.292
0.353 0.439 0.292
0.368 0.448 0.293
0.385 0.457 0.294
0.404 0.468 0.295
0.426 0.479 0.296
0.451 0.492 0.297
0.480 0.506 0.298
0.514 0.521 0.299
0.550 0.538 0.301
0.587 0.557 0.300
0.623 0.574 0.292
0.658 0.591 0.278
0.690 0.606 0.259
0.720 0.618 0.231
0.749 0.627 0.193
0.779 0.633 0.142
0.808 0.633 0.076
0.833 0.627 0.017
0.846 0.644 0.017
0.228 0.436 0.280
0.234 0.434 0.282
0.240 0.433 0.284
0.247 0.432 0.285
0.254 0.430 0.287
0.261 0.428 0.290
0.269 0.427 0.292
0.278 0.425 0.295
0.287 0.423 0.298
0.297 0.421 0.302
0.306 0.422 0.305
0.313 0.427 0.306
0.322 0.432 0.307
0.331 0.438 0.309
0.341 0.444 0.310
0.352 0.451 0.311
0.364 0.458 0.312
0.378 0.466 0.313
0.393 0.474 0.314
0.410 0.483 0.314
0.429 0.493 0.315
0.451 0.504 0.316
0.476 0.517 0.317
0.506 0.531 0.318
0.538 0.546 0.320
0.574 0.563 0.322
0.610 0.580 0.321
0.645 0.597 0.311
0.679 0.613 0.295
0.710 0.627 0.272
0.740 0.639 0.237
0.772 0.646 0.188
0.803 0.649 0.121
0.830 0.647 0.040
0.846 0.652 0.017
0.246 0.463 0.300
0.252 0.461 0.301
0.257 0.460 0.303
0.264 0.459 0.305
0.270 0.457 0.307
0.278 0.456 0.309
0.286 0.454 0.311
0.294 0.452 0.314
0.303 0.450 0.317
0.313 0.448 0.320
0.322 0.446 0.324
0.331 0.449 0.326
0.339 0.454 0.327
0.347 0.460 0.329
0.357 0.465 0.330
0.367 0.471 0.331
0.378 0.478 0.332
0.390 0.485 0.333
0.403 0.492 0.334
0.418 0.500 0.335
0.435 0.509 0.336
0.454 0.519 0.337
0.476 0.529 0.338
0.501 0.541 0.339
0.530 0.555 0.340
0.563 0.569 0.341
0.598 0.586 0.344
0.633 0.603 0.342
0.667 0.619 0.330
0.700 0.635 0.311
0.731 0.648 0.282
0.763 0.658 0.236
0.797 0.663 0.170
0.827 0.663 0.079
0.847 0.660 0.017
0.265 0.490 0.321
0.270 0.489 0.322
0.276 0.488 0.324
0.282 0.487 0.326
0.288 0.485 0.327
0.295 0.484 0.329
0.303 0.482 0.332
0.312 0.480 0.334
0.320 0.478 0.337
0.330 0.476 0.340
0.339 0.475 0.344
0.349 0.473 0.348
0.357 0.477 0.349
0.365 0.482 0.350
0.373 0.487 0.352
0.383 0.493 0.353
0.393 0.498 0.354
0.403 0.504 0.355
0.415 0.511 0.356
0.429 0.518 0.357
0.443 0.526 0.358
0.460 0.534 0.359
0.479 0.543 0.360
0.501 0.554 0.361
0.526 0.565 0.362
0.555 0.578 0.363
0.587 0.592 0.365
0.621 0.608 0.368
0.656 0.624 0.363
0.689 0.640 0.349
0.721 0.655 0.325
0.754 0.666 0.286
0.790 0.674 0.224
0.823 0.677 0.130
0.848 0.669 0.017
0.285 0.518 0.343
0.290 0.517 0.345
0.296 0.516 0.346
0.302 0.515 0.348
0.308 0.514 0.350
0.315 0.512 0.352
0.322 0.511 0.354
0.330 0.509 0.356
0.339 0.507 0.359
0.348 0.505 0.362
0.358 0.504 0.365
0.367 0.502 0.369
0.376 0.501 0.372
0.384 0.506 0.373
0.392 0.510 0.375
0.400 0.515 0.376
0.409 0.520 0.377
0.419 0.525 0.378
0.430 0.531 0.379
0.442 0.537 0.380
0.455 0.543 0.381
0.469 0.551 0.382
0.486 0.558 0.383
0.505 0.567 0.384
0.526 0.577 0.385
