Cinematic 05.cube
#Created by: Pixelmator Pro
#Color profile: "sRGB IEC61966-2.1"
TITLE "Cinematic 05"
#Data domain
#LUT size
LUT_3D_SIZE 7
DOMAIN_MIN 0.000000 0.000000 0.000000
DOMAIN_MAX 0.882353 0.882353 0.882353
0.061 0.060 0.034
0.061 0.060 0.034
0.249 0.071 0.034
0.396 0.102 0.045
0.512 0.149 0.069
0.627 0.206 0.102
0.745 0.294 0.164
0.073 0.170 0.034
0.194 0.163 0.034
0.314 0.164 0.037
0.429 0.185 0.057
0.533 0.217 0.082
0.639 0.262 0.115
0.750 0.338 0.177
0.089 0.371 0.034
0.223 0.356 0.036
0.360 0.325 0.070
0.465 0.320 0.085
0.563 0.324 0.097
0.660 0.348 0.126
0.758 0.407 0.195
0.126 0.540 0.058
0.233 0.534 0.059
0.374 0.510 0.080
0.499 0.485 0.118
0.590 0.476 0.142
0.680 0.473 0.158
0.767 0.490 0.208
0.169 0.656 0.096
0.238 0.660 0.089
0.372 0.646 0.102
0.505 0.627 0.128
0.614 0.607 0.175
0.697 0.595 0.217
0.775 0.588 0.253
0.197 0.749 0.149
0.252 0.750 0.142
0.352 0.750 0.137
0.491 0.741 0.154
0.612 0.728 0.188
0.711 0.712 0.267
0.783 0.697 0.360
0.229 0.818 0.276
0.271 0.819 0.266
0.341 0.820 0.250
0.436 0.820 0.233
0.572 0.817 0.252
0.696 0.811 0.303
0.790 0.799 0.461
0.061 0.060 0.034
0.135 0.076 0.076
0.247 0.121 0.105
0.377 0.147 0.121
0.499 0.182 0.137
0.620 0.228 0.160
0.743 0.309 0.216
0.087 0.176 0.109
0.200 0.190 0.121
0.313 0.192 0.117
0.422 0.210 0.125
0.527 0.238 0.141
0.635 0.280 0.169
0.748 0.352 0.234
0.122 0.361 0.131
0.213 0.374 0.122
0.366 0.341 0.142
0.470 0.331 0.145
0.564 0.335 0.153
0.657 0.364 0.188
0.756 0.419 0.259
0.157 0.530 0.150
0.230 0.538 0.141
0.370 0.521 0.146
0.502 0.495 0.183
0.593 0.485 0.203
0.681 0.478 0.213
0.766 0.500 0.281
0.192 0.651 0.180
0.249 0.656 0.171
0.363 0.653 0.167
0.503 0.634 0.191
0.615 0.613 0.244
0.698 0.601 0.288
0.775 0.591 0.315
0.217 0.746 0.238
0.266 0.748 0.229
0.349 0.751 0.214
0.484 0.744 0.222
0.609 0.732 0.258
0.711 0.715 0.345
0.783 0.700 0.429
0.245 0.817 0.378
0.286 0.818 0.370
0.351 0.819 0.352
0.441 0.820 0.331
0.565 0.818 0.332
0.694 0.812 0.379
0.790 0.799 0.518
0.091 0.075 0.154
0.174 0.119 0.156
0.265 0.172 0.184
0.362 0.226 0.229
0.477 0.255 0.273
0.603 0.287 0.308
0.737 0.351 0.371
0.139 0.183 0.208
0.224 0.213 0.213
0.306 0.255 0.233
0.398 0.292 0.279
0.510 0.304 0.301
0.624 0.329 0.318
0.744 0.384 0.372
0.180 0.345 0.279
0.256 0.354 0.295
0.362 0.367 0.318
0.470 0.371 0.312
0.559 0.377 0.308
0.653 0.397 0.325
0.754 0.443 0.385
0.212 0.516 0.322
0.271 0.521 0.328
0.362 0.533 0.316
0.506 0.513 0.341
0.599 0.500 0.346
0.682 0.492 0.347
0.764 0.519 0.420
0.233 0.641 0.362
0.283 0.645 0.361
0.364 0.653 0.346
0.496 0.644 0.342
0.617 0.624 0.397
0.700 0.610 0.427
0.776 0.595 0.427
0.251 0.741 0.422
0.296 0.743 0.418
0.368 0.746 0.404
0.468 0.749 0.379
0.604 0.737 0.404
0.711 0.720 0.478
0.784 0.704 0.529
0.273 0.815 0.527
0.311 0.816 0.524
0.373 0.817 0.515
0.452 0.818 0.496
0.551 0.819 0.473
0.689 0.813 0.501
0.790 0.801 0.591
0.148 0.128 0.299
0.215 0.162 0.297
0.296 0.217 0.307
0.386 0.266 0.360
0.475 0.321 0.423
0.585 0.375 0.494
0.728 0.418 0.551
0.187 0.215 0.361
0.252 0.240 0.364
0.334 0.287 0.370
0.415 0.333 0.412
0.497 0.381 0.469
0.606 0.415 0.523
0.736 0.449 0.561
0.226 0.344 0.453
0.289 0.356 0.465
0.382 0.389 0.467
0.457 0.429 0.486
0.532 0.463 0.530
0.640 0.473 0.555
0.748 0.494 0.570
0.261 0.504 0.518
0.316 0.510 0.528
0.402 0.518 0.543
0.503 0.527 0.562
0.595 0.533 0.565
0.679 0.534 0.561
0.762 0.548 0.570
0.288 0.632 0.557
0.334 0.635 0.563
0.406 0.639 0.571
0.494 0.647 0.571
0.617 0.636 0.579
0.704 0.623 0.581
0.774 0.618 0.589
0.299 0.735 0.593
0.340 0.736 0.595
0.405 0.739 0.596
0.487 0.743 0.591
0.593 0.743 0.578
0.712 0.727 0.608
0.785 0.710 0.623
0.312 0.813 0.641
0.348 0.814 0.640
0.405 0.815 0.639
0.477 0.816 0.634
0.560 0.818 0.622
0.681 0.815 0.616
0.790 0.803 0.661
0.203 0.182 0.490
0.258 0.209 0.487
0.334 0.254 0.488
0.414 0.312 0.506
0.497 0.364 0.548
0.590 0.430 0.595
0.717 0.500 0.655
0.234 0.254 0.530
0.287 0.276 0.531
0.364 0.317 0.532
0.440 0.373 0.541
0.517 0.418 0.575
0.605 0.473 0.616
0.726 0.526 0.665
0.270 0.361 0.583
0.325 0.379 0.586
0.403 0.412 0.589
0.480 0.456 0.590
0.548 0.493 0.612
0.626 0.534 0.645
0.739 0.564 0.679
0.305 0.501 0.629
0.354 0.507 0.635
0.430 0.518 0.643
0.519 0.541 0.645
0.583 0.570 0.651
0.652 0.599 0.676
0.755 0.607 0.692
0.329 0.622 0.662
0.374 0.625 0.666
0.443 0.630 0.673
0.527 0.636 0.682
0.616 0.642 0.691
0.695 0.651 0.698
0.772 0.651 0.692
0.357 0.730 0.686
0.394 0.731 0.689
0.453 0.732 0.693
0.525 0.734 0.698
0.603 0.738 0.700
0.709 0.734 0.700
0.786 0.718 0.700
0.361 0.811 0.716
0.394 0.811 0.717
0.446 0.812 0.718
0.511 0.813 0.719
0.584 0.814 0.717
0.673 0.817 0.707
0.789 0.806 0.723
0.266 0.248 0.638
0.312 0.270 0.636
0.378 0.307 0.635
0.453 0.361 0.637
0.526 0.419 0.648
0.611 0.475 0.675
0.717 0.558 0.716
0.291 0.308 0.654
0.335 0.328 0.654
0.401 0.363 0.653
0.475 0.411 0.655
0.544 0.464 0.663
0.624 0.511 0.687
0.723 0.584 0.724
0.325 0.402 0.678
0.368 0.418 0.679
0.433 0.444 0.681
0.506 0.481 0.683
0.572 0.524 0.687
0.644 0.563 0.705
0.731 0.622 0.737
0.352 0.507 0.708
0.395 0.516 0.710
0.462 0.533 0.713
0.537 0.558 0.715
0.604 0.588 0.715
0.666 0.621 0.726
0.742 0.666 0.753
0.379 0.617 0.734
0.418 0.621 0.736
0.479 0.627 0.740
0.553 0.635 0.745
0.630 0.652 0.745
0.690 0.678 0.747
0.756 0.707 0.769
0.402 0.721 0.755
0.437 0.722 0.757
0.492 0.725 0.761
0.561 0.727 0.765
0.634 0.731 0.770
0.711 0.735 0.775
0.779 0.745 0.782
0.430 0.808 0.776
0.459 0.808 0.777
0.504 0.809 0.779
0.561 0.809 0.781
0.623 0.810 0.783
0.694 0.812 0.785
0.787 0.810 0.783
0.365 0.357 0.757
0.400 0.373 0.757
0.451 0.400 0.757
0.513 0.438 0.757
0.578 0.483 0.759
0.648 0.542 0.762
0.733 0.610 0.781
0.382 0.403 0.764
0.415 0.417 0.764
0.466 0.442 0.764
0.527 0.475 0.764
0.591 0.515 0.766
0.658 0.568 0.769
0.738 0.630 0.785
0.406 0.472 0.774
0.438 0.483 0.775
0.488 0.502 0.775
0.548 0.529 0.776
0.610 0.562 0.776
0.673 0.606 0.778
0.745 0.660 0.792
0.432 0.549 0.787
0.464 0.557 0.787
0.512 0.570 0.788
0.571 0.590 0.789
0.631 0.615 0.789
0.691 0.650 0.790
0.754 0.696 0.800
0.452 0.624 0.800
0.483 0.629 0.801
0.532 0.639 0.802
0.591 0.653 0.803
0.651 0.670 0.803
0.709 0.695 0.803
0.764 0.731 0.809
0.477 0.715 0.814
0.505 0.717 0.814
0.549 0.720 0.815
0.604 0.724 0.817
0.662 0.730 0.819
0.724 0.743 0.819
0.776 0.767 0.819
0.502 0.802 0.828
0.527 0.802 0.829
0.566 0.803 0.830
0.614 0.804 0.831
0.667 0.805 0.833
0.724 0.806 0.835
0.789 0.809 0.839
