Cinematic 06.cube
#Created by: Pixelmator Pro
#Color profile: "sRGB IEC61966-2.1"
TITLE "Cinematic 06"
#Data domain
#LUT size
LUT_3D_SIZE 5
DOMAIN_MIN 0.000000 0.000000 0.000000
DOMAIN_MAX 0.823529 0.823529 0.823529
0.021 0.023 0.024
0.141 0.040 0.022
0.380 0.073 0.017
0.582 0.129 0.017
0.716 0.228 0.017
0.048 0.089 0.062
0.107 0.123 0.070
0.431 0.204 0.033
0.648 0.219 0.017
0.735 0.296 0.017
0.116 0.240 0.151
0.167 0.241 0.167
0.278 0.309 0.173
0.554 0.423 0.144
0.753 0.459 0.021
0.212 0.409 0.262
0.263 0.398 0.277
0.328 0.424 0.291
0.451 0.492 0.297
0.690 0.606 0.259
0.359 0.600 0.425
0.399 0.595 0.436
0.458 0.586 0.455
0.514 0.605 0.465
0.622 0.649 0.474
0.022 0.037 0.104
0.091 0.049 0.109
0.337 0.082 0.134
0.552 0.137 0.114
0.698 0.242 0.090
0.024 0.107 0.115
0.096 0.113 0.120
0.296 0.158 0.126
0.544 0.221 0.124
0.706 0.311 0.109
0.086 0.261 0.181
0.165 0.250 0.195
0.257 0.280 0.211
0.536 0.389 0.195
0.744 0.433 0.098
0.192 0.424 0.284
0.253 0.413 0.297
0.331 0.409 0.320
0.434 0.470 0.326
0.684 0.591 0.300
0.345 0.605 0.440
0.389 0.600 0.449
0.455 0.592 0.467
0.515 0.599 0.484
0.616 0.642 0.493
0.019 0.064 0.284
0.098 0.087 0.272
0.254 0.115 0.285
0.521 0.156 0.328
0.697 0.251 0.305
0.015 0.139 0.276
0.096 0.150 0.274
0.232 0.174 0.261
0.481 0.224 0.311
0.680 0.320 0.304
0.038 0.274 0.281
0.101 0.278 0.284
0.244 0.285 0.290
0.431 0.319 0.292
0.668 0.420 0.306
0.102 0.443 0.335
0.187 0.442 0.344
0.319 0.431 0.360
0.422 0.446 0.382
0.675 0.561 0.364
0.302 0.615 0.470
0.356 0.612 0.477
0.439 0.604 0.491
0.520 0.596 0.514
0.606 0.631 0.526
0.018 0.112 0.482
0.092 0.134 0.473
0.249 0.180 0.444
0.431 0.210 0.468
0.677 0.277 0.517
0.020 0.188 0.470
0.095 0.202 0.464
0.252 0.232 0.438
0.406 0.262 0.442
0.663 0.334 0.505
0.025 0.308 0.448
0.073 0.312 0.450
0.236 0.323 0.449
0.392 0.346 0.422
0.635 0.413 0.483
0.063 0.452 0.454
0.121 0.454 0.456
0.242 0.458 0.460
0.402 0.464 0.466
0.606 0.503 0.467
0.180 0.622 0.519
0.249 0.623 0.524
0.367 0.621 0.533
0.497 0.615 0.546
0.603 0.621 0.571
0.018 0.203 0.664
0.080 0.221 0.660
0.241 0.259 0.652
0.417 0.314 0.633
0.613 0.362 0.644
0.023 0.271 0.657
0.088 0.285 0.654
0.246 0.314 0.646
0.418 0.356 0.628
0.601 0.402 0.632
0.021 0.375 0.645
0.082 0.383 0.644
0.238 0.399 0.640
0.416 0.424 0.625
0.583 0.463 0.615
0.037 0.495 0.631
0.081 0.497 0.631
0.185 0.501 0.632
0.388 0.511 0.630
0.578 0.537 0.606
0.116 0.628 0.632
0.167 0.629 0.633
0.263 0.630 0.634
0.395 0.632 0.636
0.584 0.635 0.639
