Cinematic 05.cube
#Created by: Pixelmator Pro
#Color profile: "sRGB IEC61966-2.1"
TITLE "Cinematic 05"
#Data domain
#LUT size
LUT_3D_SIZE 5
DOMAIN_MIN 0.000000 0.000000 0.000000
DOMAIN_MAX 0.823529 0.823529 0.823529
0.061 0.060 0.034
0.131 0.063 0.034
0.371 0.093 0.041
0.534 0.159 0.075
0.697 0.254 0.133
0.081 0.247 0.034
0.263 0.226 0.042
0.423 0.226 0.059
0.565 0.258 0.092
0.710 0.328 0.151
0.117 0.512 0.052
0.286 0.494 0.061
0.474 0.455 0.108
0.602 0.446 0.136
0.731 0.452 0.164
0.174 0.677 0.104
0.286 0.678 0.099
0.479 0.656 0.125
0.635 0.629 0.189
0.746 0.613 0.252
0.216 0.792 0.205
0.289 0.794 0.192
0.439 0.793 0.185
0.620 0.784 0.223
0.760 0.766 0.366
0.066 0.060 0.071
0.188 0.113 0.114
0.343 0.175 0.158
0.514 0.213 0.185
0.691 0.286 0.231
0.125 0.241 0.163
0.266 0.259 0.182
0.420 0.264 0.176
0.557 0.291 0.192
0.706 0.353 0.245
0.171 0.495 0.200
0.276 0.509 0.188
0.479 0.474 0.220
0.607 0.459 0.232
0.729 0.471 0.280
0.210 0.669 0.247
0.293 0.676 0.232
0.471 0.665 0.234
0.636 0.638 0.309
0.747 0.619 0.364
0.244 0.790 0.367
0.311 0.791 0.353
0.432 0.794 0.322
0.614 0.786 0.346
0.760 0.769 0.477
0.137 0.117 0.264
0.239 0.173 0.265
0.363 0.247 0.320
0.490 0.326 0.411
0.674 0.379 0.496
0.194 0.252 0.362
0.297 0.290 0.370
0.410 0.353 0.404
0.529 0.407 0.479
0.694 0.433 0.519
0.245 0.476 0.476
0.336 0.485 0.495
0.478 0.499 0.523
0.607 0.506 0.523
0.725 0.516 0.526
0.279 0.656 0.535
0.350 0.660 0.542
0.467 0.669 0.539
0.638 0.653 0.554
0.749 0.631 0.556
0.297 0.785 0.596
0.357 0.787 0.596
0.459 0.789 0.588
0.597 0.791 0.568
0.760 0.773 0.618
0.214 0.194 0.525
0.294 0.234 0.521
0.405 0.311 0.529
0.519 0.385 0.577
0.660 0.488 0.645
0.258 0.300 0.575
0.337 0.333 0.577
0.447 0.399 0.581
0.548 0.462 0.612
0.675 0.541 0.667
0.308 0.475 0.638
0.382 0.487 0.645
0.501 0.521 0.650
0.593 0.565 0.660
0.705 0.608 0.698
0.343 0.643 0.683
0.409 0.647 0.689
0.516 0.654 0.699
0.636 0.662 0.710
0.744 0.672 0.716
0.373 0.780 0.717
0.425 0.781 0.719
0.512 0.783 0.723
0.615 0.786 0.724
0.758 0.780 0.725
0.318 0.304 0.709
0.379 0.335 0.707
0.471 0.391 0.708
0.568 0.466 0.713
0.685 0.550 0.740
0.350 0.387 0.724
0.407 0.411 0.725
0.498 0.458 0.726
0.591 0.520 0.729
0.697 0.591 0.750
0.390 0.510 0.750
0.446 0.525 0.752
0.535 0.555 0.754
0.626 0.597 0.755
0.716 0.653 0.767
0.423 0.638 0.777
0.475 0.643 0.779
0.561 0.654 0.782
0.657 0.677 0.783
0.737 0.715 0.786
0.456 0.771 0.801
0.502 0.772 0.803
0.577 0.774 0.806
0.663 0.777 0.809
0.759 0.781 0.815
