Cinematic 06.cube
#Created by: Pixelmator Pro
#Color profile: "sRGB IEC61966-2.1"
TITLE "Cinematic 06"
#Data domain
#LUT size
LUT_3D_SIZE 7
DOMAIN_MIN 0.000000 0.000000 0.000000
DOMAIN_MAX 0.882353 0.882353 0.882353
0.021 0.023 0.024
0.089 0.035 0.024
0.241 0.051 0.018
0.412 0.079 0.017
0.558 0.119 0.017
0.666 0.176 0.017
0.749 0.279 0.017
0.037 0.060 0.046
0.070 0.080 0.050
0.269 0.135 0.033
0.507 0.144 0.017
0.610 0.175 0.017
0.689 0.224 0.017
0.758 0.317 0.017
0.073 0.149 0.096
0.104 0.153 0.106
0.177 0.200 0.110
0.381 0.280 0.094
0.610 0.317 0.038
0.715 0.316 0.017
0.772 0.384 0.017
0.129 0.263 0.166
0.165 0.254 0.178
0.210 0.281 0.185
0.302 0.335 0.189
0.487 0.419 0.182
0.676 0.484 0.111
0.785 0.486 0.017
0.197 0.384 0.244
0.231 0.376 0.255
0.274 0.378 0.267
0.329 0.413 0.273
0.426 0.466 0.277
0.601 0.550 0.273
0.757 0.613 0.149
0.285 0.518 0.343
0.315 0.512 0.352
0.358 0.504 0.365
0.400 0.515 0.376
0.455 0.543 0.381
0.551 0.587 0.386
0.711 0.660 0.368
0.427 0.651 0.497
0.449 0.649 0.502
0.482 0.645 0.511
0.519 0.641 0.523
0.552 0.643 0.533
0.591 0.657 0.539
0.672 0.687 0.543
0.022 0.032 0.069
0.059 0.038 0.071
0.205 0.056 0.090
0.372 0.085 0.081
0.524 0.125 0.068
0.643 0.186 0.056
0.740 0.288 0.050
0.023 0.071 0.077
0.064 0.075 0.081
0.185 0.101 0.084
0.367 0.141 0.084
0.537 0.181 0.077
0.659 0.233 0.068
0.746 0.328 0.060
0.055 0.165 0.117
0.104 0.158 0.127
0.163 0.180 0.138
0.361 0.253 0.129
0.612 0.288 0.079
0.697 0.314 0.066
0.759 0.392 0.069
0.115 0.276 0.183
0.159 0.267 0.193
0.212 0.269 0.209
0.287 0.315 0.213
0.466 0.396 0.210
0.674 0.466 0.149
0.781 0.479 0.050
0.185 0.394 0.259
0.224 0.386 0.268
0.276 0.376 0.284
0.327 0.401 0.293
0.414 0.450 0.297
0.589 0.535 0.295
0.756 0.605 0.184
0.275 0.524 0.355
0.308 0.519 0.362
0.354 0.510 0.375
0.403 0.508 0.391
0.453 0.536 0.397
0.543 0.579 0.402
0.707 0.655 0.388
0.420 0.653 0.504
0.443 0.651 0.509
0.478 0.647 0.517
0.517 0.643 0.529
0.554 0.640 0.542
0.591 0.654 0.548
0.669 0.685 0.551
0.021 0.047 0.175
0.066 0.058 0.168
0.156 0.072 0.182
0.343 0.095 0.214
0.522 0.134 0.211
0.643 0.190 0.190
0.732 0.298 0.163
0.016 0.089 0.175
0.065 0.096 0.175
0.145 0.110 0.169
0.312 0.141 0.202
0.485 0.184 0.205
0.625 0.242 0.192
0.725 0.343 0.170
0.029 0.175 0.183
0.068 0.178 0.186
0.156 0.183 0.191
0.284 0.206 0.192
0.460 0.255 0.200
0.623 0.314 0.200
0.733 0.403 0.189
0.060 0.291 0.220
0.118 0.291 0.226
0.207 0.283 0.239
0.278 0.297 0.254
0.439 0.363 0.248
0.674 0.429 0.209
0.753 0.482 0.195
0.148 0.410 0.286
0.197 0.404 0.293
0.266 0.394 0.305
0.333 0.388 0.326
0.400 0.430 0.330
0.570 0.511 0.328
0.756 0.588 0.239
0.250 0.535 0.375
0.288 0.530 0.382
0.343 0.522 0.393
0.404 0.513 0.409
0.454 0.525 0.423
0.533 0.566 0.428
0.701 0.646 0.417
0.405 0.656 0.517
0.430 0.654 0.521
0.468 0.651 0.529
0.512 0.647 0.539
0.554 0.643 0.552
0.592 0.651 0.562
0.666 0.681 0.565
0.019 0.070 0.312
0.065 0.084 0.306
0.155 0.110 0.286
0.279 0.127 0.311
0.466 0.152 0.348
0.637 0.207 0.355
0.731 0.304 0.321
0.019 0.118 0.307
0.066 0.128 0.304
0.159 0.146 0.284
0.261 0.165 0.292
0.439 0.193 0.334
0.618 0.250 0.347
0.724 0.347 0.323
0.022 0.197 0.297
0.053 0.200 0.299
0.151 0.208 0.299
0.255 0.224 0.282
0.406 0.249 0.318
0.585 0.309 0.334
0.712 0.407 0.323
0.040 0.299 0.305
0.078 0.301 0.307
0.156 0.305 0.310
0.266 0.310 0.315
0.389 0.326 0.315
0.562 0.381 0.324
0.712 0.476 0.332
0.057 0.414 0.333
0.108 0.418 0.338
0.203 0.420 0.347
0.317 0.414 0.358
0.400 0.417 0.378
0.552 0.482 0.369
0.745 0.560 0.333
0.192 0.546 0.408
0.238 0.544 0.413
0.308 0.539 0.422
0.388 0.531 0.434
0.461 0.523 0.454
0.526 0.553 0.463
0.694 0.633 0.453
0.374 0.661 0.535
0.403 0.659 0.539
0.448 0.657 0.545
0.499 0.653 0.553
0.549 0.648 0.565
0.596 0.647 0.581
0.662 0.676 0.584
0.018 0.103 0.453
0.060 0.117 0.448
0.159 0.144 0.434
0.264 0.179 0.406
0.405 0.194 0.441
0.591 0.227 0.481
0.727 0.322 0.485
0.020 0.153 0.445
0.063 0.164 0.441
0.162 0.184 0.429
0.266 0.211 0.401
0.387 0.230 0.423
0.575 0.264 0.469
0.720 0.359 0.480
0.015 0.227 0.432
0.054 0.233 0.432
0.155 0.244 0.427
0.271 0.260 0.404
0.369 0.281 0.403
0.549 0.315 0.452
0.708 0.411 0.472
0.033 0.322 0.420
0.065 0.324 0.421
0.134 0.327 0.423
0.254 0.334 0.425
0.375 0.348 0.405
0.526 0.375 0.440
0.692 0.468 0.460
0.058 0.426 0.429
0.094 0.427 0.430
0.164 0.430 0.432
0.262 0.433 0.436
0.379 0.438 0.440
0.515 0.453 0.441
0.682 0.530 0.453
0.076 0.545 0.457
0.120 0.547 0.461
0.204 0.550 0.467
0.317 0.551 0.475
0.434 0.547 0.485
0.530 0.546 0.508
0.689 0.615 0.494
0.314 0.665 0.560
0.349 0.664 0.563
0.403 0.663 0.567
0.469 0.660 0.574
0.534 0.656 0.582
0.595 0.651 0.596
0.658 0.671 0.606
0.017 0.155 0.593
0.055 0.167 0.589
0.150 0.191 0.581
0.274 0.225 0.566
0.382 0.265 0.541
0.537 0.284 0.572
0.706 0.345 0.610
0.021 0.202 0.586
0.060 0.212 0.583
0.155 0.232 0.576
0.277 0.260 0.561
0.383 0.292 0.536
0.524 0.315 0.560
0.700 0.376 0.604
0.021 0.272 0.575
0.059 0.279 0.574
0.153 0.292 0.569
0.276 0.311 0.557
0.385 0.334 0.533
0.506 0.359 0.542
0.690 0.421 0.594
0.016 0.356 0.560
0.041 0.359 0.561
0.128 0.366 0.561
0.260 0.377 0.557
0.386 0.390 0.540
0.494 0.414 0.528
0.676 0.471 0.583
0.047 0.451 0.552
0.078 0.452 0.552
0.141 0.455 0.553
0.232 0.459 0.554
0.361 0.464 0.556
0.504 0.478 0.537
0.663 0.523 0.573
0.087 0.557 0.558
0.121 0.557 0.559
0.183 0.558 0.560
0.268 0.560 0.562
0.371 0.563 0.564
0.503 0.567 0.568
0.650 0.587 0.569
0.171 0.666 0.597
0.211 0.666 0.599
0.280 0.667 0.602
0.369 0.667 0.606
0.471 0.667 0.611
0.576 0.663 0.618
0.659 0.667 0.636
0.019 0.251 0.706
0.051 0.262 0.705
0.134 0.280 0.702
0.257 0.308 0.698
0.390 0.344 0.691
0.518 0.392 0.677
0.662 0.433 0.688
0.023 0.292 0.703
0.057 0.301 0.702
0.141 0.317 0.699
0.261 0.341 0.695
0.392 0.372 0.688
0.519 0.415 0.675
0.657 0.455 0.683
0.027 0.353 0.698
0.062 0.360 0.697
0.145 0.373 0.695
0.264 0.391 0.691
0.392 0.415 0.685
0.518 0.448 0.672
0.649 0.488 0.676
0.026 0.426 0.692
0.059 0.430 0.692
0.140 0.439 0.690
0.257 0.451 0.688
0.387 0.467 0.682
0.518 0.490 0.670
0.640 0.525 0.667
0.016 0.502 0.684
0.041 0.504 0.684
0.113 0.508 0.684
0.230 0.515 0.684
0.368 0.524 0.681
0.513 0.537 0.672
0.633 0.565 0.660
0.059 0.585 0.677
0.087 0.586 0.677
0.141 0.587 0.677
0.219 0.589 0.677
0.315 0.591 0.678
0.483 0.596 0.678
0.637 0.611 0.662
0.143 0.671 0.679
0.172 0.671 0.679
0.222 0.672 0.680
0.292 0.672 0.680
0.379 0.673 0.681
0.497 0.675 0.683
0.647 0.678 0.686
