FilterPlus/LUTs/Cinematic 02.cube
#Created by: Pixelmator Pro
#Color profile: "sRGB IEC61966-2.1"
TITLE "Cinematic 02"
#Data domain
#LUT size
LUT_3D_SIZE 5
DOMAIN_MIN 0.000000 0.000000 0.000000
DOMAIN_MAX 0.823529 0.823529 0.823529
0.022 0.045 0.061
0.048 0.053 0.061
0.209 0.090 0.061
0.511 0.140 0.061
0.740 0.222 0.061
0.045 0.109 0.126
0.091 0.152 0.093
0.346 0.191 0.061
0.602 0.230 0.061
0.764 0.292 0.061
0.116 0.246 0.268
0.142 0.273 0.284
0.320 0.329 0.204
0.644 0.367 0.117
0.787 0.422 0.061
0.266 0.391 0.393
0.309 0.406 0.407
0.369 0.452 0.409
0.609 0.506 0.312
0.795 0.552 0.169
0.562 0.578 0.555
0.589 0.584 0.567
0.613 0.606 0.575
0.651 0.638 0.571
0.776 0.681 0.443
0.022 0.045 0.062
0.059 0.054 0.129
0.199 0.077 0.149
0.511 0.129 0.158
0.747 0.218 0.153
0.022 0.145 0.188
0.082 0.167 0.203
0.274 0.203 0.209
0.571 0.242 0.204
0.762 0.303 0.186
0.108 0.280 0.292
0.164 0.287 0.314
0.303 0.338 0.282
0.641 0.382 0.235
0.796 0.428 0.145
0.267 0.414 0.407
0.330 0.422 0.423
0.393 0.458 0.437
0.601 0.512 0.365
0.793 0.561 0.267
0.567 0.589 0.564
0.596 0.594 0.575
0.627 0.610 0.589
0.659 0.640 0.590
0.775 0.683 0.480
0.023 0.050 0.276
0.076 0.075 0.256
0.173 0.119 0.273
0.422 0.136 0.292
0.721 0.219 0.315
0.022 0.161 0.285
0.082 0.168 0.316
0.213 0.215 0.320
0.468 0.230 0.328
0.735 0.311 0.346
0.022 0.323 0.372
0.082 0.336 0.378
0.278 0.358 0.385
0.560 0.393 0.391
0.765 0.451 0.383
0.169 0.467 0.442
0.295 0.466 0.450
0.444 0.474 0.475
0.585 0.523 0.445
0.792 0.577 0.388
0.563 0.610 0.581
0.601 0.613 0.591
0.647 0.621 0.609
0.675 0.645 0.620
0.771 0.687 0.542
0.036 0.079 0.402
0.094 0.097 0.389
0.212 0.163 0.370
0.408 0.200 0.399
0.687 0.229 0.421
0.023 0.177 0.429
0.092 0.184 0.424
0.250 0.236 0.412
0.447 0.278 0.429
0.700 0.301 0.441
0.022 0.327 0.449
0.052 0.339 0.465
0.278 0.358 0.483
0.512 0.406 0.482
0.728 0.440 0.489
0.029 0.500 0.527
0.090 0.507 0.529
0.272 0.525 0.535
0.570 0.541 0.540
0.770 0.585 0.531
0.475 0.645 0.610
0.560 0.644 0.616
0.647 0.645 0.628
0.700 0.653 0.649
0.765 0.692 0.614
0.061 0.134 0.566
0.125 0.147 0.558
0.282 0.186 0.543
0.483 0.269 0.525
0.678 0.327 0.561
0.051 0.217 0.585
0.119 0.224 0.579
0.293 0.253 0.569
0.513 0.326 0.553
0.690 0.387 0.580
0.022 0.354 0.604
0.087 0.354 0.611
0.286 0.369 0.609
0.556 0.425 0.601
0.711 0.487 0.613
0.022 0.505 0.624
0.049 0.516 0.636
0.163 0.527 0.639
0.564 0.548 0.653
0.735 0.596 0.651
0.041 0.679 0.691
0.101 0.682 0.691
0.273 0.688 0.693
0.551 0.697 0.696
0.761 0.703 0.700
