FilterPlus/LUTs/Cinematic 02.cube
#Created by: Pixelmator Pro
#Color profile: "sRGB IEC61966-2.1"
TITLE "Cinematic 02"
#Data domain
#LUT size
LUT_3D_SIZE 7
DOMAIN_MIN 0.000000 0.000000 0.000000
DOMAIN_MAX 0.882353 0.882353 0.882353
0.022 0.045 0.061
0.022 0.045 0.061
0.099 0.068 0.061
0.247 0.097 0.061
0.467 0.132 0.061
0.657 0.179 0.061
0.787 0.263 0.061
0.032 0.077 0.091
0.060 0.106 0.070
0.167 0.134 0.061
0.351 0.162 0.061
0.543 0.189 0.061
0.688 0.229 0.061
0.796 0.305 0.061
0.070 0.166 0.188
0.083 0.188 0.201
0.162 0.227 0.138
0.407 0.253 0.085
0.610 0.283 0.061
0.722 0.315 0.061
0.806 0.375 0.061
0.131 0.266 0.287
0.150 0.279 0.300
0.181 0.315 0.299
0.366 0.354 0.220
0.608 0.378 0.156
0.747 0.413 0.064
0.816 0.466 0.061
0.237 0.369 0.375
0.268 0.377 0.386
0.296 0.403 0.393
0.363 0.443 0.382
0.577 0.480 0.297
0.737 0.506 0.213
0.826 0.555 0.061
0.420 0.490 0.474
0.448 0.496 0.483
0.476 0.513 0.492
0.509 0.540 0.495
0.571 0.574 0.478
0.715 0.608 0.379
0.825 0.638 0.234
0.655 0.642 0.622
0.665 0.644 0.627
0.677 0.651 0.634
0.688 0.663 0.639
0.702 0.678 0.641
0.729 0.699 0.630
0.812 0.727 0.503
0.022 0.045 0.061
0.038 0.045 0.090
0.106 0.053 0.105
0.261 0.082 0.112
0.487 0.120 0.111
0.672 0.171 0.107
0.796 0.258 0.091
0.022 0.100 0.130
0.055 0.117 0.145
0.141 0.141 0.150
0.320 0.166 0.147
0.535 0.194 0.140
0.692 0.232 0.128
0.803 0.303 0.097
0.064 0.193 0.210
0.095 0.199 0.230
0.154 0.235 0.204
0.400 0.266 0.171
0.628 0.289 0.120
0.729 0.316 0.125
0.814 0.374 0.086
0.131 0.285 0.300
0.162 0.291 0.315
0.194 0.319 0.326
0.355 0.360 0.270
0.601 0.388 0.228
0.748 0.422 0.148
0.824 0.467 0.061
0.239 0.383 0.384
0.276 0.389 0.395
0.317 0.408 0.409
0.372 0.446 0.405
0.571 0.484 0.334
0.734 0.513 0.271
0.830 0.562 0.088
0.424 0.501 0.481
0.455 0.505 0.490
0.493 0.517 0.503
0.522 0.543 0.509
0.575 0.576 0.496
0.713 0.610 0.407
0.824 0.642 0.286
0.657 0.646 0.626
0.668 0.649 0.631
0.683 0.653 0.640
0.693 0.664 0.645
0.707 0.679 0.648
0.731 0.699 0.640
0.811 0.728 0.524
0.022 0.046 0.165
0.051 0.054 0.178
0.097 0.079 0.192
0.205 0.090 0.208
0.422 0.121 0.221
0.643 0.172 0.230
0.788 0.264 0.229
0.022 0.112 0.194
0.055 0.117 0.232
0.115 0.149 0.234
0.236 0.157 0.240
0.460 0.194 0.253
0.660 0.241 0.258
0.793 0.324 0.250
0.022 0.221 0.274
0.055 0.234 0.282
0.143 0.249 0.287
0.309 0.273 0.292
0.529 0.302 0.295
0.692 0.336 0.292
0.804 0.395 0.263
0.085 0.327 0.330
0.144 0.326 0.337
0.224 0.332 0.356
0.338 0.369 0.335
0.591 0.401 0.315
0.745 0.436 0.272
0.820 0.479 0.241
0.219 0.412 0.401
0.273 0.414 0.410
0.345 0.422 0.428
0.395 0.452 0.438
0.559 0.491 0.386
0.729 0.523 0.345
0.830 0.571 0.216
0.422 0.519 0.493
0.460 0.522 0.502
0.509 0.529 0.516
0.545 0.548 0.529
0.585 0.579 0.525
0.708 0.615 0.450
0.823 0.647 0.356
0.660 0.654 0.633
0.671 0.656 0.638
0.688 0.660 0.646
0.702 0.667 0.654
0.714 0.681 0.659
0.735 0.701 0.655
0.810 0.729 0.556
0.025 0.053 0.295
0.060 0.066 0.283
0.112 0.108 0.267
0.199 0.129 0.292
0.372 0.142 0.308
0.603 0.173 0.319
0.777 0.266 0.335
0.022 0.124 0.307
0.059 0.126 0.315
0.130 0.163 0.306
0.225 0.190 0.320
0.398 0.198 0.329
0.620 0.234 0.341
0.782 0.322 0.352
0.022 0.226 0.334
0.039 0.235 0.349
0.143 0.249 0.363
0.270 0.282 0.362
0.448 0.285 0.364
0.649 0.328 0.377
0.791 0.410 0.378
0.022 0.348 0.395
0.059 0.355 0.398
0.141 0.370 0.404
0.320 0.384 0.407
0.519 0.406 0.410
0.692 0.443 0.412
0.806 0.497 0.393
0.083 0.462 0.441
0.159 0.461 0.443
0.311 0.459 0.450
0.436 0.465 0.469
0.544 0.501 0.448
0.723 0.536 0.423
0.827 0.581 0.360
0.380 0.548 0.513
0.439 0.549 0.520
0.511 0.551 0.532
0.571 0.559 0.550
0.603 0.585 0.559
0.702 0.620 0.503
0.821 0.655 0.432
0.659 0.665 0.642
0.673 0.666 0.647
0.691 0.669 0.654
0.711 0.673 0.664
0.724 0.684 0.672
0.741 0.703 0.672
0.808 0.731 0.596
0.034 0.074 0.383
0.070 0.084 0.375
0.132 0.115 0.361
0.224 0.169 0.355
0.368 0.187 0.381
0.574 0.204 0.399
0.762 0.268 0.415
0.027 0.138 0.402
0.068 0.143 0.398
0.142 0.167 0.389
0.253 0.224 0.378
0.394 0.239 0.401
0.589 0.251 0.415
0.768 0.319 0.430
0.022 0.240 0.402
0.049 0.239 0.428
0.143 0.250 0.430
0.299 0.295 0.423
0.438 0.320 0.434
0.613 0.325 0.440
0.777 0.400 0.455
0.022 0.349 0.451
0.046 0.356 0.458
0.108 0.367 0.463
0.323 0.387 0.479
0.489 0.418 0.475
0.648 0.429 0.477
0.789 0.502 0.487
0.028 0.473 0.504
0.065 0.479 0.506
0.143 0.489 0.509
0.315 0.505 0.515
0.533 0.515 0.517
0.698 0.542 0.510
0.809 0.589 0.504
0.163 0.589 0.553
0.266 0.588 0.554
0.431 0.587 0.559
0.565 0.586 0.569
0.631 0.593 0.590
0.695 0.627 0.563
0.820 0.663 0.513
0.648 0.680 0.655
0.666 0.680 0.659
0.691 0.682 0.665
0.715 0.684 0.674
0.736 0.689 0.685
0.750 0.705 0.690
0.806 0.734 0.638
0.048 0.105 0.485
0.085 0.113 0.478
0.157 0.136 0.467
0.274 0.181 0.454
0.407 0.239 0.452
0.572 0.261 0.481
0.745 0.291 0.502
0.041 0.163 0.500
0.081 0.168 0.495
0.159 0.185 0.487
0.292 0.225 0.475
0.433 0.285 0.469
0.586 0.305 0.497
0.750 0.331 0.512
0.023 0.253 0.522
0.067 0.254 0.520
0.155 0.263 0.517
0.316 0.294 0.511
0.475 0.353 0.501
0.609 0.375 0.522
0.757 0.392 0.528
0.022 0.361 0.511
0.028 0.368 0.544
0.120 0.368 0.550
0.317 0.386 0.554
0.521 0.432 0.547
0.638 0.462 0.556
0.770 0.484 0.560
0.022 0.476 0.572
0.051 0.481 0.574
0.113 0.489 0.577
0.243 0.503 0.583
0.532 0.522 0.596
0.665 0.551 0.592
0.785 0.583 0.596
0.035 0.604 0.621
0.072 0.607 0.621
0.149 0.613 0.623
0.310 0.622 0.626
0.521 0.633 0.630
0.691 0.637 0.633
0.814 0.670 0.614
0.558 0.703 0.677
0.605 0.703 0.679
0.659 0.702 0.683
0.705 0.702 0.688
0.739 0.704 0.697
0.763 0.710 0.710
0.803 0.737 0.685
0.077 0.163 0.633
0.119 0.170 0.629
0.204 0.185 0.623
0.343 0.214 0.614
0.492 0.263 0.603
0.617 0.349 0.589
0.741 0.391 0.627
0.071 0.213 0.641
0.113 0.218 0.638
0.202 0.230 0.633
0.348 0.255 0.625
0.504 0.299 0.615
0.629 0.381 0.603
0.746 0.424 0.635
0.057 0.290 0.654
0.100 0.292 0.652
0.191 0.301 0.648
0.350 0.320 0.643
0.521 0.358 0.635
0.647 0.432 0.625
0.753 0.477 0.649
0.026 0.390 0.667
0.069 0.390 0.667
0.160 0.393 0.665
0.336 0.405 0.663
0.533 0.434 0.660
0.668 0.497 0.652
0.762 0.542 0.667
0.022 0.492 0.647
0.022 0.502 0.672
0.094 0.503 0.680
0.273 0.507 0.683
0.524 0.523 0.685
0.687 0.567 0.681
0.773 0.608 0.686
0.022 0.608 0.695
0.046 0.612 0.697
0.105 0.616 0.698
0.219 0.622 0.699
0.410 0.632 0.703
0.686 0.646 0.712
0.786 0.674 0.710
0.046 0.727 0.736
0.082 0.728 0.736
0.159 0.730 0.736
0.311 0.732 0.737
0.508 0.736 0.738
0.713 0.740 0.738
0.802 0.744 0.743
