FilterPlus/LUTs/Cinematic 03.cube
#Created by: Pixelmator Pro
#Color profile: "sRGB IEC61966-2.1"
TITLE "Cinematic 03"
#Data domain
#LUT size
LUT_3D_SIZE 5
DOMAIN_MIN 0.000000 0.000000 0.000000
DOMAIN_MAX 0.823529 0.823529 0.823529
0.036 0.037 0.035
0.057 0.038 0.035
0.318 0.055 0.035
0.579 0.080 0.035
0.727 0.125 0.035
0.070 0.126 0.035
0.185 0.145 0.035
0.383 0.177 0.035
0.597 0.204 0.035
0.732 0.239 0.035
0.177 0.311 0.075
0.278 0.323 0.087
0.499 0.333 0.035
0.638 0.362 0.035
0.735 0.416 0.035
0.328 0.500 0.145
0.431 0.502 0.179
0.554 0.523 0.141
0.676 0.525 0.035
0.756 0.552 0.035
0.557 0.653 0.235
0.614 0.650 0.288
0.654 0.658 0.272
0.704 0.667 0.210
0.775 0.667 0.035
0.036 0.037 0.035
0.106 0.037 0.129
0.382 0.037 0.147
0.620 0.037 0.143
0.752 0.037 0.110
0.036 0.127 0.147
0.152 0.160 0.163
0.427 0.178 0.170
0.635 0.186 0.157
0.755 0.197 0.121
0.074 0.338 0.180
0.255 0.329 0.207
0.485 0.349 0.166
0.631 0.379 0.179
0.750 0.412 0.133
0.239 0.520 0.216
0.401 0.511 0.259
0.537 0.526 0.264
0.676 0.537 0.150
0.756 0.561 0.165
0.511 0.660 0.287
0.591 0.657 0.334
0.651 0.659 0.367
0.700 0.669 0.320
0.780 0.676 0.072
0.036 0.079 0.167
0.078 0.077 0.276
0.309 0.077 0.344
0.613 0.064 0.352
0.750 0.078 0.340
0.036 0.156 0.237
0.110 0.175 0.306
0.341 0.201 0.359
0.621 0.211 0.366
0.752 0.221 0.362
0.036 0.303 0.367
0.136 0.329 0.381
0.397 0.368 0.383
0.627 0.393 0.398
0.753 0.418 0.377
0.036 0.526 0.423
0.216 0.537 0.402
0.511 0.530 0.429
0.655 0.547 0.374
0.748 0.575 0.376
0.369 0.669 0.408
0.510 0.668 0.424
0.638 0.663 0.480
0.691 0.670 0.481
0.774 0.680 0.327
0.036 0.139 0.326
0.040 0.124 0.457
0.229 0.175 0.469
0.534 0.151 0.536
0.742 0.134 0.543
0.036 0.203 0.386
0.064 0.208 0.475
0.273 0.253 0.489
0.551 0.255 0.543
0.745 0.263 0.542
0.036 0.319 0.453
0.049 0.340 0.498
0.334 0.383 0.524
0.578 0.412 0.553
0.745 0.440 0.556
0.036 0.490 0.557
0.120 0.509 0.565
0.361 0.534 0.566
0.608 0.561 0.560
0.744 0.584 0.560
0.074 0.673 0.574
0.253 0.676 0.566
0.540 0.677 0.560
0.683 0.671 0.586
0.763 0.684 0.543
0.036 0.230 0.531
0.036 0.226 0.581
0.171 0.235 0.613
0.421 0.297 0.618
0.694 0.267 0.651
0.036 0.282 0.557
0.036 0.284 0.597
0.199 0.304 0.618
0.456 0.364 0.623
0.699 0.355 0.653
0.036 0.379 0.581
0.036 0.394 0.611
0.232 0.419 0.625
0.509 0.470 0.631
0.707 0.488 0.655
0.036 0.502 0.606
0.036 0.519 0.620
0.203 0.539 0.632
0.549 0.572 0.642
0.718 0.597 0.657
0.036 0.645 0.661
0.057 0.657 0.670
0.286 0.664 0.669
0.559 0.676 0.669
0.736 0.692 0.659
