FilterPlus/LUTs/Cinematic 04.cube
#Created by: Pixelmator Pro
#Color profile: "sRGB IEC61966-2.1"
TITLE "Cinematic 04"
#Data domain
#LUT size
LUT_3D_SIZE 5
DOMAIN_MIN 0.000000 0.000000 0.000000
DOMAIN_MAX 0.823529 0.823529 0.823529
0.030 0.050 0.054
0.044 0.055 0.054
0.199 0.102 0.054
0.489 0.155 0.054
0.730 0.230 0.054
0.040 0.112 0.054
0.112 0.152 0.054
0.346 0.204 0.054
0.589 0.246 0.054
0.758 0.301 0.054
0.072 0.255 0.054
0.133 0.277 0.054
0.400 0.304 0.054
0.656 0.352 0.054
0.790 0.436 0.054
0.122 0.404 0.054
0.202 0.420 0.056
0.397 0.445 0.054
0.663 0.460 0.054
0.806 0.527 0.054
0.259 0.599 0.054
0.382 0.600 0.111
0.517 0.621 0.067
0.665 0.634 0.054
0.806 0.638 0.054
0.030 0.050 0.054
0.086 0.050 0.195
0.315 0.077 0.152
0.612 0.104 0.096
0.768 0.194 0.054
0.030 0.135 0.151
0.098 0.186 0.193
0.342 0.205 0.169
0.628 0.225 0.117
0.785 0.275 0.054
0.030 0.285 0.132
0.122 0.302 0.166
0.424 0.329 0.114
0.675 0.378 0.149
0.808 0.437 0.057
0.077 0.436 0.104
0.177 0.437 0.157
0.385 0.466 0.153
0.689 0.486 0.054
0.819 0.549 0.071
0.200 0.615 0.107
0.333 0.614 0.160
0.510 0.625 0.191
0.667 0.649 0.119
0.813 0.653 0.054
0.030 0.115 0.228
0.030 0.081 0.418
0.330 0.050 0.416
0.595 0.157 0.319
0.783 0.199 0.265
0.030 0.190 0.274
0.051 0.207 0.367
0.342 0.201 0.405
0.590 0.259 0.329
0.785 0.282 0.272
0.030 0.280 0.297
0.041 0.318 0.328
0.320 0.376 0.359
0.615 0.400 0.344
0.793 0.428 0.291
0.030 0.430 0.279
0.071 0.473 0.266
0.373 0.498 0.331
0.666 0.517 0.285
0.809 0.580 0.322
0.101 0.635 0.222
0.211 0.635 0.244
0.483 0.640 0.306
0.653 0.659 0.306
0.823 0.678 0.149
0.030 0.182 0.363
0.030 0.180 0.482
0.117 0.081 0.689
0.629 0.050 0.631
0.778 0.256 0.475
0.030 0.241 0.403
0.030 0.250 0.505
0.145 0.239 0.646
0.628 0.212 0.617
0.775 0.341 0.483
0.030 0.336 0.434
0.048 0.364 0.483
0.201 0.395 0.545
0.608 0.395 0.576
0.778 0.455 0.500
0.030 0.429 0.439
0.030 0.461 0.468
0.141 0.507 0.504
0.603 0.562 0.538
0.789 0.589 0.516
0.030 0.621 0.401
0.044 0.655 0.389
0.278 0.665 0.408
0.652 0.679 0.502
0.812 0.694 0.419
0.030 0.273 0.555
0.030 0.276 0.623
0.030 0.245 0.739
0.252 0.149 0.793
0.796 0.085 0.770
0.030 0.320 0.583
0.030 0.327 0.642
0.030 0.314 0.744
0.292 0.279 0.785
0.795 0.231 0.766
0.030 0.406 0.610
0.030 0.421 0.659
0.062 0.440 0.730
0.362 0.447 0.765
0.792 0.414 0.758
0.030 0.508 0.635
0.030 0.535 0.671
0.152 0.559 0.687
0.452 0.583 0.726
0.786 0.583 0.741
0.030 0.611 0.632
0.030 0.630 0.650
0.049 0.666 0.684
0.324 0.687 0.698
0.785 0.724 0.719
