FilterPlus/LUTs/Cinematic 04.cube
#Created by: Pixelmator Pro
#Color profile: "sRGB IEC61966-2.1"
TITLE "Cinematic 04"
#Data domain
DOMAIN_MIN 0.000 0.000 0.000
DOMAIN_MAX 1.000 1.000 1.000
#LUT size
LUT_3D_SIZE 35
0.030 0.050 0.054
0.030 0.050 0.054
0.030 0.050 0.054
0.030 0.050 0.054
0.030 0.050 0.054
0.030 0.050 0.054
0.030 0.050 0.054
0.044 0.055 0.054
0.060 0.061 0.054
0.077 0.067 0.054
0.096 0.074 0.054
0.117 0.081 0.054
0.140 0.088 0.054
0.167 0.095 0.054
0.199 0.102 0.054
0.235 0.109 0.054
0.274 0.116 0.054
0.316 0.123 0.054
0.360 0.131 0.054
0.404 0.139 0.054
0.447 0.146 0.054
0.489 0.155 0.054
0.530 0.163 0.054
0.568 0.172 0.054
0.605 0.182 0.054
0.639 0.192 0.054
0.672 0.203 0.054
0.702 0.216 0.054
0.730 0.230 0.054
0.757 0.247 0.054
0.781 0.267 0.054
0.804 0.291 0.054
0.826 0.323 0.054
0.847 0.369 0.054
0.867 0.440 0.054
0.030 0.050 0.054
0.030 0.050 0.054
0.030 0.050 0.054
0.030 0.050 0.054
0.030 0.050 0.054
0.036 0.054 0.054
0.048 0.060 0.054
0.061 0.067 0.054
0.076 0.073 0.054
0.092 0.080 0.054
0.111 0.086 0.054
0.132 0.093 0.054
0.157 0.100 0.054
0.186 0.107 0.054
0.218 0.114 0.054
0.255 0.121 0.054
0.294 0.127 0.054
0.336 0.134 0.054
0.378 0.142 0.054
0.421 0.149 0.054
0.463 0.156 0.054
0.503 0.164 0.054
0.541 0.172 0.054
0.578 0.181 0.054
0.613 0.190 0.054
0.646 0.200 0.054
0.677 0.211 0.054
0.706 0.223 0.054
0.734 0.237 0.054
0.759 0.254 0.054
0.783 0.273 0.054
0.805 0.298 0.054
0.827 0.329 0.054
0.847 0.374 0.054
0.867 0.445 0.054
0.030 0.050 0.054
0.030 0.050 0.054
0.030 0.050 0.054
0.030 0.050 0.054
0.040 0.059 0.054
0.051 0.068 0.054
0.064 0.077 0.054
0.077 0.084 0.054
0.091 0.089 0.054
0.107 0.095 0.054
0.126 0.102 0.054
0.149 0.108 0.054
0.175 0.114 0.054
0.205 0.120 0.054
0.239 0.127 0.054
0.276 0.133 0.054
0.315 0.140 0.054
0.356 0.146 0.054
0.397 0.153 0.054
0.438 0.160 0.054
0.478 0.167 0.054
0.516 0.175 0.054
0.553 0.182 0.054
0.588 0.191 0.054
0.621 0.199 0.054
0.653 0.209 0.054
0.683 0.220 0.054
0.711 0.232 0.054
0.737 0.245 0.054
0.762 0.261 0.054
0.785 0.281 0.054
0.807 0.304 0.054
0.828 0.336 0.054
0.848 0.380 0.054
0.867 0.450 0.054
0.030 0.050 0.054
0.030 0.050 0.054
0.031 0.051 0.054
0.039 0.062 0.054
0.049 0.071 0.054
0.060 0.080 0.054
0.073 0.089 0.054
0.088 0.097 0.054
0.104 0.106 0.054
0.123 0.114 0.054
0.143 0.119 0.054
0.167 0.125 0.054
0.194 0.130 0.054
0.226 0.136 0.054
0.261 0.142 0.054
0.298 0.147 0.054
0.337 0.153 0.054
0.376 0.159 0.054
0.416 0.166 0.054
0.456 0.172 0.054
0.494 0.179 0.054
0.530 0.186 0.054
0.565 0.193 0.054
0.598 0.201 0.054
0.630 0.209 0.054
0.660 0.219 0.054
0.689 0.229 0.054
0.716 0.241 0.054
0.741 0.254 0.054
0.765 0.270 0.054
0.787 0.289 0.054
0.808 0.312 0.054
0.829 0.343 0.054
0.848 0.387 0.054
0.868 0.455 0.054
0.030 0.050 0.054
0.032 0.057 0.054
0.036 0.067 0.054
0.043 0.076 0.054
0.055 0.085 0.054
0.068 0.093 0.054
0.081 0.101 0.054
0.096 0.110 0.054
0.114 0.118 0.054
0.134 0.127 0.054
0.159 0.136 0.054
0.187 0.144 0.054
0.216 0.149 0.054
0.249 0.153 0.054
0.284 0.158 0.054
0.321 0.163 0.054
0.359 0.169 0.054
0.398 0.174 0.054
0.436 0.180 0.054
0.474 0.185 0.054
0.510 0.192 0.054
0.544 0.198 0.054
0.577 0.205 0.054
0.609 0.212 0.054
0.639 0.220 0.054
0.668 0.229 0.054
0.695 0.239 0.054
0.721 0.251 0.054
0.745 0.263 0.054
0.768 0.279 0.054
0.789 0.297 0.054
0.810 0.320 0.054
0.830 0.351 0.054
0.849 0.394 0.054
0.868 0.461 0.054
0.033 0.069 0.054
0.036 0.077 0.054
0.041 0.085 0.054
0.047 0.093 0.054
0.057 0.100 0.054
0.071 0.107 0.054
0.088 0.114 0.054
0.104 0.122 0.054
0.122 0.131 0.054
0.145 0.139 0.054
0.171 0.148 0.054
0.201 0.156 0.054
0.236 0.164 0.054
0.273 0.173 0.054
0.308 0.177 0.054
0.345 0.181 0.054
0.383 0.186 0.054
0.420 0.190 0.054
0.456 0.195 0.054
0.492 0.201 0.054
0.526 0.206 0.054
0.559 0.212 0.054
0.590 0.219 0.054
0.620 0.225 0.054
0.649 0.233 0.054
0.676 0.242 0.054
0.702 0.251 0.054
0.726 0.262 0.054
0.749 0.274 0.054
0.771 0.289 0.054
0.792 0.307 0.054
0.812 0.330 0.054
0.831 0.360 0.054
0.850 0.402 0.054
0.869 0.468 0.054
0.036 0.091 0.054
0.040 0.096 0.054
0.045 0.103 0.054
0.051 0.110 0.054
0.060 0.117 0.054
0.072 0.124 0.054
0.090 0.129 0.054
0.111 0.135 0.054
0.131 0.144 0.054
0.154 0.152 0.054
0.183 0.160 0.054
0.215 0.168 0.054
0.251 0.176 0.054
0.290 0.184 0.054
0.329 0.192 0.054
0.370 0.200 0.054
0.407 0.205 0.054
0.443 0.209 0.054
0.478 0.213 0.054
0.511 0.218 0.054
0.543 0.223 0.054
0.574 0.228 0.054
0.603 0.234 0.054
0.631 0.240 0.054
0.658 0.248 0.054
0.684 0.255 0.054
0.708 0.264 0.054
0.732 0.275 0.054
0.754 0.287 0.054
0.774 0.301 0.054
0.794 0.319 0.054
0.813 0.340 0.054
0.832 0.369 0.054
0.850 0.411 0.054
0.869 0.475 0.054
0.040 0.112 0.054
0.045 0.117 0.054
0.050 0.123 0.054
0.056 0.129 0.054
0.064 0.135 0.054
0.075 0.141 0.054
0.090 0.147 0.054
0.112 0.152 0.054
0.139 0.157 0.054
0.164 0.165 0.054
0.194 0.173 0.054
0.228 0.181 0.054
0.266 0.189 0.054
0.306 0.196 0.054
0.346 0.204 0.054
0.387 0.212 0.054
0.426 0.219 0.054
0.464 0.228 0.054
0.499 0.234 0.054
0.530 0.238 0.054
0.561 0.242 0.054
0.589 0.246 0.054
0.617 0.252 0.054
0.643 0.258 0.054
0.668 0.264 0.054
0.692 0.271 0.054
0.715 0.280 0.054
0.737 0.290 0.054
0.758 0.301 0.054
0.778 0.315 0.054
0.797 0.331 0.054
0.815 0.352 0.054
0.833 0.381 0.054
0.851 0.421 0.054
0.869 0.484 0.054
0.044 0.134 0.054
0.049 0.138 0.054
0.054 0.143 0.054
0.060 0.148 0.054
0.068 0.153 0.054
0.078 0.159 0.054
0.091 0.164 0.054
0.110 0.170 0.054
0.138 0.174 0.054
0.174 0.178 0.054
0.205 0.186 0.054
0.241 0.194 0.054
0.280 0.201 0.054
0.321 0.209 0.054
0.362 0.216 0.054
0.403 0.224 0.054
0.442 0.232 0.054
0.480 0.239 0.054
0.515 0.247 0.054
0.548 0.256 0.054
0.578 0.263 0.054
0.605 0.267 0.054
0.631 0.272 0.054
0.655 0.277 0.054
0.679 0.283 0.054
0.701 0.289 0.054
0.722 0.297 0.054
0.743 0.306 0.054
0.763 0.317 0.054
0.782 0.330 0.054
0.800 0.346 0.054
0.818 0.366 0.054
0.835 0.393 0.054
0.852 0.432 0.054
0.870 0.493 0.054
0.048 0.155 0.054
0.053 0.158 0.054
0.059 0.162 0.054
0.065 0.167 0.054
0.072 0.172 0.054
0.082 0.177 0.054
0.094 0.182 0.054
0.111 0.187 0.054
0.135 0.192 0.054
0.170 0.196 0.054
0.217 0.199 0.054
0.253 0.207 0.054
0.293 0.215 0.054
0.334 0.222 0.054
0.376 0.230 0.054
0.417 0.237 0.054
0.456 0.244 0.054
0.493 0.252 0.054
0.528 0.260 0.054
0.560 0.268 0.054
0.590 0.277 0.054
0.618 0.286 0.054
0.644 0.294 0.054
0.667 0.299 0.054
0.689 0.304 0.054
0.710 0.310 0.054
0.730 0.317 0.054
0.749 0.325 0.054
0.768 0.335 0.054
0.786 0.347 0.054
0.803 0.362 0.054
0.820 0.381 0.054
0.836 0.407 0.054
0.853 0.444 0.054
0.871 0.503 0.054
0.052 0.176 0.054
0.058 0.179 0.054
0.064 0.182 0.054
0.070 0.186 0.054
0.077 0.191 0.054
0.086 0.195 0.054
0.098 0.200 0.054
0.114 0.205 0.054
0.135 0.210 0.054
0.165 0.214 0.054
0.209 0.218 0.054
0.265 0.220 0.054
0.305 0.228 0.054
0.347 0.235 0.054
0.389 0.243 0.054
0.430 0.250 0.054
0.469 0.258 0.054
0.506 0.265 0.054
0.540 0.273 0.054
0.571 0.281 0.054
0.600 0.290 0.054
0.628 0.298 0.054
0.653 0.308 0.054
0.677 0.318 0.054
0.699 0.327 0.054
0.718 0.332 0.054
0.737 0.338 0.054
0.755 0.346 0.054
0.773 0.355 0.054
0.789 0.366 0.054
0.806 0.379 0.054
0.822 0.397 0.054
0.838 0.422 0.054
0.854 0.457 0.054
0.871 0.513 0.054
0.057 0.196 0.054
0.063 0.199 0.054
0.070 0.202 0.054
0.075 0.205 0.054
0.083 0.209 0.054
0.091 0.214 0.054
0.103 0.218 0.054
0.117 0.223 0.054
0.137 0.228 0.054
0.164 0.232 0.054
0.202 0.236 0.054
0.253 0.239 0.054
0.317 0.241 0.054
0.359 0.248 0.054
0.400 0.256 0.054
0.441 0.264 0.054
0.480 0.271 0.054
0.516 0.279 0.054
0.550 0.286 0.054
0.581 0.294 0.054
0.610 0.303 0.054
0.636 0.312 0.054
0.661 0.321 0.054
0.684 0.331 0.054
0.706 0.342 0.054
0.726 0.354 0.054
0.744 0.361 0.054
0.761 0.368 0.054
0.777 0.376 0.054
0.793 0.386 0.054
0.809 0.398 0.054
0.824 0.415 0.054
0.840 0.438 0.054
0.855 0.471 0.054
0.872 0.525 0.054
0.062 0.216 0.054
0.068 0.218 0.054
0.075 0.221 0.054
0.081 0.224 0.054
0.088 0.228 0.054
0.097 0.232 0.054
0.108 0.236 0.054
0.122 0.241 0.054
0.140 0.245 0.054
0.165 0.250 0.054
0.200 0.254 0.054
0.245 0.258 0.054
0.301 0.261 0.054
0.368 0.262 0.054
0.411 0.269 0.054
0.451 0.277 0.054
0.490 0.284 0.054
0.525 0.292 0.054
0.558 0.300 0.054
0.589 0.308 0.054
0.618 0.316 0.054
0.644 0.325 0.054
0.668 0.334 0.054
0.691 0.344 0.054
0.712 0.355 0.054
0.732 0.367 0.054
0.750 0.380 0.054
0.767 0.391 0.054
0.782 0.398 0.054
0.797 0.407 0.054
0.812 0.418 0.054
0.826 0.433 0.054
0.841 0.455 0.054
0.856 0.486 0.054
0.872 0.536 0.054
0.067 0.236 0.054
0.073 0.238 0.054
0.080 0.240 0.054
0.087 0.243 0.054
0.094 0.247 0.054
0.103 0.251 0.054
0.113 0.255 0.054
0.127 0.259 0.054
0.145 0.263 0.054
0.169 0.268 0.054
0.200 0.272 0.054
0.241 0.276 0.054
0.292 0.280 0.054
0.351 0.282 0.054
0.417 0.283 0.054
0.461 0.290 0.054
0.498 0.297 0.054
0.533 0.305 0.054
0.566 0.313 0.054
0.596 0.321 0.054
0.625 0.330 0.054
0.651 0.339 0.054
0.675 0.348 0.054
0.697 0.358 0.054
0.717 0.368 0.054
0.737 0.380 0.054
0.754 0.393 0.054
0.771 0.407 0.054
0.787 0.421 0.054
0.801 0.429 0.054
0.815 0.439 0.054
0.829 0.452 0.054
0.843 0.472 0.054
0.858 0.501 0.054
0.873 0.548 0.054
0.072 0.255 0.054
0.079 0.257 0.054
0.086 0.260 0.054
0.093 0.262 0.054
0.100 0.266 0.054
0.109 0.269 0.054
0.120 0.273 0.054
0.133 0.277 0.054
0.151 0.282 0.054
0.174 0.286 0.054
0.203 0.290 0.054
0.241 0.295 0.054
0.287 0.298 0.054
0.341 0.302 0.054
0.400 0.304 0.054
0.463 0.304 0.054
0.506 0.310 0.054
0.541 0.318 0.054
0.573 0.326 0.054
0.603 0.335 0.054
0.630 0.343 0.054
0.656 0.352 0.054
0.680 0.362 0.054
0.702 0.371 0.054
0.722 0.382 0.054
0.741 0.393 0.054
0.758 0.406 0.054
0.775 0.420 0.054
0.790 0.436 0.054
0.804 0.452 0.054
0.818 0.460 0.054
0.831 0.472 0.054
0.845 0.489 0.054
0.859 0.516 0.054
0.874 0.560 0.054
0.078 0.275 0.054
0.084 0.277 0.054
0.092 0.279 0.054
0.100 0.282 0.054
0.107 0.285 0.054
0.116 0.288 0.054
0.127 0.292 0.054
0.140 0.296 0.054
0.158 0.300 0.054
0.180 0.305 0.054
0.208 0.309 0.054
0.243 0.313 0.054
0.286 0.317 0.054
0.335 0.320 0.054
0.390 0.323 0.054
0.448 0.325 0.054
0.506 0.326 0.054
0.547 0.331 0.054
0.579 0.339 0.054
0.608 0.348 0.054
0.636 0.357 0.054
0.661 0.366 0.054
0.684 0.375 0.054
0.706 0.385 0.054
0.726 0.396 0.054
0.745 0.407 0.054
0.762 0.419 0.054
0.778 0.433 0.054
0.793 0.448 0.054
0.807 0.466 0.054
0.820 0.482 0.054
0.833 0.492 0.054
0.846 0.508 0.054
0.860 0.532 0.054
0.874 0.572 0.054
0.084 0.295 0.054
0.090 0.297 0.054
0.098 0.299 0.054
0.107 0.301 0.054
0.114 0.304 0.054
0.123 0.308 0.054
0.134 0.311 0.054
0.148 0.315 0.054
0.165 0.319 0.054
0.187 0.323 0.054
0.215 0.328 0.054
0.248 0.332 0.054
0.287 0.336 0.054
0.333 0.339 0.054
0.383 0.343 0.054
0.437 0.345 0.054
0.492 0.347 0.054
0.545 0.348 0.054
0.584 0.352 0.054
0.613 0.361 0.054
0.640 0.370 0.054
0.665 0.379 0.054
0.688 0.389 0.054
0.710 0.398 0.054
0.730 0.409 0.054
0.748 0.420 0.054
0.765 0.433 0.054
0.781 0.446 0.054
0.796 0.461 0.054
0.810 0.479 0.054
0.823 0.499 0.054
0.835 0.513 0.054
0.848 0.526 0.054
0.861 0.548 0.054
0.875 0.585 0.054
0.090 0.315 0.054
0.097 0.317 0.054
0.105 0.319 0.054
0.114 0.322 0.054
0.122 0.324 0.054
0.131 0.328 0.054
0.142 0.331 0.054
0.156 0.335 0.054
0.174 0.339 0.054
0.196 0.343 0.054
0.222 0.347 0.054
0.254 0.351 0.054
0.292 0.355 0.054
0.334 0.359 0.054
0.381 0.362 0.054
0.430 0.365 0.054
0.482 0.368 0.054
0.532 0.369 0.054
0.581 0.369 0.054
0.618 0.374 0.054
0.644 0.382 0.054
0.669 0.392 0.054
0.692 0.402 0.054
0.713 0.412 0.054
0.733 0.422 0.054
0.751 0.434 0.054
0.768 0.446 0.054
0.784 0.459 0.054
0.798 0.474 0.054
0.812 0.491 0.054
0.825 0.511 0.054
0.837 0.534 0.054
0.849 0.545 0.054
0.862 0.564 0.054
0.876 0.598 0.054
0.097 0.336 0.054
0.104 0.338 0.054
0.112 0.340 0.054
0.121 0.342 0.054
0.131 0.345 0.054
0.140 0.348 0.054
0.152 0.352 0.054
0.166 0.355 0.054
0.183 0.359 0.054
0.205 0.363 0.054
0.231 0.367 0.054
0.262 0.371 0.054
0.298 0.375 0.054
0.338 0.378 0.054
0.381 0.382 0.054
0.427 0.385 0.054
0.475 0.388 0.054
0.523 0.390 0.054
0.569 0.391 0.054
0.613 0.392 0.054
0.648 0.395 0.054
0.672 0.405 0.054
0.695 0.415 0.054
0.716 0.425 0.054
0.736 0.436 0.054
0.754 0.447 0.054
0.770 0.460 0.054
0.786 0.473 0.054
0.800 0.487 0.054
0.814 0.504 0.054
0.827 0.523 0.054
0.839 0.546 0.054
0.851 0.564 0.054
0.863 0.580 0.054
0.876 0.611 0.054
0.104 0.358 0.054
0.112 0.360 0.054
0.120 0.362 0.054
0.130 0.364 0.054
0.141 0.366 0.057
0.150 0.369 0.054
0.162 0.373 0.054
0.176 0.376 0.054
0.194 0.380 0.054
0.216 0.384 0.054
0.242 0.388 0.054
0.272 0.391 0.054
0.306 0.395 0.054
0.343 0.399 0.054
0.384 0.402 0.054
0.427 0.405 0.054
0.472 0.408 0.054
0.516 0.411 0.054
0.560 0.413 0.054
0.603 0.414 0.054
0.644 0.414 0.054
0.676 0.418 0.054
0.698 0.427 0.054
0.719 0.438 0.054
0.738 0.449 0.054
0.756 0.461 0.054
0.773 0.473 0.054
0.788 0.486 0.054
0.802 0.501 0.054
0.816 0.517 0.054
0.828 0.535 0.054
0.841 0.557 0.054
0.853 0.584 0.054
0.864 0.597 0.054
0.877 0.624 0.054
0.113 0.380 0.054
0.120 0.382 0.054
0.129 0.384 0.054
0.139 0.386 0.054
0.152 0.387 0.060
0.162 0.390 0.059
0.174 0.394 0.055
0.189 0.398 0.054
0.207 0.402 0.054
0.228 0.405 0.054
0.254 0.409 0.054
0.283 0.413 0.054
0.315 0.416 0.054
0.351 0.420 0.054
0.389 0.423 0.054
0.430 0.426 0.054
0.471 0.429 0.054
0.513 0.432 0.054
0.554 0.434 0.054
0.595 0.436 0.054
0.634 0.437 0.054
0.671 0.437 0.054
0.701 0.440 0.054
0.721 0.451 0.054
0.740 0.462 0.054
0.758 0.474 0.054
0.775 0.486 0.054
0.790 0.499 0.054
0.804 0.514 0.054
0.817 0.530 0.054
0.830 0.548 0.054
0.842 0.569 0.054
0.854 0.595 0.054
0.866 0.614 0.054
0.878 0.638 0.054
0.122 0.404 0.054
0.130 0.406 0.054
0.139 0.407 0.054
0.149 0.410 0.054
0.163 0.410 0.061
0.175 0.412 0.064
0.187 0.416 0.061
0.202 0.420 0.056
0.221 0.424 0.054
0.242 0.428 0.054
0.267 0.431 0.054
0.296 0.435 0.054
0.327 0.438 0.054
0.361 0.442 0.054
0.397 0.445 0.054
0.435 0.448 0.054
0.474 0.451 0.054
0.513 0.454 0.054
0.552 0.456 0.054
0.590 0.458 0.054
0.627 0.460 0.054
0.663 0.460 0.054
0.697 0.460 0.054
0.724 0.464 0.054
0.742 0.475 0.054
0.760 0.487 0.054
0.776 0.499 0.054
0.791 0.513 0.054
0.806 0.527 0.054
0.819 0.543 0.054
0.831 0.560 0.054
0.843 0.581 0.054
0.855 0.605 0.054
0.867 0.632 0.054
0.879 0.651 0.054
0.132 0.428 0.054
0.141 0.430 0.054
0.150 0.432 0.054
0.161 0.434 0.054
0.175 0.434 0.061
0.191 0.435 0.070
0.203 0.439 0.066
0.218 0.443 0.062
0.236 0.447 0.056
0.258 0.451 0.054
0.283 0.454 0.054
0.310 0.458 0.054
0.341 0.461 0.054
0.373 0.464 0.054
0.407 0.467 0.054
0.443 0.470 0.054
0.479 0.473 0.054
0.515 0.476 0.054
0.551 0.478 0.054
0.587 0.481 0.054
0.622 0.482 0.054
0.656 0.484 0.054
0.689 0.484 0.054
0.720 0.484 0.054
0.744 0.488 0.054
0.762 0.500 0.054
0.778 0.512 0.054
0.793 0.526 0.054
0.807 0.540 0.054
0.820 0.556 0.054
0.833 0.573 0.054
0.845 0.593 0.054
0.856 0.616 0.054
0.868 0.646 0.054
0.879 0.665 0.054
0.144 0.454 0.054
0.153 0.455 0.054
0.163 0.457 0.054
0.175 0.459 0.054
0.190 0.459 0.062
0.208 0.459 0.075
0.221 0.462 0.073
0.237 0.466 0.068
0.255 0.470 0.063
0.276 0.475 0.056
0.300 0.479 0.054
0.327 0.482 0.054
0.356 0.485 0.054
0.387 0.488 0.054
0.420 0.491 0.054
0.453 0.494 0.054
0.486 0.496 0.054
0.520 0.499 0.054
0.554 0.501 0.054
0.587 0.503 0.054
0.620 0.505 0.054
0.652 0.507 0.054
0.683 0.508 0.054
0.713 0.509 0.054
0.742 0.508 0.054
0.763 0.513 0.054
0.779 0.525 0.054
0.794 0.539 0.054
0.808 0.553 0.054
0.821 0.569 0.054
0.834 0.586 0.054
0.846 0.605 0.054
0.857 0.628 0.054
0.869 0.656 0.054
0.880 0.680 0.054
0.159 0.480 0.054
0.168 0.482 0.054
0.179 0.483 0.054
0.192 0.485 0.054
0.208 0.485 0.064
0.226 0.485 0.076
0.242 0.487 0.079
0.258 0.490 0.076
0.276 0.494 0.071
0.297 0.499 0.065
0.321 0.503 0.057
0.347 0.507 0.054
0.374 0.510 0.054
0.404 0.512 0.054
0.434 0.515 0.054
0.465 0.518 0.054
0.496 0.520 0.054
0.527 0.523 0.054
0.558 0.525 0.054
0.589 0.527 0.054
0.620 0.529 0.054
0.650 0.531 0.054
0.679 0.532 0.054
0.708 0.533 0.054
0.735 0.533 0.054
0.761 0.532 0.054
0.780 0.539 0.054
0.795 0.552 0.054
0.809 0.566 0.054
0.822 0.582 0.054
0.835 0.599 0.054
0.847 0.617 0.054
0.859 0.639 0.054
0.870 0.666 0.054
0.881 0.695 0.054
0.176 0.508 0.054
0.187 0.510 0.054
0.198 0.511 0.054
0.212 0.513 0.055
0.228 0.512 0.066
0.247 0.512 0.078
0.267 0.513 0.087
0.282 0.516 0.083
0.300 0.520 0.079
0.321 0.524 0.073
0.343 0.528 0.066
0.368 0.532 0.058
0.395 0.536 0.054
0.423 0.538 0.054
0.451 0.541 0.054
0.479 0.543 0.054
0.508 0.545 0.054
0.537 0.548 0.054
0.565 0.550 0.054
0.594 0.552 0.054
0.622 0.554 0.054
0.650 0.555 0.054
0.677 0.557 0.054
0.704 0.558 0.054
0.730 0.559 0.054
