FilterPlus/LUTs/Cinematic 04.cube
#Created by: Pixelmator Pro
#Color profile: "sRGB IEC61966-2.1"
TITLE "Cinematic 04"
#Data domain
#LUT size
LUT_3D_SIZE 7
DOMAIN_MIN 0.000000 0.000000 0.000000
DOMAIN_MAX 0.882353 0.882353 0.882353
0.030 0.050 0.054
0.030 0.050 0.054
0.096 0.074 0.054
0.235 0.109 0.054
0.447 0.146 0.054
0.639 0.192 0.054
0.781 0.267 0.054
0.033 0.069 0.054
0.071 0.107 0.054
0.171 0.148 0.054
0.345 0.181 0.054
0.526 0.206 0.054
0.676 0.242 0.054
0.792 0.307 0.054
0.052 0.176 0.054
0.086 0.195 0.054
0.209 0.218 0.054
0.430 0.250 0.054
0.600 0.290 0.054
0.718 0.332 0.054
0.806 0.379 0.054
0.078 0.275 0.054
0.116 0.288 0.054
0.208 0.309 0.054
0.448 0.325 0.054
0.636 0.357 0.054
0.745 0.407 0.054
0.820 0.482 0.054
0.113 0.380 0.054
0.162 0.390 0.059
0.254 0.409 0.054
0.430 0.426 0.054
0.634 0.437 0.054
0.758 0.474 0.054
0.830 0.548 0.054
0.176 0.508 0.054
0.247 0.512 0.078
0.343 0.528 0.066
0.479 0.543 0.054
0.622 0.554 0.054
0.755 0.559 0.054
0.836 0.612 0.054
0.354 0.666 0.054
0.428 0.666 0.093
0.517 0.669 0.127
0.594 0.680 0.094
0.674 0.690 0.054
0.753 0.694 0.054
0.835 0.694 0.054
0.030 0.050 0.054
0.052 0.050 0.119
0.161 0.050 0.109
0.374 0.064 0.075
0.554 0.107 0.054
0.682 0.166 0.054
0.794 0.250 0.054
0.030 0.092 0.102
0.067 0.134 0.141
0.177 0.147 0.123
0.394 0.161 0.089
0.589 0.181 0.054
0.708 0.222 0.054
0.803 0.292 0.054
0.030 0.196 0.108
0.079 0.216 0.120
0.224 0.234 0.085
0.459 0.266 0.111
0.638 0.303 0.081
0.742 0.320 0.054
0.815 0.369 0.054
0.047 0.304 0.074
0.104 0.304 0.114
0.200 0.326 0.111
0.479 0.342 0.054
0.669 0.373 0.054
0.765 0.421 0.054
0.828 0.478 0.054
0.083 0.405 0.073
0.141 0.405 0.113
0.246 0.420 0.130
0.435 0.448 0.070
0.652 0.453 0.054
0.772 0.489 0.054
0.837 0.560 0.054
0.143 0.525 0.076
0.215 0.525 0.116
0.339 0.531 0.153
0.475 0.554 0.117
0.631 0.572 0.054
0.764 0.571 0.054
0.841 0.622 0.054
0.319 0.672 0.090
0.399 0.671 0.127
0.513 0.671 0.185
0.591 0.681 0.170
0.673 0.694 0.125
0.757 0.704 0.054
0.837 0.701 0.054
0.030 0.077 0.138
0.030 0.058 0.291
0.160 0.050 0.291
0.365 0.094 0.240
0.565 0.125 0.213
0.722 0.148 0.171
0.821 0.202 0.054
0.030 0.135 0.193
0.040 0.149 0.269
0.178 0.144 0.296
0.351 0.186 0.244
0.569 0.195 0.222
0.723 0.213 0.176
0.822 0.256 0.054
0.030 0.199 0.218
0.034 0.227 0.243
0.167 0.266 0.265
0.379 0.281 0.255
0.590 0.295 0.233
0.734 0.312 0.194
0.828 0.347 0.084
0.030 0.294 0.214
0.048 0.331 0.200
0.192 0.352 0.246
0.442 0.366 0.215
0.637 0.401 0.241
0.756 0.449 0.226
0.833 0.470 0.134
0.033 0.428 0.169
0.090 0.431 0.182
0.228 0.438 0.230
0.407 0.462 0.225
0.658 0.477 0.156
0.772 0.512 0.199
0.840 0.579 0.173
0.094 0.543 0.155
0.156 0.544 0.177
0.306 0.546 0.223
0.464 0.562 0.237
0.618 0.584 0.193
0.779 0.596 0.054
0.846 0.639 0.141
0.254 0.681 0.155
0.339 0.680 0.179
0.472 0.680 0.222
0.588 0.684 0.258
0.667 0.697 0.235
0.756 0.711 0.163
0.843 0.712 0.054
0.030 0.125 0.247
0.030 0.125 0.337
0.080 0.050 0.522
0.379 0.050 0.448
0.586 0.119 0.373
0.711 0.191 0.322
0.820 0.225 0.261
0.030 0.173 0.283
0.030 0.180 0.357
0.094 0.170 0.476
0.396 0.151 0.447
0.569 0.215 0.364
0.712 0.247 0.330
0.821 0.276 0.265
0.030 0.237 0.307
0.038 0.257 0.344
0.118 0.278 0.388
0.372 0.278 0.412
0.550 0.316 0.364
0.715 0.327 0.337
0.822 0.354 0.267
0.030 0.301 0.316
0.030 0.323 0.335
0.091 0.358 0.359
0.364 0.403 0.383
0.577 0.421 0.375
0.729 0.439 0.351
0.827 0.466 0.290
0.030 0.392 0.308
0.030 0.429 0.304
0.114 0.467 0.305
0.405 0.492 0.367
0.623 0.502 0.328
0.754 0.540 0.360
0.835 0.589 0.324
0.030 0.556 0.264
0.075 0.564 0.263
0.198 0.570 0.283
0.452 0.580 0.341
0.602 0.598 0.334
0.769 0.610 0.263
0.841 0.655 0.318
0.159 0.691 0.232
0.239 0.691 0.246
0.392 0.692 0.274
0.563 0.694 0.324
0.664 0.702 0.344
0.749 0.716 0.301
0.849 0.728 0.091
0.030 0.172 0.343
0.030 0.175 0.414
0.030 0.123 0.603
0.222 0.050 0.669
0.595 0.050 0.603
0.729 0.167 0.503
0.817 0.268 0.419
0.030 0.212 0.373
0.030 0.217 0.437
0.040 0.200 0.589
0.213 0.177 0.663
0.598 0.160 0.597
0.722 0.249 0.495
0.817 0.315 0.426
0.030 0.272 0.394
0.030 0.285 0.447
0.072 0.298 0.524
0.238 0.305 0.607
0.588 0.289 0.573
0.708 0.359 0.482
0.818 0.387 0.434
0.030 0.342 0.416
0.030 0.364 0.452
0.106 0.387 0.470
0.278 0.416 0.517
0.567 0.417 0.534
0.705 0.454 0.489
0.819 0.474 0.437
0.030 0.406 0.416
0.030 0.426 0.434
0.053 0.461 0.464
0.200 0.497 0.489
0.569 0.536 0.510
0.722 0.555 0.502
0.825 0.578 0.457
0.030 0.513 0.402
0.030 0.540 0.402
0.061 0.584 0.399
0.279 0.605 0.417
0.606 0.622 0.495
0.752 0.630 0.439
0.835 0.673 0.483
0.058 0.702 0.330
0.112 0.702 0.335
0.244 0.704 0.350
0.472 0.707 0.384
0.656 0.712 0.451
0.744 0.724 0.446
0.845 0.735 0.318
0.030 0.227 0.460
0.030 0.230 0.517
0.030 0.218 0.628
0.069 0.143 0.741
0.421 0.065 0.759
0.737 0.063 0.721
0.820 0.279 0.613
0.030 0.261 0.485
0.030 0.265 0.538
0.030 0.261 0.639
0.087 0.228 0.728
0.414 0.186 0.755
0.736 0.174 0.716
0.818 0.343 0.609
0.030 0.315 0.510
0.030 0.324 0.557
0.030 0.331 0.645
0.118 0.333 0.701
0.412 0.322 0.745
0.733 0.298 0.707
0.814 0.438 0.604
0.030 0.386 0.529
0.030 0.403 0.564
0.058 0.421 0.616
0.167 0.437 0.656
0.441 0.449 0.709
0.727 0.432 0.690
0.813 0.517 0.613
0.030 0.459 0.547
0.030 0.478 0.576
0.081 0.500 0.600
0.237 0.525 0.615
0.483 0.550 0.654
0.716 0.550 0.665
0.815 0.590 0.621
0.030 0.528 0.542
0.030 0.544 0.557
0.030 0.575 0.589
0.116 0.597 0.607
0.376 0.627 0.630
0.719 0.658 0.646
0.823 0.678 0.634
0.030 0.672 0.508
0.030 0.688 0.507
0.045 0.714 0.503
0.211 0.720 0.509
0.534 0.728 0.540
0.747 0.737 0.625
0.839 0.745 0.547
0.030 0.317 0.629
0.030 0.320 0.659
0.030 0.320 0.705
0.030 0.300 0.760
0.071 0.224 0.804
0.488 0.152 0.817
0.829 0.106 0.797
0.030 0.344 0.643
0.030 0.348 0.670
0.030 0.350 0.712
0.030 0.337 0.763
0.089 0.291 0.801
0.504 0.241 0.815
0.828 0.199 0.796
0.030 0.390 0.659
0.030 0.395 0.683
0.030 0.402 0.721
0.030 0.401 0.767
0.122 0.387 0.794
0.529 0.358 0.810
0.828 0.315 0.793
0.030 0.451 0.674
0.030 0.459 0.695
0.030 0.472 0.728
0.031 0.486 0.770
0.176 0.490 0.783
0.560 0.485 0.802
0.826 0.447 0.790
0.030 0.523 0.686
0.030 0.534 0.704
0.030 0.553 0.733
0.090 0.567 0.753
0.260 0.578 0.768
0.591 0.589 0.789
0.824 0.569 0.784
0.030 0.597 0.701
0.030 0.610 0.715
0.048 0.630 0.733
0.162 0.641 0.737
0.398 0.657 0.744
0.634 0.673 0.766
0.820 0.673 0.773
0.030 0.672 0.694
0.030 0.680 0.701
0.030 0.695 0.715
0.030 0.718 0.735
0.170 0.726 0.740
0.532 0.742 0.750
0.822 0.765 0.760
