FilterPlus/LUTs/Cinematic 03.cube
#Created by: Pixelmator Pro
#Color profile: "sRGB IEC61966-2.1"
TITLE "Cinematic 03"
#Data domain
DOMAIN_MIN 0.000 0.000 0.000
DOMAIN_MAX 1.000 1.000 1.000
#LUT size
LUT_3D_SIZE 35
0.036 0.037 0.035
0.036 0.037 0.035
0.036 0.037 0.035
0.036 0.037 0.035
0.036 0.037 0.035
0.036 0.037 0.035
0.036 0.037 0.035
0.057 0.038 0.035
0.092 0.040 0.035
0.127 0.042 0.035
0.163 0.045 0.035
0.199 0.047 0.035
0.237 0.050 0.035
0.277 0.052 0.035
0.318 0.055 0.035
0.360 0.058 0.035
0.401 0.061 0.035
0.442 0.064 0.035
0.481 0.068 0.035
0.517 0.071 0.035
0.549 0.075 0.035
0.579 0.080 0.035
0.605 0.084 0.035
0.628 0.089 0.035
0.650 0.095 0.035
0.670 0.101 0.035
0.689 0.108 0.035
0.708 0.116 0.035
0.727 0.125 0.035
0.746 0.136 0.035
0.765 0.149 0.035
0.784 0.170 0.035
0.801 0.203 0.035
0.819 0.252 0.035
0.838 0.334 0.035
0.036 0.037 0.035
0.036 0.037 0.035
0.036 0.037 0.035
0.036 0.037 0.035
0.036 0.037 0.035
0.036 0.037 0.035
0.057 0.041 0.035
0.084 0.046 0.035
0.114 0.050 0.035
0.145 0.053 0.035
0.178 0.057 0.035
0.213 0.060 0.035
0.250 0.063 0.035
0.289 0.066 0.035
0.329 0.069 0.035
0.369 0.073 0.035
0.410 0.076 0.035
0.449 0.080 0.035
0.487 0.083 0.035
0.522 0.087 0.035
0.553 0.091 0.035
0.582 0.095 0.035
0.607 0.100 0.035
0.630 0.105 0.035
0.651 0.110 0.035
0.671 0.116 0.035
0.690 0.123 0.035
0.709 0.130 0.035
0.728 0.139 0.035
0.747 0.150 0.035
0.766 0.162 0.035
0.784 0.183 0.035
0.801 0.215 0.035
0.819 0.262 0.035
0.838 0.344 0.035
0.036 0.037 0.035
0.036 0.037 0.035
0.036 0.037 0.035
0.036 0.037 0.035
0.042 0.040 0.035
0.059 0.046 0.035
0.078 0.053 0.035
0.103 0.058 0.035
0.130 0.062 0.035
0.159 0.067 0.035
0.190 0.071 0.035
0.224 0.074 0.035
0.261 0.078 0.035
0.299 0.082 0.035
0.338 0.085 0.035
0.378 0.088 0.035
0.417 0.092 0.035
0.456 0.095 0.035
0.493 0.099 0.035
0.526 0.103 0.035
0.557 0.107 0.035
0.585 0.111 0.035
0.609 0.115 0.035
0.632 0.120 0.035
0.653 0.125 0.035
0.673 0.131 0.035
0.692 0.137 0.035
0.710 0.145 0.035
0.729 0.153 0.035
0.747 0.163 0.035
0.766 0.176 0.035
0.784 0.196 0.035
0.801 0.227 0.035
0.819 0.274 0.035
0.838 0.354 0.035
0.036 0.037 0.035
0.036 0.037 0.035
0.040 0.041 0.035
0.050 0.048 0.035
0.064 0.054 0.035
0.080 0.060 0.035
0.098 0.066 0.035
0.119 0.072 0.035
0.141 0.078 0.035
0.170 0.083 0.035
0.201 0.087 0.035
0.234 0.091 0.035
0.270 0.095 0.035
0.308 0.098 0.035
0.346 0.102 0.035
0.385 0.105 0.035
0.424 0.109 0.035
0.462 0.112 0.035
0.498 0.116 0.035
0.531 0.120 0.035
0.561 0.123 0.035
0.587 0.127 0.035
0.612 0.132 0.035
0.634 0.136 0.035
0.655 0.141 0.035
0.674 0.147 0.035
0.693 0.153 0.035
0.711 0.160 0.035
0.729 0.168 0.035
0.748 0.178 0.035
0.767 0.189 0.035
0.784 0.210 0.035
0.802 0.240 0.035
0.819 0.286 0.035
0.838 0.364 0.035
0.040 0.048 0.035
0.046 0.055 0.035
0.054 0.061 0.035
0.066 0.067 0.035
0.082 0.071 0.035
0.098 0.076 0.035
0.116 0.081 0.035
0.136 0.087 0.035
0.158 0.093 0.035
0.182 0.099 0.035
0.209 0.105 0.035
0.242 0.109 0.035
0.278 0.113 0.035
0.315 0.116 0.035
0.354 0.120 0.035
0.392 0.123 0.035
0.430 0.127 0.035
0.467 0.130 0.035
0.502 0.134 0.035
0.535 0.137 0.035
0.564 0.141 0.035
0.590 0.145 0.035
0.614 0.149 0.035
0.636 0.153 0.035
0.656 0.158 0.035
0.675 0.163 0.035
0.694 0.169 0.035
0.712 0.176 0.035
0.730 0.184 0.035
0.748 0.193 0.035
0.767 0.204 0.035
0.784 0.225 0.035
0.802 0.254 0.035
0.819 0.299 0.035
0.838 0.376 0.035
0.049 0.074 0.035
0.058 0.079 0.035
0.067 0.084 0.035
0.079 0.088 0.035
0.095 0.092 0.035
0.114 0.095 0.035
0.132 0.099 0.035
0.152 0.104 0.035
0.175 0.109 0.035
0.199 0.115 0.035
0.226 0.120 0.035
0.254 0.126 0.035
0.285 0.132 0.035
0.322 0.136 0.035
0.360 0.139 0.035
0.398 0.143 0.035
0.436 0.146 0.035
0.472 0.149 0.035
0.507 0.153 0.035
0.538 0.156 0.035
0.567 0.160 0.035
0.593 0.163 0.035
0.616 0.167 0.035
0.638 0.171 0.035
0.657 0.176 0.035
0.676 0.181 0.035
0.695 0.187 0.035
0.713 0.193 0.035
0.731 0.201 0.035
0.749 0.209 0.035
0.767 0.221 0.035
0.784 0.241 0.035
0.802 0.270 0.035
0.820 0.313 0.035
0.838 0.389 0.035
0.059 0.100 0.035
0.071 0.103 0.035
0.080 0.108 0.035
0.092 0.111 0.035
0.107 0.115 0.035
0.125 0.118 0.035
0.148 0.119 0.035
0.169 0.123 0.035
0.191 0.128 0.035
0.216 0.133 0.035
0.243 0.138 0.035
0.272 0.143 0.035
0.302 0.149 0.035
0.333 0.155 0.035
0.365 0.160 0.035
0.403 0.163 0.035
0.441 0.166 0.035
0.477 0.170 0.035
0.511 0.173 0.035
0.542 0.176 0.035
0.570 0.180 0.035
0.595 0.183 0.035
0.618 0.187 0.035
0.639 0.191 0.035
0.659 0.195 0.035
0.678 0.200 0.035
0.696 0.206 0.035
0.714 0.212 0.035
0.732 0.219 0.035
0.750 0.227 0.035
0.768 0.240 0.035
0.785 0.259 0.035
0.802 0.287 0.035
0.820 0.329 0.035
0.838 0.403 0.035
0.070 0.126 0.035
0.084 0.129 0.035
0.093 0.132 0.035
0.105 0.136 0.035
0.119 0.139 0.035
0.137 0.142 0.035
0.158 0.144 0.035
0.185 0.145 0.035
0.208 0.148 0.035
0.233 0.153 0.035
0.261 0.157 0.035
0.290 0.162 0.035
0.321 0.167 0.035
0.352 0.172 0.035
0.383 0.177 0.035
0.413 0.183 0.035
0.445 0.188 0.035
0.481 0.191 0.035
0.514 0.194 0.035
0.545 0.198 0.035
0.572 0.201 0.035
0.597 0.204 0.035
0.620 0.208 0.035
0.641 0.212 0.035
0.660 0.216 0.035
0.679 0.221 0.035
0.697 0.226 0.035
0.715 0.232 0.035
0.732 0.239 0.035
0.750 0.247 0.035
0.768 0.260 0.035
0.785 0.279 0.035
0.802 0.306 0.035
0.820 0.347 0.035
0.838 0.418 0.035
0.082 0.153 0.035
0.098 0.155 0.035
0.107 0.158 0.035
0.119 0.161 0.035
0.132 0.164 0.035
0.149 0.167 0.035
0.170 0.169 0.035
0.195 0.170 0.035
0.225 0.170 0.035
0.251 0.174 0.035
0.279 0.178 0.035
0.309 0.182 0.035
0.340 0.186 0.035
0.371 0.191 0.035
0.402 0.196 0.035
0.432 0.201 0.035
0.461 0.206 0.035
0.490 0.212 0.035
0.517 0.217 0.035
0.548 0.220 0.035
0.575 0.224 0.035
0.599 0.227 0.035
0.622 0.231 0.035
0.642 0.235 0.035
0.662 0.239 0.035
0.680 0.243 0.035
0.698 0.248 0.035
0.715 0.254 0.035
0.733 0.261 0.035
0.751 0.269 0.035
0.768 0.282 0.035
0.785 0.300 0.035
0.802 0.326 0.035
0.820 0.366 0.035
0.838 0.434 0.035
0.095 0.181 0.035
0.113 0.179 0.043
0.123 0.182 0.044
0.133 0.185 0.042
0.146 0.189 0.039
0.162 0.192 0.035
0.182 0.194 0.035
0.206 0.196 0.035
0.235 0.197 0.035
0.269 0.196 0.035
0.298 0.200 0.035
0.328 0.203 0.035
0.358 0.207 0.035
0.389 0.212 0.035
0.420 0.216 0.035
0.450 0.221 0.035
0.479 0.225 0.035
0.506 0.231 0.035
0.531 0.236 0.035
0.554 0.242 0.035
0.577 0.248 0.035
0.601 0.251 0.035
0.623 0.255 0.035
0.644 0.259 0.035
0.663 0.263 0.035
0.681 0.267 0.035
0.699 0.272 0.035
0.716 0.278 0.035
0.734 0.284 0.035
0.752 0.293 0.035
0.768 0.306 0.035
0.785 0.323 0.035
0.802 0.348 0.035
0.820 0.387 0.035
0.838 0.451 0.035
0.110 0.206 0.040
0.128 0.204 0.051
0.139 0.206 0.054
0.149 0.209 0.052
0.161 0.212 0.050
0.176 0.216 0.046
0.195 0.219 0.039
0.218 0.222 0.035
0.246 0.223 0.035
0.279 0.224 0.035
0.316 0.223 0.035
0.347 0.226 0.035
0.377 0.230 0.035
0.408 0.233 0.035
0.438 0.237 0.035
0.467 0.242 0.035
0.495 0.246 0.035
0.521 0.251 0.035
0.545 0.256 0.035
0.567 0.262 0.035
0.587 0.268 0.035
0.605 0.274 0.035
0.624 0.280 0.035
0.645 0.284 0.035
0.664 0.288 0.035
0.682 0.292 0.035
0.700 0.297 0.035
0.717 0.303 0.035
0.735 0.309 0.035
0.752 0.318 0.035
0.768 0.331 0.035
0.785 0.348 0.035
0.802 0.372 0.035
0.820 0.408 0.035
0.838 0.468 0.035
0.126 0.232 0.049
0.144 0.230 0.059
0.156 0.230 0.064
0.166 0.233 0.063
0.177 0.237 0.061
0.191 0.240 0.058
0.209 0.244 0.053
0.231 0.247 0.045
0.259 0.250 0.035
0.290 0.251 0.035
0.325 0.251 0.035
0.364 0.250 0.035
0.396 0.253 0.035
0.425 0.256 0.035
0.455 0.260 0.035
0.483 0.264 0.035
0.510 0.268 0.035
0.535 0.273 0.035
0.557 0.278 0.035
0.578 0.283 0.035
0.597 0.289 0.035
0.615 0.295 0.035
0.631 0.301 0.035
0.647 0.309 0.035
0.665 0.314 0.035
0.683 0.319 0.035
0.700 0.323 0.035
0.718 0.329 0.035
0.735 0.335 0.035
0.752 0.344 0.035
0.769 0.356 0.035
0.785 0.372 0.035
0.803 0.395 0.035
0.820 0.429 0.035
0.838 0.485 0.035
0.143 0.258 0.057
0.160 0.256 0.068
0.174 0.255 0.075
0.183 0.258 0.074
0.194 0.261 0.073
0.208 0.265 0.070
0.224 0.268 0.066
0.245 0.272 0.059
0.271 0.276 0.050
0.303 0.279 0.037
0.337 0.280 0.035
0.373 0.279 0.035
0.412 0.277 0.035
0.443 0.280 0.035
0.471 0.284 0.035
0.498 0.287 0.035
0.524 0.292 0.035
0.547 0.296 0.035
0.569 0.300 0.035
0.588 0.305 0.035
0.606 0.310 0.035
0.623 0.316 0.035
0.639 0.323 0.035
0.654 0.330 0.035
0.669 0.337 0.035
0.683 0.345 0.035
0.701 0.350 0.035
0.718 0.355 0.035
0.735 0.362 0.035
0.752 0.371 0.035
0.769 0.382 0.035
0.785 0.398 0.035
0.803 0.419 0.035
0.820 0.451 0.035
0.838 0.502 0.035
0.160 0.284 0.066
0.177 0.282 0.076
0.193 0.280 0.086
0.202 0.283 0.086
0.213 0.286 0.084
0.225 0.290 0.082
0.241 0.293 0.079
0.260 0.297 0.074
0.284 0.301 0.066
0.313 0.305 0.054
0.348 0.308 0.039
0.384 0.308 0.035
0.420 0.307 0.035
0.457 0.305 0.035
0.487 0.307 0.035
0.512 0.311 0.035
0.537 0.315 0.035
0.559 0.319 0.035
0.579 0.324 0.035
0.598 0.328 0.035
0.615 0.333 0.035
0.631 0.339 0.035
0.646 0.345 0.035
0.661 0.351 0.035
0.675 0.359 0.035
0.688 0.367 0.035
0.702 0.376 0.035
0.719 0.382 0.035
0.735 0.389 0.035
0.752 0.397 0.035
0.769 0.408 0.035
0.786 0.423 0.035
0.803 0.442 0.035
0.820 0.471 0.035
0.838 0.518 0.035
0.177 0.311 0.075
0.194 0.309 0.085
0.211 0.307 0.096
0.221 0.309 0.097
0.232 0.312 0.096
0.244 0.315 0.094
0.259 0.319 0.091
0.278 0.323 0.087
0.300 0.327 0.080
0.327 0.331 0.071
0.358 0.334 0.058
0.395 0.337 0.042
0.431 0.338 0.035
0.465 0.336 0.035
0.499 0.333 0.035
0.526 0.335 0.035
0.548 0.339 0.035
0.569 0.343 0.035
0.589 0.348 0.035
0.606 0.352 0.035
0.623 0.357 0.035
0.638 0.362 0.035
0.653 0.367 0.035
0.667 0.374 0.035
0.680 0.380 0.035
0.694 0.388 0.035
0.707 0.397 0.035
0.720 0.407 0.035
0.735 0.416 0.035
0.752 0.424 0.035
0.769 0.434 0.035
0.786 0.447 0.035
0.803 0.465 0.035
0.820 0.491 0.035
0.838 0.534 0.035
0.195 0.338 0.084
0.212 0.336 0.094
0.229 0.334 0.104
0.242 0.335 0.108
0.252 0.338 0.107
0.264 0.341 0.106
0.279 0.344 0.104
0.296 0.348 0.100
0.317 0.352 0.095
0.342 0.357 0.087
0.371 0.361 0.076
0.404 0.364 0.062
0.440 0.367 0.045
0.475 0.367 0.035
0.507 0.365 0.035
0.536 0.362 0.035
0.560 0.364 0.035
0.579 0.368 0.035
0.597 0.372 0.035
0.614 0.376 0.035
0.630 0.381 0.035
0.645 0.386 0.035
0.659 0.391 0.035
0.673 0.396 0.035
0.686 0.403 0.035
0.699 0.410 0.035
0.711 0.418 0.035
0.724 0.428 0.035
0.737 0.439 0.035
0.752 0.449 0.035
0.768 0.458 0.035
0.785 0.470 0.035
0.803 0.487 0.035
0.820 0.511 0.035
0.838 0.548 0.035
0.214 0.365 0.094
0.231 0.363 0.103
0.248 0.361 0.113
0.263 0.361 0.119
0.273 0.364 0.119
0.285 0.367 0.118
0.299 0.370 0.116
0.316 0.374 0.113
0.336 0.378 0.109
0.359 0.382 0.102
0.385 0.386 0.093
0.415 0.390 0.082
0.448 0.393 0.066
0.483 0.396 0.048
0.515 0.396 0.035
0.543 0.394 0.035
0.568 0.390 0.035
0.589 0.392 0.035
0.606 0.396 0.035
0.622 0.400 0.035
0.637 0.405 0.035
0.651 0.409 0.035
0.665 0.414 0.035
0.678 0.420 0.035
0.691 0.426 0.035
0.703 0.432 0.035
0.715 0.440 0.035
0.728 0.448 0.035
0.740 0.458 0.035
0.753 0.471 0.035
0.768 0.482 0.035
0.785 0.493 0.035
0.803 0.507 0.035
0.820 0.529 0.035
0.838 0.562 0.035
0.234 0.392 0.104
0.251 0.391 0.112
0.269 0.389 0.122
0.286 0.388 0.131
0.296 0.390 0.131
0.307 0.393 0.130
0.321 0.397 0.128
0.337 0.400 0.126
0.355 0.404 0.122
0.377 0.408 0.117
0.401 0.412 0.109
0.428 0.416 0.100
0.458 0.420 0.087
0.489 0.423 0.071
0.521 0.425 0.051
0.550 0.425 0.035
0.574 0.422 0.035
0.596 0.419 0.035
0.614 0.420 0.035
0.629 0.424 0.035
0.643 0.428 0.035
0.657 0.433 0.035
0.670 0.438 0.035
0.683 0.443 0.035
0.695 0.448 0.035
0.707 0.454 0.035
0.719 0.461 0.035
0.731 0.469 0.035
0.744 0.478 0.035
0.756 0.489 0.035
0.769 0.502 0.035
0.785 0.514 0.035
0.803 0.527 0.035
0.820 0.545 0.035
0.838 0.576 0.035
0.255 0.420 0.113
0.272 0.418 0.122
0.290 0.417 0.131
0.308 0.415 0.141
0.319 0.417 0.143
0.331 0.420 0.142
0.344 0.423 0.141
0.359 0.426 0.139
0.376 0.430 0.136
0.396 0.434 0.131
0.419 0.438 0.125
0.444 0.442 0.117
0.470 0.445 0.106
0.498 0.448 0.092
0.527 0.451 0.075
0.555 0.453 0.054
0.581 0.453 0.035
0.601 0.450 0.035
0.620 0.447 0.035
0.636 0.447 0.035
0.650 0.452 0.035
0.663 0.456 0.035
0.676 0.461 0.035
0.688 0.465 0.035
0.699 0.470 0.035
0.711 0.476 0.035
0.723 0.482 0.035
0.735 0.489 0.035
0.747 0.497 0.035
0.759 0.507 0.035
0.772 0.519 0.035
0.785 0.533 0.035
0.803 0.545 0.035
0.820 0.561 0.035
0.838 0.588 0.035
0.278 0.447 0.124
0.295 0.446 0.132
0.312 0.444 0.141
0.330 0.443 0.150
0.344 0.443 0.155
0.355 0.446 0.154
0.367 0.449 0.153
0.382 0.452 0.152
0.398 0.455 0.149
0.417 0.459 0.145
0.438 0.463 0.140
0.460 0.466 0.133
0.484 0.470 0.124
0.509 0.473 0.112
0.534 0.476 0.098
0.559 0.479 0.080
0.584 0.480 0.058
0.607 0.481 0.035
0.624 0.478 0.035
0.641 0.474 0.035
0.655 0.474 0.035
0.668 0.478 0.035
0.680 0.483 0.035
0.692 0.487 0.035
0.703 0.492 0.035
0.715 0.497 0.035
0.726 0.503 0.035
0.738 0.509 0.035
0.750 0.516 0.035
0.762 0.525 0.035
0.775 0.535 0.035
0.788 0.548 0.035
0.802 0.562 0.035
0.820 0.577 0.035
0.838 0.601 0.035
0.302 0.474 0.134
0.319 0.473 0.142
0.336 0.471 0.151
0.354 0.470 0.160
0.370 0.469 0.167
0.380 0.472 0.167
0.392 0.474 0.166
0.406 0.477 0.165
0.421 0.480 0.163
0.439 0.484 0.160
0.458 0.487 0.155
0.478 0.491 0.150
0.499 0.494 0.142
0.521 0.497 0.132
0.544 0.500 0.120
0.566 0.503 0.104
0.588 0.505 0.086
0.609 0.507 0.063
0.630 0.507 0.035
0.645 0.504 0.035
0.659 0.500 0.035
0.672 0.500 0.035
0.684 0.504 0.035
0.695 0.508 0.035
0.707 0.513 0.035
0.718 0.517 0.035
0.730 0.522 0.035
0.741 0.528 0.035
0.753 0.534 0.035
0.765 0.542 0.035
0.777 0.551 0.035
0.790 0.562 0.035
0.803 0.577 0.035
0.820 0.591 0.035
0.838 0.613 0.035
0.328 0.500 0.145
0.344 0.499 0.153
0.361 0.498 0.161
0.378 0.496 0.170
0.397 0.495 0.180
0.407 0.497 0.180
0.418 0.499 0.180
0.431 0.502 0.179
0.445 0.505 0.177
0.461 0.507 0.174
0.478 0.511 0.171
0.497 0.514 0.166
0.516 0.517 0.159
0.535 0.520 0.151
0.554 0.523 0.141
0.574 0.525 0.128
0.593 0.528 0.111
0.612 0.530 0.090
0.631 0.531 0.065
0.649 0.532 0.035
0.663 0.529 0.035
0.676 0.525 0.035
0.688 0.524 0.035
0.699 0.528 0.035
0.710 0.532 0.035
0.722 0.536 0.035
0.733 0.541 0.035
0.744 0.546 0.035
0.756 0.552 0.035
0.768 0.558 0.035
0.780 0.566 0.035
0.792 0.576 0.035
0.805 0.589 0.035
0.820 0.605 0.035
0.838 0.624 0.035
0.355 0.525 0.157
0.371 0.524 0.164
0.387 0.523 0.172
0.404 0.522 0.180
0.422 0.521 0.190
0.435 0.521 0.194
0.445 0.523 0.194
0.457 0.525 0.193
0.470 0.528 0.191
0.484 0.530 0.189
0.500 0.533 0.186
0.516 0.536 0.182
0.532 0.539 0.176
0.549 0.541 0.168
0.566 0.544 0.159
0.583 0.547 0.147
0.600 0.549 0.133
0.617 0.551 0.116
0.634 0.553 0.094
0.650 0.554 0.067
0.667 0.555 0.035
0.679 0.552 0.035
0.691 0.548 0.035
0.703 0.546 0.035
0.714 0.550 0.035
0.725 0.554 0.035
0.736 0.559 0.035
0.747 0.563 0.035
0.759 0.569 0.035
0.770 0.575 0.035
0.782 0.582 0.035
0.794 0.590 0.035
0.807 0.602 0.035
0.821 0.618 0.035
0.838 0.636 0.035
0.385 0.548 0.169
0.400 0.548 0.176
0.415 0.547 0.184
0.431 0.546 0.192
0.448 0.545 0.201
0.463 0.544 0.209
0.473 0.546 0.208
0.484 0.548 0.207
0.495 0.550 0.205
0.508 0.552 0.203
0.521 0.555 0.200
0.535 0.557 0.196
0.550 0.560 0.190
0.564 0.562 0.184
0.579 0.564 0.176
0.593 0.567 0.166
0.608 0.569 0.154
0.623 0.571 0.140
0.638 0.573 0.121
0.653 0.575 0.098
0.668 0.576 0.069
0.683 0.576 0.035
0.694 0.573 0.035
0.706 0.570 0.035
0.717 0.567 0.035
0.728 0.571 0.035
0.739 0.576 0.035
0.750 0.580 0.035
0.761 0.585 0.035
0.773 0.590 0.035
0.784 0.596 0.035
0.796 0.604 0.035
0.809 0.614 0.035
0.822 0.629 0.035
0.838 0.648 0.035
0.416 0.571 0.181
0.431 0.570 0.188
0.445 0.569 0.195
0.460 0.568 0.202
0.476 0.568 0.211
0.492 0.566 0.221
0.501 0.568 0.221
0.510 0.569 0.220
0.521 0.571 0.219
0.532 0.573 0.217
0.543 0.575 0.214
0.555 0.577 0.211
0.567 0.579 0.206
0.580 0.582 0.200
0.592 0.584 0.193
0.605 0.586 0.185
0.618 0.588 0.175
0.631 0.590 0.162
0.644 0.592 0.147
0.657 0.594 0.127
0.671 0.595 0.103
0.684 0.596 0.072
0.699 0.597 0.035
0.709 0.594 0.035
0.720 0.591 0.035
0.731 0.587 0.035
0.742 0.592 0.035
0.753 0.596 0.035
0.764 0.600 0.035
0.775 0.605 0.035
0.787 0.611 0.035
0.799 0.618 0.035
0.811 0.627 0.035
0.824 0.639 0.035
0.838 0.659 0.035
0.450 0.592 0.193
0.463 0.591 0.199
0.477 0.591 0.206
0.490 0.590 0.213
0.504 0.589 0.222
0.519 0.588 0.232
0.529 0.589 0.235
0.537 0.590 0.235
0.546 0.592 0.233
0.555 0.593 0.231
0.565 0.595 0.229
0.575 0.597 0.226
0.585 0.599 0.222
0.596 0.601 0.217
0.607 0.603 0.211
0.618 0.605 0.204
0.628 0.607 0.194
0.640 0.608 0.184
0.651 0.610 0.171
0.663 0.612 0.155
0.675 0.614 0.134
0.687 0.615 0.110
0.700 0.616 0.077
0.713 0.617 0.035
0.724 0.614 0.035
