FilterPlus/LUTs/Cinematic 01.cube
#Created by: Pixelmator Pro
#Color profile: "sRGB IEC61966-2.1"
TITLE "Cinematic 01"
#Data domain
#LUT size
LUT_3D_SIZE 5
DOMAIN_MIN 0.000000 0.000000 0.000000
DOMAIN_MAX 0.823529 0.823529 0.823529
0.031 0.038 0.058
0.118 0.051 0.058
0.294 0.082 0.058
0.518 0.117 0.058
0.706 0.174 0.058
0.043 0.125 0.100
0.177 0.116 0.058
0.323 0.136 0.058
0.534 0.169 0.058
0.714 0.223 0.058
0.092 0.269 0.172
0.155 0.289 0.137
0.440 0.233 0.058
0.605 0.254 0.058
0.717 0.324 0.058
0.151 0.471 0.256
0.208 0.478 0.241
0.360 0.525 0.121
0.660 0.402 0.058
0.754 0.443 0.058
0.246 0.698 0.412
0.330 0.687 0.429
0.405 0.709 0.363
0.579 0.729 0.213
0.772 0.655 0.058
0.031 0.059 0.137
0.129 0.051 0.181
0.333 0.078 0.150
0.653 0.060 0.084
0.749 0.141 0.058
0.031 0.154 0.196
0.127 0.133 0.159
0.419 0.152 0.134
0.664 0.152 0.058
0.750 0.208 0.058
0.031 0.324 0.219
0.164 0.270 0.217
0.453 0.247 0.117
0.604 0.280 0.124
0.749 0.329 0.058
0.120 0.511 0.287
0.220 0.471 0.298
0.336 0.515 0.224
0.687 0.428 0.058
0.761 0.471 0.097
0.218 0.711 0.439
0.312 0.700 0.451
0.420 0.702 0.436
0.567 0.727 0.302
0.779 0.673 0.058
0.031 0.104 0.280
0.071 0.097 0.386
0.295 0.095 0.352
0.523 0.146 0.287
0.762 0.135 0.231
0.031 0.182 0.365
0.114 0.183 0.380
0.288 0.176 0.323
0.536 0.218 0.294
0.771 0.199 0.218
0.031 0.345 0.380
0.042 0.375 0.409
0.295 0.294 0.292
0.619 0.337 0.275
0.776 0.350 0.183
0.031 0.556 0.393
0.126 0.561 0.379
0.340 0.479 0.372
0.647 0.457 0.248
0.744 0.521 0.254
0.128 0.736 0.501
0.248 0.725 0.502
0.431 0.703 0.514
0.554 0.718 0.458
0.779 0.694 0.183
0.031 0.155 0.459
0.031 0.144 0.573
0.190 0.168 0.576
0.521 0.147 0.552
0.715 0.246 0.455
0.031 0.225 0.533
0.047 0.223 0.606
0.234 0.248 0.564
0.518 0.229 0.533
0.714 0.327 0.459
0.031 0.384 0.579
0.078 0.400 0.616
0.287 0.375 0.540
0.497 0.357 0.490
0.732 0.438 0.481
0.031 0.563 0.567
0.031 0.592 0.589
0.195 0.593 0.578
0.509 0.517 0.472
0.757 0.579 0.453
0.031 0.737 0.590
0.031 0.756 0.599
0.303 0.741 0.584
0.566 0.709 0.582
0.763 0.708 0.414
0.031 0.245 0.640
0.031 0.242 0.673
0.100 0.232 0.704
0.334 0.288 0.696
0.714 0.248 0.687
0.031 0.311 0.663
0.031 0.312 0.688
0.145 0.322 0.704
0.378 0.371 0.694
0.712 0.337 0.684
0.031 0.448 0.685
0.031 0.463 0.703
0.204 0.479 0.703
0.442 0.500 0.689
0.707 0.478 0.676
0.031 0.612 0.694
0.031 0.634 0.707
0.227 0.638 0.707
0.495 0.622 0.686
0.697 0.605 0.664
0.031 0.738 0.688
0.031 0.747 0.694
0.031 0.767 0.705
0.298 0.768 0.703
0.704 0.731 0.659
