FilterPlus/LUTs/Cinematic 01.cube
#Created by: Pixelmator Pro
#Color profile: "sRGB IEC61966-2.1"
TITLE "Cinematic 01"
#Data domain
DOMAIN_MIN 0.000 0.000 0.000
DOMAIN_MAX 1.000 1.000 1.000
#LUT size
LUT_3D_SIZE 35
0.031 0.038 0.058
0.031 0.038 0.058
0.031 0.038 0.058
0.039 0.039 0.058
0.059 0.042 0.058
0.078 0.045 0.058
0.098 0.048 0.058
0.118 0.051 0.058
0.139 0.055 0.058
0.162 0.059 0.058
0.185 0.064 0.058
0.210 0.068 0.058
0.237 0.073 0.058
0.265 0.077 0.058
0.294 0.082 0.058
0.324 0.086 0.058
0.355 0.091 0.058
0.387 0.096 0.058
0.420 0.101 0.058
0.453 0.106 0.058
0.486 0.112 0.058
0.518 0.117 0.058
0.550 0.123 0.058
0.580 0.129 0.058
0.608 0.136 0.058
0.635 0.144 0.058
0.661 0.153 0.058
0.684 0.162 0.058
0.706 0.174 0.058
0.727 0.188 0.058
0.747 0.205 0.058
0.765 0.227 0.058
0.784 0.258 0.058
0.801 0.306 0.058
0.819 0.390 0.058
0.031 0.038 0.058
0.031 0.038 0.058
0.038 0.041 0.058
0.051 0.044 0.058
0.068 0.048 0.058
0.086 0.051 0.058
0.105 0.055 0.058
0.124 0.059 0.058
0.145 0.063 0.058
0.167 0.067 0.058
0.191 0.071 0.058
0.216 0.075 0.058
0.242 0.080 0.058
0.270 0.084 0.058
0.299 0.089 0.058
0.329 0.093 0.058
0.360 0.098 0.058
0.392 0.102 0.058
0.424 0.107 0.058
0.457 0.112 0.058
0.490 0.117 0.058
0.522 0.123 0.058
0.553 0.129 0.058
0.583 0.135 0.058
0.611 0.142 0.058
0.637 0.149 0.058
0.662 0.158 0.058
0.686 0.167 0.058
0.707 0.179 0.058
0.728 0.193 0.058
0.747 0.210 0.058
0.766 0.232 0.058
0.784 0.263 0.058
0.802 0.311 0.058
0.819 0.395 0.058
0.031 0.046 0.062
0.036 0.050 0.058
0.053 0.050 0.058
0.067 0.051 0.058
0.079 0.055 0.058
0.092 0.058 0.058
0.106 0.062 0.058
0.126 0.066 0.058
0.147 0.070 0.058
0.169 0.074 0.058
0.193 0.078 0.058
0.219 0.083 0.058
0.246 0.087 0.058
0.274 0.091 0.058
0.303 0.096 0.058
0.333 0.100 0.058
0.364 0.104 0.058
0.396 0.109 0.058
0.428 0.114 0.058
0.461 0.118 0.058
0.493 0.124 0.058
0.525 0.129 0.058
0.556 0.135 0.058
0.585 0.141 0.058
0.613 0.147 0.058
0.639 0.155 0.058
0.664 0.163 0.058
0.687 0.173 0.058
0.709 0.184 0.058
0.729 0.198 0.058
0.748 0.215 0.058
0.766 0.237 0.058
0.784 0.269 0.058
0.802 0.316 0.058
0.819 0.400 0.058
0.031 0.062 0.068
0.037 0.065 0.062
0.054 0.067 0.058
0.077 0.062 0.058
0.093 0.062 0.058
0.105 0.066 0.058
0.118 0.069 0.058
0.132 0.073 0.058
0.147 0.078 0.058
0.169 0.082 0.058
0.194 0.086 0.058
0.220 0.090 0.058
0.247 0.094 0.058
0.276 0.099 0.058
0.305 0.103 0.058
0.336 0.107 0.058
0.367 0.111 0.058
0.399 0.116 0.058
0.431 0.120 0.058
0.464 0.125 0.058
0.496 0.130 0.058
0.528 0.135 0.058
0.559 0.141 0.058
0.588 0.147 0.058
0.615 0.154 0.058
0.641 0.161 0.058
0.665 0.170 0.058
0.688 0.179 0.058
0.710 0.191 0.058
0.730 0.204 0.058
0.749 0.221 0.058
0.767 0.243 0.058
0.785 0.275 0.058
0.802 0.322 0.058
0.820 0.406 0.058
0.031 0.078 0.074
0.041 0.078 0.072
0.053 0.083 0.061
0.074 0.082 0.058
0.100 0.075 0.058
0.119 0.074 0.058
0.131 0.077 0.058
0.145 0.081 0.058
0.160 0.085 0.058
0.176 0.089 0.058
0.193 0.094 0.058
0.219 0.098 0.058
0.247 0.102 0.058
0.276 0.106 0.058
0.306 0.111 0.058
0.337 0.115 0.058
0.368 0.119 0.058
0.401 0.123 0.058
0.433 0.128 0.058
0.466 0.132 0.058
0.499 0.137 0.058
0.530 0.142 0.058
0.561 0.148 0.058
0.590 0.154 0.058
0.617 0.161 0.058
0.643 0.168 0.058
0.667 0.177 0.058
0.689 0.186 0.058
0.711 0.197 0.058
0.731 0.211 0.058
0.749 0.228 0.058
0.768 0.250 0.058
0.785 0.281 0.058
0.802 0.329 0.058
0.820 0.412 0.058
0.033 0.094 0.081
0.047 0.091 0.083
0.055 0.096 0.073
0.071 0.100 0.058
0.095 0.097 0.058
0.124 0.088 0.058
0.145 0.086 0.058
0.158 0.089 0.058
0.174 0.093 0.058
0.190 0.097 0.058
0.208 0.101 0.058
0.226 0.106 0.058
0.245 0.110 0.058
0.274 0.115 0.058
0.305 0.119 0.058
0.336 0.123 0.058
0.369 0.127 0.058
0.401 0.132 0.058
0.435 0.136 0.058
0.468 0.140 0.058
0.501 0.145 0.058
0.532 0.150 0.058
0.563 0.156 0.058
0.591 0.162 0.058
0.619 0.168 0.058
0.644 0.176 0.058
0.668 0.184 0.058
0.690 0.194 0.058
0.712 0.205 0.058
0.731 0.219 0.058
0.750 0.236 0.058
0.768 0.258 0.058
0.786 0.289 0.058
0.803 0.337 0.058
0.820 0.420 0.058
0.037 0.109 0.090
0.053 0.104 0.093
0.060 0.110 0.085
0.071 0.115 0.073
0.092 0.116 0.058
0.117 0.112 0.058
0.149 0.102 0.058
0.173 0.098 0.058
0.188 0.102 0.058
0.205 0.105 0.058
0.223 0.109 0.058
0.242 0.114 0.058
0.262 0.118 0.058
0.283 0.123 0.058
0.304 0.128 0.058
0.335 0.132 0.058
0.367 0.136 0.058
0.401 0.140 0.058
0.435 0.145 0.058
0.468 0.149 0.058
0.501 0.154 0.058
0.533 0.159 0.058
0.564 0.165 0.058
0.593 0.171 0.058
0.620 0.177 0.058
0.645 0.184 0.058
0.669 0.193 0.058
0.692 0.202 0.058
0.713 0.214 0.058
0.732 0.227 0.058
0.751 0.244 0.058
0.769 0.267 0.058
0.786 0.298 0.058
0.803 0.345 0.058
0.820 0.428 0.058
0.043 0.125 0.100
0.058 0.120 0.103
0.065 0.124 0.098
0.075 0.129 0.087
0.089 0.133 0.071
0.112 0.133 0.058
0.140 0.127 0.058
0.177 0.116 0.058
0.205 0.111 0.058
0.222 0.115 0.058
0.240 0.119 0.058
0.260 0.122 0.058
0.280 0.127 0.058
0.301 0.131 0.058
0.323 0.136 0.058
0.345 0.140 0.058
0.367 0.145 0.058
0.399 0.150 0.058
0.433 0.154 0.058
0.467 0.159 0.058
0.501 0.164 0.058
0.534 0.169 0.058
0.565 0.175 0.058
0.594 0.181 0.058
0.621 0.187 0.058
0.647 0.194 0.058
0.670 0.203 0.058
0.693 0.212 0.058
0.714 0.223 0.058
0.733 0.237 0.058
0.752 0.254 0.058
0.769 0.277 0.058
0.786 0.308 0.058
0.803 0.355 0.058
0.820 0.437 0.058
0.049 0.142 0.110
0.064 0.137 0.113
0.072 0.139 0.110
0.079 0.144 0.101
0.091 0.149 0.088
0.109 0.153 0.070
0.135 0.151 0.058
0.166 0.143 0.058
0.207 0.130 0.058
0.239 0.125 0.058
0.259 0.129 0.058
0.279 0.132 0.058
0.299 0.136 0.058
0.321 0.140 0.058
0.343 0.145 0.058
0.365 0.149 0.058
0.388 0.154 0.058
0.411 0.159 0.058
0.434 0.165 0.058
0.465 0.170 0.058
0.500 0.175 0.058
0.533 0.180 0.058
0.565 0.186 0.058
0.594 0.192 0.058
0.622 0.198 0.058
0.647 0.206 0.058
0.671 0.214 0.058
0.694 0.223 0.058
0.714 0.234 0.058
0.734 0.248 0.058
0.752 0.265 0.058
0.770 0.287 0.058
0.787 0.319 0.058
0.804 0.366 0.058
0.821 0.447 0.058
0.055 0.160 0.120
0.070 0.155 0.123
0.079 0.155 0.122
0.085 0.161 0.114
0.095 0.166 0.104
0.109 0.171 0.088
0.130 0.174 0.067
0.159 0.170 0.058
0.194 0.160 0.058
0.241 0.146 0.058
0.278 0.139 0.058
0.298 0.143 0.058
0.319 0.147 0.058
0.341 0.151 0.058
0.364 0.155 0.058
0.386 0.159 0.058
0.409 0.164 0.058
0.432 0.169 0.058
0.455 0.174 0.058
0.478 0.180 0.058
0.501 0.186 0.058
0.531 0.192 0.058
0.564 0.198 0.058
0.594 0.204 0.058
0.622 0.210 0.058
0.648 0.218 0.058
0.672 0.226 0.058
0.694 0.236 0.058
0.715 0.247 0.058
0.735 0.260 0.058
0.753 0.277 0.058
0.771 0.300 0.058
0.788 0.331 0.058
0.804 0.378 0.058
0.821 0.458 0.058
0.062 0.179 0.130
0.076 0.175 0.133
0.086 0.173 0.133
0.092 0.178 0.127
0.100 0.184 0.118
0.111 0.190 0.105
0.128 0.194 0.087
0.153 0.197 0.062
0.186 0.189 0.058
0.225 0.178 0.058
0.278 0.162 0.058
0.318 0.154 0.058
0.340 0.158 0.058
0.362 0.162 0.058
0.385 0.166 0.058
0.407 0.170 0.058
0.430 0.175 0.058
0.453 0.180 0.058
0.476 0.185 0.058
0.498 0.191 0.058
0.521 0.197 0.058
0.542 0.203 0.058
0.564 0.210 0.058
0.593 0.217 0.058
0.621 0.224 0.058
0.648 0.231 0.058
0.672 0.240 0.058
0.695 0.249 0.058
0.716 0.261 0.058
0.736 0.274 0.058
0.754 0.291 0.058
0.771 0.313 0.058
0.788 0.344 0.058
0.805 0.390 0.058
0.821 0.470 0.058
0.069 0.200 0.141
0.083 0.195 0.143
0.094 0.192 0.145
0.099 0.197 0.139
0.106 0.203 0.131
0.115 0.209 0.121
0.129 0.215 0.105
0.150 0.219 0.084
0.180 0.220 0.058
0.216 0.210 0.058
0.260 0.197 0.058
0.317 0.178 0.058
0.361 0.170 0.058
0.383 0.174 0.058
0.406 0.178 0.058
0.429 0.182 0.058
0.451 0.187 0.058
0.474 0.192 0.058
0.496 0.197 0.058
0.518 0.202 0.058
0.539 0.208 0.058
0.560 0.214 0.058
0.580 0.221 0.058
0.600 0.229 0.058
0.620 0.238 0.058
0.647 0.245 0.058
0.672 0.254 0.058
0.695 0.264 0.058
0.716 0.275 0.058
0.736 0.289 0.058
0.755 0.306 0.058
0.772 0.328 0.058
0.789 0.358 0.058
0.805 0.404 0.058
0.822 0.482 0.058
0.077 0.221 0.151
0.089 0.217 0.153
0.101 0.213 0.156
0.106 0.217 0.151
0.112 0.223 0.144
0.120 0.229 0.135
0.132 0.236 0.122
0.150 0.242 0.104
0.175 0.246 0.080
0.210 0.243 0.058
0.249 0.231 0.058
0.297 0.216 0.058
0.357 0.196 0.058
0.404 0.186 0.058
0.426 0.190 0.058
0.449 0.195 0.058
0.472 0.199 0.058
0.494 0.204 0.058
0.515 0.209 0.058
0.536 0.214 0.058
0.557 0.220 0.058
0.576 0.227 0.058
0.595 0.234 0.058
0.614 0.241 0.058
0.632 0.250 0.058
0.649 0.260 0.058
0.672 0.269 0.058
0.695 0.279 0.058
0.717 0.290 0.058
0.737 0.304 0.058
0.755 0.321 0.058
0.773 0.343 0.058
0.789 0.373 0.058
0.805 0.418 0.058
0.822 0.494 0.058
0.084 0.245 0.161
0.096 0.240 0.164
0.107 0.236 0.166
0.113 0.238 0.163
0.119 0.244 0.157
0.126 0.251 0.148
0.137 0.258 0.137
0.152 0.265 0.122
0.173 0.271 0.101
0.203 0.273 0.073
0.242 0.266 0.058
0.285 0.252 0.058
0.336 0.236 0.058
0.399 0.214 0.058
0.447 0.203 0.058
0.469 0.208 0.058
0.491 0.212 0.058
0.512 0.217 0.058
0.533 0.222 0.058
0.553 0.228 0.058
0.573 0.233 0.058
0.591 0.240 0.058
0.609 0.247 0.058
0.626 0.254 0.058
0.643 0.263 0.058
0.660 0.272 0.058
0.676 0.283 0.058
0.695 0.295 0.058
0.717 0.307 0.058
0.737 0.320 0.058
0.756 0.338 0.058
0.773 0.360 0.058
0.790 0.389 0.058
0.806 0.433 0.058
0.822 0.507 0.058
0.092 0.269 0.172
0.103 0.264 0.174
0.114 0.260 0.176
0.121 0.261 0.175
0.126 0.267 0.169
0.133 0.274 0.161
0.142 0.281 0.151
0.155 0.289 0.137
0.173 0.295 0.120
0.199 0.300 0.096
0.235 0.302 0.065
0.277 0.290 0.058
0.323 0.275 0.058
0.377 0.256 0.058
0.440 0.233 0.058
0.488 0.221 0.058
0.509 0.226 0.058
0.530 0.231 0.058
0.550 0.236 0.058
0.569 0.241 0.058
0.588 0.247 0.058
0.605 0.254 0.058
0.622 0.260 0.058
0.639 0.268 0.058
0.654 0.276 0.058
0.670 0.286 0.058
0.685 0.297 0.058
0.700 0.310 0.058
0.717 0.324 0.058
0.737 0.338 0.058
0.756 0.355 0.058
0.774 0.376 0.058
0.790 0.406 0.058
0.806 0.449 0.058
0.822 0.520 0.058
0.099 0.294 0.183
0.110 0.290 0.185
0.121 0.285 0.187
0.129 0.285 0.187
0.134 0.291 0.181
0.140 0.298 0.174
0.149 0.305 0.165
0.160 0.313 0.153
0.176 0.320 0.137
0.199 0.327 0.116
0.229 0.331 0.090
0.271 0.330 0.058
0.314 0.315 0.058
0.363 0.298 0.058
0.417 0.278 0.058
0.480 0.253 0.058
0.527 0.240 0.058
0.547 0.245 0.058
0.565 0.250 0.058
0.584 0.256 0.058
0.601 0.262 0.058
0.618 0.268 0.058
0.634 0.275 0.058
0.650 0.282 0.058
0.665 0.291 0.058
0.679 0.300 0.058
0.693 0.311 0.058
0.707 0.324 0.058
0.721 0.339 0.058
0.737 0.355 0.058
0.757 0.372 0.058
0.774 0.394 0.058
0.791 0.423 0.058
0.807 0.465 0.058
0.823 0.534 0.058
0.107 0.321 0.194
0.118 0.317 0.196
0.128 0.312 0.198
0.137 0.310 0.199
0.142 0.316 0.193
0.148 0.322 0.187
0.155 0.330 0.178
0.166 0.338 0.167
0.180 0.346 0.153
0.200 0.353 0.135
0.227 0.359 0.112
0.263 0.362 0.082
0.307 0.356 0.058
0.353 0.340 0.058
0.402 0.321 0.058
0.457 0.300 0.058
0.518 0.274 0.058
0.562 0.259 0.058
0.580 0.264 0.058
0.597 0.270 0.058
0.614 0.277 0.058
0.630 0.283 0.058
0.645 0.290 0.058
0.660 0.298 0.058
0.674 0.306 0.058
0.688 0.316 0.058
0.701 0.326 0.058
0.714 0.339 0.058
0.728 0.354 0.058
0.741 0.372 0.058
0.757 0.391 0.058
0.774 0.412 0.058
0.791 0.441 0.058
0.807 0.482 0.058
0.823 0.548 0.058
0.115 0.349 0.205
0.125 0.345 0.207
0.135 0.340 0.209
0.145 0.336 0.211
0.150 0.342 0.206
0.156 0.349 0.200
0.163 0.356 0.191
0.173 0.364 0.181
0.186 0.372 0.169
0.203 0.380 0.153
0.227 0.387 0.132
0.258 0.392 0.107
0.299 0.394 0.075
0.345 0.383 0.058
0.392 0.366 0.058
0.442 0.346 0.058
0.496 0.324 0.058
0.553 0.296 0.058
0.593 0.280 0.058
0.610 0.285 0.058
0.626 0.292 0.058
0.641 0.299 0.058
0.655 0.306 0.058
0.669 0.313 0.058
0.683 0.322 0.058
0.696 0.332 0.058
0.709 0.343 0.058
0.721 0.355 0.058
0.733 0.370 0.058
0.746 0.387 0.058
0.758 0.410 0.058
0.775 0.431 0.058
0.792 0.459 0.058
0.807 0.499 0.058
0.823 0.562 0.058
0.123 0.378 0.217
0.133 0.374 0.219
0.143 0.369 0.221
0.154 0.365 0.223
0.159 0.369 0.219
0.164 0.376 0.213
0.171 0.383 0.205
0.180 0.391 0.196
0.192 0.399 0.184
0.208 0.408 0.169
0.229 0.415 0.151
0.257 0.422 0.129
0.293 0.426 0.101
0.338 0.426 0.066
0.384 0.411 0.058
0.431 0.393 0.058
0.481 0.372 0.058
0.533 0.348 0.058
0.585 0.319 0.058
0.622 0.301 0.058
0.637 0.308 0.058
0.651 0.315 0.058
0.665 0.322 0.058
0.678 0.330 0.058
0.691 0.339 0.058
0.704 0.349 0.058
0.716 0.359 0.058
0.728 0.372 0.058
0.739 0.387 0.058
0.751 0.404 0.058
0.762 0.426 0.058
0.775 0.451 0.058
0.792 0.478 0.058
0.808 0.517 0.058
0.824 0.576 0.058
0.132 0.408 0.229
0.142 0.404 0.231
0.152 0.399 0.233
0.162 0.395 0.235
0.168 0.398 0.232
0.173 0.404 0.227
0.180 0.411 0.219
0.188 0.419 0.210
0.200 0.427 0.199
0.214 0.436 0.185
0.233 0.444 0.169
0.258 0.451 0.149
0.289 0.456 0.125
0.330 0.459 0.095
0.378 0.458 0.058
0.423 0.440 0.058
0.470 0.420 0.058
0.518 0.399 0.058
0.566 0.374 0.058
0.614 0.343 0.058
0.647 0.325 0.058
0.661 0.332 0.058
0.674 0.340 0.058
0.687 0.348 0.058
0.699 0.357 0.058
0.711 0.366 0.058
0.722 0.378 0.058
0.733 0.390 0.058
0.744 0.404 0.058
0.755 0.422 0.058
0.766 0.443 0.058
0.777 0.469 0.058
0.792 0.498 0.058
0.808 0.535 0.058
0.824 0.591 0.058
0.141 0.439 0.242
0.151 0.435 0.244
0.161 0.431 0.246
0.171 0.426 0.248
0.178 0.428 0.247
0.183 0.434 0.241
0.189 0.440 0.234
0.197 0.448 0.225
0.208 0.456 0.215
0.222 0.464 0.202
0.239 0.473 0.186
0.261 0.480 0.169
0.289 0.486 0.147
0.324 0.491 0.122
0.368 0.492 0.090
0.417 0.487 0.058
0.462 0.469 0.058
0.506 0.450 0.058
0.550 0.428 0.058
0.594 0.403 0.058
0.638 0.372 0.058
0.670 0.349 0.058
0.682 0.357 0.058
0.694 0.366 0.058
0.706 0.375 0.058
0.717 0.385 0.058
0.728 0.396 0.058
0.739 0.409 0.058
0.750 0.423 0.058
0.760 0.440 0.058
0.770 0.461 0.058
0.781 0.487 0.058
0.793 0.519 0.058
0.809 0.553 0.058
0.824 0.606 0.058
0.151 0.471 0.256
0.161 0.467 0.258
0.170 0.463 0.260
0.181 0.459 0.262
0.189 0.459 0.262
0.194 0.464 0.256
0.200 0.471 0.250
0.208 0.478 0.241
0.217 0.486 0.231
0.230 0.493 0.219
0.246 0.501 0.205
0.266 0.509 0.188
0.291 0.516 0.169
0.322 0.521 0.146
0.360 0.525 0.121
0.404 0.526 0.089
0.453 0.520 0.058
0.496 0.502 0.058
0.538 0.483 0.058
0.580 0.461 0.058
0.620 0.435 0.058
0.660 0.402 0.058
0.690 0.376 0.058
0.702 0.385 0.058
0.713 0.395 0.058
0.724 0.405 0.058
0.734 0.416 0.058
0.744 0.429 0.058
0.754 0.443 0.058
0.764 0.460 0.058
0.774 0.480 0.058
0.784 0.505 0.058
0.795 0.537 0.058
0.809 0.572 0.058
0.824 0.621 0.058
0.162 0.504 0.271
0.171 0.500 0.273
0.181 0.496 0.275
0.191 0.492 0.277
0.201 0.490 0.278
0.206 0.496 0.273
0.212 0.502 0.266
0.219 0.508 0.258
0.228 0.516 0.249
0.240 0.523 0.238
0.254 0.530 0.225
0.272 0.538 0.210
0.294 0.544 0.193
0.321 0.550 0.173
0.354 0.555 0.151
0.393 0.558 0.124
0.439 0.559 0.092
0.488 0.554 0.058
0.529 0.537 0.058
0.568 0.517 0.058
0.607 0.495 0.058
0.644 0.468 0.058
0.680 0.435 0.058
0.709 0.404 0.058
0.719 0.414 0.058
0.730 0.425 0.058
0.740 0.437 0.058
0.749 0.450 0.058
0.759 0.464 0.058
0.768 0.480 0.058
0.778 0.500 0.058
0.787 0.524 0.058
0.797 0.554 0.058
0.809 0.591 0.058
0.825 0.636 0.058
0.173 0.537 0.287
0.183 0.533 0.289
0.192 0.530 0.291
0.202 0.527 0.294
0.213 0.523 0.296
0.218 0.527 0.292
0.224 0.532 0.286
0.231 0.538 0.279
0.240 0.545 0.270
0.251 0.552 0.259
0.264 0.559 0.248
0.280 0.565 0.234
0.300 0.572 0.218
0.324 0.578 0.201
0.352 0.583 0.180
0.386 0.587 0.157
0.427 0.590 0.130
0.472 0.591 0.097
0.522 0.588 0.058
0.560 0.571 0.058
0.596 0.552 0.058
0.632 0.530 0.058
0.665 0.503 0.058
0.698 0.469 0.058
0.725 0.435 0.058
0.735 0.446 0.058
0.745 0.458 0.058
0.754 0.471 0.058
0.763 0.486 0.058
0.773 0.502 0.058
0.781 0.521 0.058
0.791 0.544 0.058
0.800 0.572 0.058
0.810 0.610 0.058
0.825 0.651 0.058
0.184 0.571 0.306
0.193 0.568 0.308
0.203 0.565 0.310
0.213 0.562 0.312
0.224 0.559 0.315
0.233 0.559 0.314
0.239 0.563 0.308
0.245 0.569 0.302
0.254 0.574 0.294
0.264 0.581 0.284
0.276 0.587 0.272
0.291 0.593 0.260
0.308 0.599 0.245
0.329 0.605 0.228
0.354 0.610 0.210
0.384 0.615 0.189
0.419 0.619 0.166
0.460 0.621 0.138
0.505 0.622 0.106
0.553 0.621 0.062
0.589 0.606 0.058
0.622 0.588 0.058
0.654 0.566 0.058
0.685 0.540 0.058
0.715 0.505 0.058
0.741 0.468 0.058
0.750 0.480 0.058
0.759 0.494 0.058
0.768 0.508 0.058
0.776 0.524 0.058
0.785 0.543 0.058
0.794 0.565 0.058
0.803 0.591 0.058
0.812 0.626 0.058
0.825 0.667 0.058
0.196 0.604 0.327
0.206 0.602 0.329
0.215 0.600 0.331
0.226 0.597 0.333
0.237 0.594 0.335
0.249 0.591 0.338
0.255 0.594 0.334
0.262 0.599 0.327
0.270 0.604 0.320
0.279 0.609 0.311
0.290 0.615 0.300
0.304 0.621 0.288
0.320 0.626 0.275
0.338 0.631 0.259
0.360 0.636 0.242
0.386 0.641 0.223
0.417 0.645 0.201
0.452 0.648 0.178
0.492 0.651 0.150
0.535 0.652 0.117
0.580 0.651 0.073
0.616 0.640 0.058
0.646 0.622 0.058
0.675 0.602 0.058
0.704 0.577 0.058
