FilterPlus/LUTs/Cinematic 02.cube
#Created by: Pixelmator Pro
#Color profile: "sRGB IEC61966-2.1"
TITLE "Cinematic 02"
#Data domain
DOMAIN_MIN 0.000 0.000 0.000
DOMAIN_MAX 1.000 1.000 1.000
#LUT size
LUT_3D_SIZE 35
0.022 0.045 0.061
0.022 0.045 0.061
0.022 0.045 0.061
0.022 0.045 0.061
0.022 0.045 0.061
0.022 0.045 0.061
0.034 0.049 0.061
0.048 0.053 0.061
0.063 0.058 0.061
0.080 0.063 0.061
0.099 0.068 0.061
0.121 0.073 0.061
0.146 0.079 0.061
0.176 0.084 0.061
0.209 0.090 0.061
0.247 0.097 0.061
0.288 0.103 0.061
0.331 0.110 0.061
0.376 0.117 0.061
0.422 0.124 0.061
0.467 0.132 0.061
0.511 0.140 0.061
0.552 0.148 0.061
0.590 0.158 0.061
0.625 0.168 0.061
0.657 0.179 0.061
0.687 0.192 0.061
0.715 0.206 0.061
0.740 0.222 0.061
0.764 0.241 0.061
0.787 0.263 0.061
0.808 0.293 0.061
0.827 0.334 0.061
0.846 0.390 0.061
0.865 0.476 0.061
0.022 0.045 0.061
0.022 0.045 0.061
0.022 0.045 0.061
0.022 0.045 0.061
0.029 0.049 0.061
0.038 0.054 0.061
0.049 0.058 0.061
0.062 0.063 0.061
0.077 0.067 0.061
0.094 0.072 0.061
0.113 0.078 0.061
0.136 0.083 0.061
0.162 0.089 0.061
0.193 0.095 0.061
0.228 0.100 0.061
0.266 0.107 0.061
0.307 0.113 0.061
0.350 0.119 0.061
0.394 0.126 0.061
0.439 0.133 0.061
0.482 0.141 0.061
0.524 0.149 0.061
0.563 0.157 0.061
0.599 0.167 0.061
0.632 0.177 0.061
0.663 0.188 0.061
0.692 0.200 0.061
0.718 0.214 0.061
0.743 0.229 0.061
0.767 0.248 0.061
0.789 0.270 0.061
0.809 0.300 0.061
0.828 0.340 0.061
0.847 0.396 0.061
0.865 0.480 0.061
0.022 0.045 0.061
0.022 0.045 0.061
0.023 0.047 0.061
0.030 0.053 0.061
0.039 0.059 0.061
0.049 0.065 0.061
0.062 0.071 0.061
0.075 0.076 0.061
0.090 0.080 0.061
0.107 0.085 0.061
0.128 0.090 0.061
0.152 0.095 0.061
0.180 0.100 0.061
0.212 0.106 0.061
0.248 0.112 0.061
0.286 0.118 0.061
0.327 0.124 0.061
0.369 0.130 0.061
0.412 0.137 0.061
0.455 0.144 0.061
0.497 0.151 0.061
0.537 0.159 0.061
0.574 0.167 0.061
0.608 0.176 0.061
0.640 0.186 0.061
0.669 0.197 0.061
0.697 0.209 0.061
0.722 0.222 0.061
0.746 0.237 0.061
0.769 0.255 0.061
0.791 0.277 0.061
0.810 0.307 0.061
0.829 0.347 0.061
0.847 0.402 0.061
0.865 0.485 0.061
0.022 0.049 0.063
0.024 0.054 0.066
0.027 0.061 0.063
0.035 0.066 0.061
0.045 0.070 0.061
0.056 0.076 0.061
0.069 0.082 0.061
0.084 0.088 0.061
0.102 0.095 0.061
0.122 0.100 0.061
0.143 0.105 0.061
0.169 0.109 0.061
0.198 0.114 0.061
0.232 0.119 0.061
0.268 0.125 0.061
0.307 0.130 0.061
0.347 0.136 0.061
0.389 0.142 0.061
0.431 0.149 0.061
0.472 0.155 0.061
0.512 0.162 0.061
0.550 0.170 0.061
0.585 0.178 0.061
0.617 0.187 0.061
0.647 0.196 0.061
0.675 0.206 0.061
0.702 0.218 0.061
0.726 0.231 0.061
0.749 0.246 0.061
0.771 0.264 0.061
0.792 0.285 0.061
0.811 0.315 0.061
0.830 0.354 0.061
0.848 0.408 0.061
0.865 0.490 0.061
0.026 0.062 0.076
0.029 0.066 0.080
0.031 0.073 0.080
0.035 0.080 0.075
0.048 0.085 0.061
0.061 0.089 0.061
0.074 0.095 0.061
0.090 0.101 0.061
0.109 0.107 0.061
0.132 0.114 0.061
0.158 0.121 0.061
0.188 0.126 0.061
0.219 0.130 0.061
0.253 0.135 0.061
0.289 0.140 0.061
0.328 0.145 0.061
0.368 0.150 0.061
0.409 0.156 0.061
0.450 0.162 0.061
0.490 0.168 0.061
0.528 0.175 0.061
0.563 0.182 0.061
0.596 0.190 0.061
0.627 0.198 0.061
0.655 0.207 0.061
0.682 0.217 0.061
0.707 0.229 0.061
0.730 0.241 0.061
0.753 0.256 0.061
0.774 0.273 0.061
0.794 0.294 0.061
0.813 0.324 0.061
0.831 0.362 0.061
0.848 0.415 0.061
0.865 0.495 0.061
0.032 0.077 0.091
0.034 0.080 0.095
0.036 0.086 0.097
0.039 0.093 0.095
0.045 0.101 0.087
0.060 0.106 0.070
0.080 0.108 0.061
0.096 0.115 0.061
0.115 0.121 0.061
0.139 0.128 0.061
0.167 0.134 0.061
0.200 0.141 0.061
0.237 0.148 0.061
0.275 0.153 0.061
0.312 0.157 0.061
0.351 0.162 0.061
0.390 0.167 0.061
0.430 0.172 0.061
0.469 0.177 0.061
0.507 0.183 0.061
0.543 0.189 0.061
0.576 0.196 0.061
0.607 0.203 0.061
0.636 0.211 0.061
0.663 0.220 0.061
0.688 0.229 0.061
0.712 0.240 0.061
0.735 0.252 0.061
0.756 0.267 0.061
0.777 0.283 0.061
0.796 0.305 0.061
0.814 0.333 0.061
0.831 0.371 0.061
0.849 0.423 0.061
0.866 0.501 0.061
0.038 0.092 0.108
0.041 0.095 0.113
0.042 0.101 0.115
0.045 0.107 0.115
0.048 0.115 0.112
0.056 0.123 0.101
0.075 0.128 0.081
0.099 0.130 0.066
0.120 0.136 0.063
0.146 0.143 0.061
0.176 0.149 0.061
0.210 0.156 0.061
0.249 0.162 0.061
0.290 0.169 0.061
0.333 0.176 0.061
0.374 0.182 0.061
0.413 0.186 0.061
0.452 0.190 0.061
0.489 0.195 0.061
0.524 0.200 0.061
0.558 0.206 0.061
0.589 0.212 0.061
0.618 0.219 0.061
0.646 0.226 0.061
0.671 0.234 0.061
0.695 0.243 0.061
0.718 0.253 0.061
0.739 0.265 0.061
0.760 0.279 0.061
0.780 0.295 0.061
0.798 0.316 0.061
0.815 0.344 0.061
0.832 0.380 0.061
0.849 0.431 0.061
0.866 0.508 0.061
0.045 0.109 0.126
0.048 0.112 0.131
0.050 0.117 0.134
0.052 0.123 0.136
0.054 0.130 0.134
0.059 0.138 0.129
0.070 0.147 0.116
0.091 0.152 0.093
0.122 0.153 0.076
0.147 0.160 0.072
0.180 0.166 0.066
0.220 0.172 0.061
0.260 0.179 0.061
0.302 0.185 0.061
0.346 0.191 0.061
0.390 0.198 0.061
0.433 0.205 0.061
0.473 0.211 0.061
0.508 0.215 0.061
0.542 0.219 0.061
0.573 0.224 0.061
0.602 0.230 0.061
0.630 0.236 0.061
0.655 0.243 0.061
0.679 0.250 0.061
0.702 0.259 0.061
0.724 0.268 0.061
0.744 0.279 0.061
0.764 0.292 0.061
0.783 0.308 0.061
0.800 0.329 0.061
0.817 0.356 0.061
0.833 0.391 0.061
0.850 0.440 0.061
0.866 0.515 0.061
0.052 0.127 0.146
0.056 0.130 0.151
0.058 0.134 0.154
0.060 0.140 0.156
0.062 0.146 0.157
0.066 0.154 0.155
0.072 0.162 0.147
0.085 0.171 0.132
0.111 0.176 0.107
0.149 0.177 0.086
0.179 0.184 0.083
0.217 0.191 0.077
0.263 0.197 0.069
0.314 0.202 0.061
0.359 0.209 0.061
0.403 0.215 0.061
0.446 0.221 0.061
0.487 0.228 0.061
0.525 0.234 0.061
0.559 0.241 0.061
0.588 0.245 0.061
0.615 0.250 0.061
0.641 0.255 0.061
0.665 0.261 0.061
0.687 0.268 0.061
0.709 0.276 0.061
0.729 0.285 0.061
0.749 0.295 0.061
0.768 0.308 0.061
0.786 0.323 0.061
0.802 0.343 0.061
0.818 0.369 0.061
0.835 0.403 0.061
0.851 0.451 0.061
0.867 0.523 0.061
0.061 0.147 0.167
0.064 0.149 0.172
0.067 0.152 0.175
0.068 0.157 0.178
0.071 0.163 0.179
0.074 0.170 0.179
0.078 0.179 0.175
0.087 0.188 0.167
0.103 0.197 0.149
0.134 0.202 0.122
0.182 0.202 0.098
0.217 0.209 0.094
0.259 0.216 0.089
0.308 0.222 0.081
0.361 0.228 0.072
0.416 0.233 0.061
0.459 0.239 0.061
0.500 0.245 0.061
0.537 0.252 0.061
0.570 0.258 0.061
0.600 0.265 0.061
0.627 0.272 0.061
0.651 0.276 0.061
0.674 0.281 0.061
0.695 0.288 0.061
0.716 0.295 0.061
0.735 0.303 0.061
0.754 0.313 0.061
0.771 0.324 0.061
0.788 0.339 0.061
0.804 0.358 0.061
0.820 0.383 0.061
0.836 0.416 0.061
0.851 0.462 0.061
0.867 0.532 0.061
0.070 0.166 0.188
0.073 0.168 0.192
0.076 0.171 0.197
0.078 0.176 0.199
0.081 0.181 0.201
0.083 0.188 0.201
0.087 0.196 0.200
0.093 0.204 0.196
0.104 0.214 0.185
0.124 0.223 0.166
0.162 0.227 0.138
0.222 0.227 0.110
0.260 0.234 0.107
0.305 0.241 0.102
0.355 0.247 0.094
0.407 0.253 0.085
0.460 0.259 0.074
0.511 0.264 0.062
0.548 0.270 0.061
0.581 0.276 0.061
0.610 0.283 0.061
0.637 0.289 0.061
0.661 0.297 0.061
0.683 0.303 0.061
0.703 0.309 0.061
0.722 0.315 0.061
0.741 0.322 0.061
0.758 0.331 0.061
0.775 0.342 0.061
0.791 0.357 0.061
0.806 0.375 0.061
0.822 0.398 0.061
0.837 0.430 0.061
0.852 0.474 0.061
0.867 0.541 0.061
0.080 0.186 0.209
0.084 0.188 0.213
0.087 0.190 0.217
0.089 0.195 0.220
0.091 0.200 0.222
0.094 0.206 0.223
0.098 0.213 0.223
0.103 0.221 0.221
0.111 0.230 0.215
0.124 0.240 0.204
0.149 0.249 0.183
0.196 0.253 0.154
0.266 0.252 0.123
0.307 0.259 0.120
0.353 0.266 0.115
0.402 0.272 0.108
0.453 0.278 0.099
0.502 0.284 0.088
0.549 0.290 0.075
0.590 0.295 0.061
0.619 0.301 0.061
0.645 0.308 0.061
0.668 0.315 0.061
0.690 0.322 0.061
0.710 0.330 0.061
0.728 0.336 0.061
0.746 0.343 0.061
0.762 0.351 0.061
0.779 0.361 0.061
0.794 0.375 0.061
0.808 0.392 0.061
0.823 0.414 0.061
0.838 0.444 0.061
0.853 0.486 0.061
0.868 0.551 0.061
0.091 0.206 0.230
0.095 0.208 0.233
0.098 0.210 0.237
0.101 0.214 0.240
0.103 0.219 0.242
0.106 0.224 0.244
0.109 0.231 0.244
0.114 0.238 0.244
0.120 0.247 0.241
0.131 0.256 0.234
0.149 0.266 0.221
0.180 0.274 0.200
0.234 0.279 0.171
0.313 0.277 0.137
0.355 0.284 0.134
0.401 0.290 0.129
0.449 0.297 0.122
0.497 0.303 0.113
0.542 0.310 0.102
0.583 0.316 0.089
0.621 0.321 0.074
0.653 0.327 0.061
0.675 0.334 0.061
0.696 0.340 0.061
0.716 0.348 0.061
0.734 0.356 0.061
0.750 0.364 0.061
0.766 0.371 0.061
0.782 0.381 0.061
0.796 0.394 0.061
0.810 0.410 0.061
0.825 0.431 0.061
0.839 0.459 0.061
0.853 0.499 0.061
0.868 0.560 0.061
0.103 0.226 0.249
0.107 0.228 0.253
0.111 0.230 0.256
0.114 0.233 0.259
0.116 0.237 0.261
0.119 0.242 0.263
0.123 0.248 0.264
0.127 0.256 0.265
0.133 0.264 0.263
0.141 0.273 0.259
0.155 0.282 0.251
0.177 0.292 0.238
0.215 0.300 0.217
0.275 0.304 0.187
0.362 0.301 0.151
0.404 0.308 0.148
0.449 0.315 0.143
0.494 0.322 0.136
0.537 0.328 0.128
0.578 0.335 0.117
0.615 0.341 0.103
0.649 0.347 0.088
0.679 0.353 0.069
0.703 0.360 0.061
0.721 0.367 0.061
0.739 0.374 0.061
0.755 0.383 0.061
0.770 0.393 0.061
0.784 0.402 0.061
0.798 0.414 0.061
0.812 0.428 0.061
0.826 0.448 0.061
0.840 0.474 0.061
0.854 0.512 0.061
0.869 0.570 0.061
0.116 0.246 0.268
0.120 0.248 0.271
0.124 0.249 0.274
0.128 0.251 0.278
0.131 0.256 0.280
0.134 0.261 0.282
0.137 0.267 0.283
0.142 0.273 0.284
0.147 0.281 0.284
0.155 0.289 0.282
0.166 0.298 0.277
0.183 0.308 0.268
0.211 0.317 0.254
0.254 0.325 0.233
0.320 0.329 0.204
0.409 0.326 0.166
0.452 0.333 0.162
0.494 0.340 0.157
0.535 0.347 0.151
0.575 0.353 0.142
0.611 0.360 0.131
0.644 0.367 0.117
0.675 0.373 0.100
0.702 0.380 0.081
0.727 0.386 0.061
0.744 0.394 0.061
0.759 0.402 0.061
0.773 0.411 0.061
0.787 0.422 0.061
0.801 0.433 0.061
0.814 0.447 0.061
0.827 0.465 0.061
0.841 0.490 0.061
0.855 0.526 0.061
0.869 0.580 0.061
0.131 0.266 0.287
0.135 0.267 0.289
0.139 0.269 0.292
0.144 0.271 0.296
0.147 0.275 0.298
0.150 0.279 0.300
0.154 0.285 0.301
0.158 0.291 0.303
0.164 0.298 0.303
0.171 0.306 0.302
0.181 0.315 0.299
0.195 0.324 0.293
0.216 0.334 0.284
0.248 0.343 0.269
0.297 0.350 0.248
0.366 0.354 0.220
0.454 0.352 0.182
0.498 0.357 0.176
0.536 0.364 0.171
0.573 0.371 0.165
0.608 0.378 0.156
0.641 0.385 0.145
0.671 0.392 0.131
0.699 0.399 0.113
0.724 0.406 0.091
0.747 0.413 0.064
0.763 0.421 0.061
0.777 0.430 0.061
0.790 0.440 0.061
0.803 0.453 0.061
0.816 0.466 0.061
0.829 0.482 0.061
0.842 0.505 0.061
0.855 0.539 0.061
0.869 0.590 0.061
0.147 0.286 0.304
0.152 0.287 0.307
0.156 0.289 0.310
0.161 0.291 0.313
0.166 0.293 0.315
0.169 0.298 0.317
0.173 0.303 0.319
0.177 0.309 0.320
0.183 0.316 0.321
0.189 0.323 0.321
0.198 0.331 0.320
0.210 0.340 0.316
0.228 0.350 0.310
0.253 0.359 0.300
0.289 0.368 0.285
0.342 0.375 0.264
0.412 0.379 0.236
0.497 0.377 0.198
0.540 0.382 0.190
0.574 0.389 0.186
0.607 0.396 0.179
0.639 0.403 0.170
0.668 0.411 0.159
0.696 0.418 0.144
0.721 0.426 0.124
0.744 0.433 0.098
0.766 0.441 0.066
0.780 0.449 0.061
0.793 0.459 0.061
0.805 0.470 0.061
0.817 0.484 0.061
0.830 0.500 0.061
0.843 0.521 0.061
0.856 0.552 0.061
0.870 0.600 0.061
0.166 0.306 0.322
0.170 0.307 0.324
0.175 0.309 0.327
0.181 0.310 0.330
0.186 0.313 0.333
0.190 0.317 0.334
0.194 0.322 0.336
0.198 0.327 0.338
0.204 0.334 0.339
0.210 0.341 0.339
0.219 0.349 0.339
0.230 0.357 0.337
0.244 0.366 0.332
0.264 0.375 0.325
0.292 0.385 0.315
0.333 0.393 0.300
0.388 0.400 0.279
0.457 0.404 0.251
0.537 0.402 0.214
0.578 0.406 0.204
0.609 0.414 0.200
0.638 0.421 0.193
0.667 0.429 0.184
0.693 0.436 0.171
0.718 0.444 0.154
0.742 0.452 0.130
0.763 0.461 0.100
0.783 0.469 0.063
0.796 0.478 0.061
0.808 0.488 0.061
0.819 0.501 0.061
0.831 0.517 0.061
0.844 0.537 0.061
0.857 0.565 0.061
0.870 0.610 0.061
0.186 0.326 0.339
0.192 0.328 0.342
0.197 0.329 0.344
0.203 0.331 0.347
0.209 0.333 0.350
0.213 0.336 0.352
0.217 0.341 0.353
0.222 0.346 0.355
0.228 0.352 0.356
0.234 0.359 0.357
0.242 0.366 0.357
0.252 0.374 0.356
0.264 0.383 0.354
0.281 0.392 0.349
0.304 0.401 0.341
0.335 0.410 0.330
0.377 0.419 0.315
0.433 0.425 0.294
0.501 0.429 0.267
0.574 0.427 0.230
0.612 0.431 0.218
0.639 0.438 0.214
0.666 0.446 0.206
0.692 0.454 0.195
0.716 0.462 0.180
0.739 0.471 0.161
0.761 0.479 0.134
0.781 0.488 0.099
0.799 0.497 0.061
0.810 0.507 0.061
0.822 0.519 0.061
0.833 0.533 0.061
0.844 0.552 0.061
0.857 0.578 0.061
0.871 0.620 0.061
0.210 0.347 0.357
0.215 0.348 0.359
0.221 0.350 0.361
0.227 0.351 0.364
0.234 0.353 0.366
0.239 0.356 0.369
0.243 0.361 0.371
0.248 0.366 0.372
0.254 0.371 0.374
0.260 0.378 0.375
0.268 0.384 0.375
0.277 0.392 0.375
0.288 0.400 0.373
0.302 0.409 0.370
0.321 0.418 0.365
0.346 0.427 0.357
0.379 0.436 0.346
0.422 0.444 0.331
0.477 0.450 0.310
0.541 0.454 0.282
0.607 0.452 0.245
0.643 0.456 0.230
0.668 0.464 0.224
0.692 0.472 0.216
0.715 0.480 0.205
0.738 0.489 0.188
0.759 0.498 0.166
0.779 0.507 0.135
0.798 0.516 0.093
0.813 0.526 0.061
0.824 0.536 0.061
0.835 0.550 0.061
0.845 0.568 0.061
0.858 0.592 0.061
0.871 0.630 0.061
0.237 0.369 0.375
0.242 0.370 0.377
0.248 0.371 0.379
0.254 0.373 0.381
0.261 0.374 0.384
0.268 0.377 0.386
0.272 0.381 0.388
0.277 0.386 0.390
0.283 0.391 0.391
0.289 0.397 0.392
0.296 0.403 0.393
0.305 0.411 0.393
0.315 0.418 0.393
0.327 0.426 0.391
0.343 0.435 0.388
0.363 0.443 0.382
0.389 0.452 0.374
0.423 0.461 0.362
0.466 0.469 0.346
0.519 0.476 0.325
0.577 0.480 0.297
0.636 0.478 0.259
0.670 0.481 0.241
0.693 0.489 0.235
0.715 0.498 0.226
0.737 0.506 0.213
0.758 0.515 0.195
0.777 0.525 0.169
0.796 0.535 0.132
0.813 0.545 0.079
0.826 0.555 0.061
0.836 0.567 0.061
0.847 0.583 0.061
0.858 0.605 0.061
0.871 0.640 0.061
0.266 0.391 0.393
0.272 0.392 0.395
0.278 0.393 0.397
0.284 0.395 0.399
0.291 0.396 0.401
0.299 0.398 0.404
0.304 0.402 0.406
0.309 0.406 0.407
0.314 0.411 0.409
0.320 0.417 0.410
0.328 0.423 0.412
0.336 0.430 0.412
0.345 0.437 0.412
0.356 0.444 0.411
0.369 0.452 0.409
0.385 0.461 0.405
0.406 0.469 0.399
0.432 0.478 0.391
0.466 0.487 0.379
0.508 0.495 0.363
0.557 0.502 0.341
0.609 0.506 0.312
0.663 0.505 0.273
0.696 0.507 0.252
0.717 0.515 0.245
0.737 0.524 0.236
0.757 0.533 0.221
0.776 0.542 0.200
0.795 0.552 0.169
0.812 0.563 0.121
0.828 0.573 0.061
0.838 0.584 0.061
0.848 0.598 0.061
0.859 0.618 0.061
0.872 0.650 0.061
0.299 0.414 0.411
0.305 0.415 0.413
0.311 0.416 0.415
0.317 0.418 0.417
0.324 0.419 0.419
0.332 0.421 0.422
0.338 0.424 0.424
0.343 0.428 0.426
0.349 0.433 0.428
0.355 0.438 0.429
0.361 0.444 0.430
0.369 0.450 0.431
0.377 0.457 0.431
0.387 0.464 0.431
0.398 0.471 0.430
0.412 0.479 0.427
0.428 0.487 0.423
0.449 0.496 0.417
0.475 0.504 0.408
0.508 0.513 0.396
0.547 0.521 0.379
0.591 0.527 0.358
0.639 0.531 0.328
0.688 0.531 0.287
0.719 0.533 0.263
0.738 0.541 0.256
0.757 0.550 0.245
0.775 0.559 0.228
0.793 0.569 0.203
0.811 0.580 0.163
0.827 0.591 0.100
0.840 0.601 0.061
0.850 0.613 0.061
0.860 0.631 0.061
0.872 0.661 0.061
0.336 0.438 0.431
0.341 0.439 0.433
0.347 0.441 0.434
0.354 0.442 0.436
0.361 0.443 0.439
0.368 0.445 0.441
0.375 0.447 0.444
0.380 0.451 0.445
0.385 0.455 0.447
0.391 0.460 0.448
0.397 0.466 0.450
0.404 0.471 0.451
0.412 0.478 0.451
0.421 0.484 0.451
0.430 0.491 0.451
0.442 0.498 0.449
0.455 0.506 0.446
0.472 0.514 0.442
0.492 0.522 0.436
0.517 0.530 0.427
0.547 0.539 0.414
0.582 0.547 0.397
0.623 0.553 0.375
0.667 0.557 0.344
0.711 0.557 0.301
0.740 0.559 0.274
0.758 0.567 0.266
0.775 0.576 0.253
0.793 0.586 0.233
0.810 0.596 0.201
0.826 0.607 0.148
0.842 0.619 0.061
0.851 0.629 0.061
0.861 0.645 0.061
0.873 0.671 0.061
0.376 0.464 0.452
0.382 0.465 0.453
0.387 0.466 0.455
0.393 0.467 0.457
0.400 0.468 0.459
0.407 0.470 0.461
0.415 0.471 0.464
0.419 0.475 0.466
0.424 0.479 0.467
0.430 0.484 0.469
0.436 0.489 0.470
0.442 0.494 0.471
0.449 0.500 0.472
0.456 0.506 0.473
0.465 0.512 0.472
0.474 0.519 0.472
0.485 0.526 0.470
0.498 0.533 0.467
0.514 0.540 0.462
0.533 0.548 0.456
0.555 0.556 0.447
0.583 0.564 0.434
0.615 0.572 0.417
0.652 0.579 0.393
0.692 0.583 0.361
0.733 0.583 0.316
0.760 0.584 0.285
0.776 0.593 0.276
0.793 0.602 0.261
0.809 0.612 0.236
0.825 0.623 0.193
0.841 0.635 0.116
0.853 0.645 0.061
0.863 0.659 0.061
0.873 0.682 0.061
0.420 0.490 0.474
0.425 0.491 0.476
0.430 0.492 0.477
0.436 0.493 0.479
0.442 0.494 0.481
0.448 0.496 0.483
0.456 0.497 0.486
0.461 0.500 0.488
0.465 0.504 0.489
0.470 0.508 0.491
0.476 0.513 0.492
0.481 0.518 0.493
0.487 0.523 0.495
0.494 0.528 0.495
0.501 0.534 0.496
0.509 0.540 0.495
0.518 0.546 0.494
0.528 0.553 0.492
0.540 0.560 0.489
0.554 0.567 0.485
0.571 0.574 0.478
0.591 0.582 0.469
0.616 0.590 0.456
0.645 0.597 0.438
0.678 0.604 0.413
