FilterPlus/LUTs/Cinematic 07.cube
#Created by: Pixelmator Pro
#Color profile: "sRGB IEC61966-2.1"
TITLE "Cinematic 07"
#Data domain
#LUT size
LUT_3D_SIZE 5
DOMAIN_MIN 0.000000 0.000000 0.000000
DOMAIN_MAX 0.823529 0.823529 0.823529
0.076 0.076 0.076
0.101 0.077 0.076
0.235 0.083 0.076
0.407 0.098 0.084
0.622 0.131 0.098
0.092 0.118 0.076
0.138 0.116 0.076
0.270 0.120 0.083
0.446 0.136 0.092
0.640 0.181 0.109
0.140 0.243 0.087
0.199 0.244 0.090
0.324 0.241 0.087
0.497 0.256 0.101
0.671 0.288 0.116
0.241 0.442 0.104
0.315 0.441 0.106
0.426 0.455 0.111
0.563 0.453 0.101
0.696 0.487 0.138
0.466 0.665 0.146
0.528 0.664 0.149
0.595 0.669 0.167
0.657 0.675 0.184
0.734 0.675 0.177
0.076 0.083 0.136
0.150 0.078 0.143
0.283 0.085 0.134
0.439 0.103 0.135
0.632 0.143 0.149
0.098 0.137 0.137
0.142 0.142 0.142
0.275 0.148 0.141
0.448 0.165 0.147
0.643 0.211 0.168
0.133 0.280 0.158
0.201 0.281 0.151
0.336 0.274 0.146
0.508 0.280 0.162
0.673 0.323 0.191
0.225 0.477 0.179
0.309 0.475 0.175
0.432 0.482 0.181
0.569 0.477 0.167
0.699 0.505 0.220
0.454 0.676 0.244
0.518 0.676 0.244
0.599 0.676 0.256
0.659 0.683 0.277
0.736 0.682 0.268
0.087 0.108 0.282
0.166 0.103 0.302
0.330 0.101 0.305
0.510 0.103 0.306
0.661 0.142 0.306
0.114 0.187 0.255
0.167 0.182 0.281
0.332 0.174 0.312
0.517 0.179 0.314
0.665 0.233 0.317
0.168 0.314 0.306
0.224 0.319 0.310
0.340 0.340 0.329
0.519 0.356 0.333
0.676 0.396 0.348
0.234 0.515 0.372
0.301 0.523 0.365
0.441 0.531 0.353
0.584 0.529 0.343
0.706 0.539 0.380
0.436 0.694 0.426
0.503 0.694 0.422
0.596 0.694 0.419
0.664 0.697 0.434
0.740 0.696 0.424
0.106 0.149 0.446
0.185 0.144 0.469
0.380 0.133 0.493
0.549 0.134 0.500
0.695 0.137 0.515
0.133 0.253 0.441
0.204 0.248 0.465
0.380 0.234 0.498
0.559 0.227 0.512
0.702 0.230 0.526
0.207 0.395 0.448
0.266 0.401 0.452
0.381 0.402 0.487
0.567 0.400 0.526
0.706 0.428 0.536
0.310 0.551 0.519
0.371 0.555 0.523
0.471 0.565 0.532
0.586 0.586 0.551
0.709 0.606 0.559
0.464 0.708 0.593
0.515 0.710 0.591
0.591 0.714 0.587
0.668 0.717 0.582
0.746 0.717 0.579
0.145 0.255 0.619
0.234 0.248 0.631
0.423 0.240 0.645
0.608 0.218 0.660
0.723 0.218 0.673
0.178 0.369 0.623
0.266 0.366 0.634
0.438 0.357 0.650
0.613 0.338 0.666
0.728 0.336 0.679
0.260 0.525 0.628
0.335 0.526 0.637
0.469 0.524 0.653
0.618 0.515 0.672
0.734 0.514 0.686
0.394 0.633 0.643
0.452 0.636 0.644
0.537 0.640 0.650
0.626 0.640 0.668
0.737 0.642 0.692
0.572 0.727 0.688
0.601 0.729 0.689
0.643 0.731 0.691
0.686 0.735 0.696
0.747 0.747 0.708
