FilterPlus/LUTs/Cinematic 01.cube
#Created by: Pixelmator Pro
#Color profile: "sRGB IEC61966-2.1"
TITLE "Cinematic 01"
#Data domain
#LUT size
LUT_3D_SIZE 7
DOMAIN_MIN 0.000000 0.000000 0.000000
DOMAIN_MAX 0.882353 0.882353 0.882353
0.031 0.038 0.058
0.078 0.045 0.058
0.185 0.064 0.058
0.324 0.086 0.058
0.486 0.112 0.058
0.635 0.144 0.058
0.747 0.205 0.058
0.033 0.094 0.081
0.124 0.088 0.058
0.208 0.101 0.058
0.336 0.123 0.058
0.501 0.145 0.058
0.644 0.176 0.058
0.750 0.236 0.058
0.062 0.179 0.130
0.111 0.190 0.105
0.278 0.162 0.058
0.407 0.170 0.058
0.521 0.197 0.058
0.648 0.231 0.058
0.754 0.291 0.058
0.099 0.294 0.183
0.140 0.298 0.174
0.229 0.331 0.090
0.480 0.253 0.058
0.601 0.262 0.058
0.679 0.300 0.058
0.757 0.372 0.058
0.141 0.439 0.242
0.183 0.434 0.241
0.239 0.473 0.186
0.417 0.487 0.058
0.638 0.372 0.058
0.717 0.385 0.058
0.770 0.461 0.058
0.196 0.604 0.327
0.249 0.591 0.338
0.290 0.615 0.300
0.386 0.641 0.223
0.580 0.651 0.073
0.731 0.542 0.058
0.788 0.565 0.058
0.299 0.753 0.496
0.354 0.749 0.504
0.427 0.746 0.511
0.478 0.756 0.469
0.560 0.767 0.385
0.686 0.775 0.215
0.795 0.726 0.058
0.031 0.048 0.099
0.094 0.042 0.141
0.205 0.061 0.120
0.442 0.051 0.088
0.600 0.075 0.058
0.688 0.123 0.058
0.762 0.193 0.058
0.031 0.114 0.152
0.093 0.100 0.126
0.264 0.113 0.112
0.485 0.111 0.061
0.602 0.134 0.058
0.691 0.165 0.058
0.765 0.226 0.058
0.031 0.208 0.169
0.116 0.180 0.164
0.280 0.169 0.100
0.399 0.185 0.106
0.570 0.203 0.066
0.689 0.230 0.058
0.767 0.287 0.058
0.071 0.329 0.206
0.146 0.295 0.212
0.214 0.323 0.168
0.518 0.263 0.058
0.614 0.277 0.084
0.697 0.313 0.058
0.769 0.376 0.058
0.123 0.466 0.261
0.185 0.439 0.269
0.242 0.459 0.242
0.393 0.491 0.140
0.657 0.387 0.058
0.730 0.403 0.058
0.777 0.475 0.058
0.180 0.620 0.344
0.238 0.605 0.354
0.303 0.605 0.347
0.383 0.635 0.278
0.563 0.651 0.154
0.739 0.558 0.058
0.793 0.581 0.058
0.283 0.757 0.510
0.341 0.754 0.517
0.429 0.747 0.529
0.488 0.753 0.507
0.561 0.765 0.436
0.680 0.775 0.273
0.798 0.733 0.058
0.031 0.078 0.195
0.055 0.071 0.266
0.191 0.069 0.248
0.330 0.099 0.212
0.552 0.106 0.197
0.725 0.089 0.142
0.788 0.140 0.058
0.031 0.133 0.254
0.085 0.131 0.263
0.186 0.127 0.230
0.327 0.151 0.212
0.587 0.148 0.197
0.737 0.135 0.123
0.788 0.191 0.058
0.031 0.227 0.270
0.038 0.239 0.283
0.188 0.194 0.213
0.416 0.217 0.205
0.626 0.224 0.169
0.741 0.221 0.094
0.788 0.269 0.058
0.031 0.360 0.280
0.081 0.367 0.265
0.217 0.299 0.256
0.452 0.283 0.186
0.563 0.312 0.191
0.691 0.344 0.156
0.788 0.376 0.058
0.051 0.522 0.308
0.150 0.488 0.305
0.257 0.439 0.312
0.356 0.482 0.246
0.652 0.408 0.148
0.712 0.437 0.176
0.778 0.504 0.126
0.137 0.647 0.381
0.207 0.632 0.385
0.309 0.608 0.397
0.386 0.623 0.366
0.536 0.649 0.256
0.747 0.583 0.101
0.790 0.603 0.158
0.246 0.765 0.533
0.311 0.761 0.538
0.410 0.755 0.547
0.509 0.749 0.556
0.566 0.761 0.509
0.672 0.774 0.368
0.803 0.745 0.058
0.031 0.111 0.303
0.031 0.102 0.400
0.131 0.117 0.402
0.325 0.102 0.381
0.500 0.131 0.332
0.668 0.166 0.298
0.794 0.138 0.213
0.031 0.158 0.365
0.045 0.154 0.437
0.159 0.167 0.388
0.322 0.157 0.363
0.486 0.187 0.322
0.681 0.205 0.305
0.796 0.179 0.204
0.031 0.249 0.410
0.060 0.254 0.453
0.187 0.237 0.369
0.310 0.227 0.330
0.478 0.264 0.315
0.706 0.272 0.302
0.801 0.254 0.175
0.031 0.376 0.409
0.031 0.398 0.429
0.144 0.382 0.398
0.327 0.323 0.313
0.564 0.357 0.306
0.722 0.380 0.270
0.800 0.387 0.162
0.031 0.518 0.411
0.031 0.550 0.411
0.184 0.519 0.379
0.349 0.455 0.368
0.596 0.437 0.285
0.681 0.478 0.294
0.783 0.531 0.228
0.031 0.678 0.457
0.116 0.674 0.452
0.256 0.647 0.445
0.402 0.612 0.453
0.505 0.641 0.389
0.732 0.599 0.244
0.783 0.629 0.277
0.173 0.776 0.569
0.247 0.772 0.570
0.366 0.765 0.573
0.496 0.756 0.581
0.580 0.755 0.578
0.662 0.771 0.491
0.801 0.753 0.183
0.031 0.147 0.431
0.031 0.143 0.510
0.098 0.140 0.568
0.245 0.154 0.548
0.488 0.138 0.526
0.651 0.180 0.466
0.774 0.235 0.410
0.031 0.190 0.488
0.031 0.187 0.554
0.129 0.195 0.564
0.255 0.213 0.534
0.486 0.192 0.512
0.645 0.236 0.457
0.777 0.277 0.417
0.031 0.276 0.541
0.031 0.281 0.589
0.165 0.284 0.559
0.282 0.291 0.508
0.477 0.272 0.485
0.630 0.326 0.441
0.783 0.348 0.421
0.031 0.405 0.555
0.031 0.423 0.590
0.175 0.410 0.568
0.314 0.374 0.482
0.460 0.365 0.451
0.638 0.420 0.446
0.791 0.445 0.408
0.031 0.533 0.544
0.031 0.553 0.560
0.042 0.588 0.586
0.258 0.537 0.523
0.478 0.483 0.442
0.685 0.524 0.436
0.794 0.563 0.370
0.031 0.657 0.547
0.031 0.674 0.552
0.039 0.708 0.563
0.310 0.667 0.522
0.509 0.623 0.517
0.705 0.616 0.407
0.772 0.656 0.418
0.031 0.787 0.615
0.113 0.786 0.615
0.258 0.780 0.612
0.438 0.770 0.610
0.582 0.759 0.615
0.657 0.766 0.592
0.795 0.759 0.347
0.031 0.197 0.570
0.031 0.194 0.611
0.031 0.176 0.670
0.181 0.203 0.661
0.382 0.210 0.653
0.642 0.190 0.638
0.758 0.297 0.585
0.031 0.238 0.601
0.031 0.237 0.634
0.064 0.231 0.671
0.211 0.258 0.659
0.393 0.270 0.648
0.640 0.246 0.633
0.756 0.355 0.583
0.031 0.318 0.632
0.031 0.323 0.657
0.109 0.330 0.671
0.255 0.347 0.654
0.401 0.366 0.636
0.635 0.334 0.624
0.752 0.444 0.579
0.031 0.440 0.653
0.031 0.453 0.671
0.139 0.459 0.672
0.296 0.456 0.651
0.432 0.456 0.622
0.624 0.436 0.608
0.752 0.533 0.582
0.031 0.567 0.653
0.031 0.584 0.667
0.109 0.598 0.677
0.301 0.577 0.658
0.464 0.545 0.614
0.614 0.535 0.591
0.763 0.606 0.595
0.031 0.670 0.645
0.031 0.681 0.652
0.031 0.700 0.665
0.118 0.716 0.673
0.376 0.689 0.644
0.628 0.648 0.588
0.780 0.688 0.581
0.031 0.773 0.656
0.031 0.779 0.659
0.031 0.791 0.665
0.189 0.794 0.665
0.481 0.781 0.653
0.664 0.763 0.651
0.784 0.766 0.557
0.031 0.296 0.678
0.031 0.296 0.690
0.031 0.291 0.707
0.068 0.277 0.723
0.246 0.317 0.720
0.482 0.368 0.716
0.754 0.314 0.711
0.031 0.335 0.687
0.031 0.337 0.697
0.031 0.334 0.712
0.098 0.336 0.723
0.274 0.373 0.720
0.492 0.427 0.715
0.754 0.371 0.711
0.031 0.406 0.697
0.031 0.411 0.706
0.031 0.416 0.718
0.138 0.431 0.723
0.318 0.460 0.719
0.526 0.502 0.714
0.753 0.458 0.709
0.031 0.506 0.707
0.031 0.515 0.713
0.031 0.530 0.723
0.181 0.543 0.723
0.371 0.558 0.719
0.563 0.580 0.712
0.751 0.553 0.706
0.031 0.612 0.713
0.031 0.622 0.718
0.031 0.641 0.727
0.213 0.644 0.724
0.417 0.645 0.719
0.595 0.648 0.710
0.747 0.633 0.702
0.031 0.704 0.715
0.031 0.712 0.719
0.031 0.728 0.726
0.190 0.731 0.726
0.430 0.724 0.721
0.621 0.711 0.709
0.743 0.702 0.696
0.031 0.777 0.712
0.031 0.781 0.713
0.031 0.787 0.717
0.031 0.796 0.722
0.059 0.807 0.728
0.461 0.799 0.720
0.748 0.777 0.696
