FilterPlus/LUTs/Cinematic 07.cube
#Created by: Pixelmator Pro
#Color profile: "sRGB IEC61966-2.1"
TITLE "Cinematic 07"
#Data domain
#LUT size
LUT_3D_SIZE 7
DOMAIN_MIN 0.000000 0.000000 0.000000
DOMAIN_MAX 0.882353 0.882353 0.882353
0.076 0.076 0.076
0.076 0.076 0.076
0.147 0.079 0.076
0.258 0.084 0.077
0.380 0.095 0.082
0.528 0.112 0.090
0.682 0.155 0.106
0.084 0.097 0.076
0.109 0.098 0.076
0.178 0.100 0.077
0.282 0.106 0.082
0.404 0.118 0.089
0.548 0.139 0.098
0.691 0.190 0.114
0.108 0.160 0.079
0.139 0.160 0.081
0.203 0.156 0.079
0.312 0.161 0.087
0.441 0.170 0.094
0.578 0.191 0.104
0.704 0.254 0.125
0.150 0.267 0.089
0.191 0.266 0.091
0.256 0.272 0.093
0.358 0.267 0.089
0.479 0.276 0.099
0.605 0.296 0.111
0.723 0.344 0.131
0.221 0.410 0.101
0.272 0.406 0.101
0.337 0.416 0.106
0.427 0.423 0.106
0.530 0.419 0.099
0.633 0.435 0.115
0.736 0.478 0.156
0.345 0.577 0.118
0.395 0.575 0.118
0.458 0.579 0.123
0.528 0.588 0.127
0.599 0.593 0.130
0.668 0.592 0.124
0.752 0.613 0.194
0.568 0.721 0.200
0.594 0.720 0.202
0.628 0.719 0.207
0.656 0.722 0.226
0.686 0.726 0.245
0.723 0.730 0.259
0.782 0.729 0.248
0.076 0.079 0.102
0.117 0.076 0.114
0.192 0.077 0.109
0.283 0.087 0.108
0.398 0.100 0.112
0.538 0.120 0.119
0.684 0.171 0.138
0.086 0.111 0.111
0.113 0.113 0.113
0.181 0.115 0.112
0.283 0.122 0.114
0.406 0.133 0.119
0.550 0.154 0.129
0.692 0.208 0.149
0.104 0.181 0.121
0.140 0.181 0.117
0.211 0.176 0.113
0.321 0.175 0.120
0.449 0.183 0.127
0.580 0.211 0.141
0.706 0.275 0.167
0.142 0.295 0.129
0.188 0.291 0.126
0.261 0.294 0.129
0.364 0.287 0.123
0.486 0.293 0.135
0.610 0.309 0.149
0.723 0.365 0.181
0.211 0.434 0.143
0.264 0.432 0.141
0.341 0.433 0.144
0.431 0.441 0.147
0.535 0.435 0.136
0.636 0.449 0.158
0.738 0.488 0.207
0.334 0.591 0.167
0.386 0.590 0.165
0.461 0.589 0.166
0.531 0.597 0.176
0.602 0.603 0.182
0.670 0.600 0.173
0.753 0.619 0.251
0.563 0.726 0.264
0.590 0.725 0.265
0.626 0.724 0.268
0.658 0.726 0.283
0.687 0.729 0.302
0.724 0.733 0.317
0.782 0.732 0.305
0.078 0.091 0.196
0.127 0.088 0.207
0.215 0.087 0.203
0.334 0.088 0.198
0.446 0.099 0.192
0.569 0.120 0.195
0.696 0.173 0.215
0.096 0.136 0.171
0.124 0.132 0.186
0.210 0.127 0.202
0.335 0.129 0.201
0.445 0.142 0.196
0.572 0.167 0.202
0.699 0.231 0.224
0.121 0.198 0.196
0.150 0.200 0.199
0.210 0.210 0.208
0.327 0.217 0.209
0.450 0.228 0.211
0.582 0.252 0.221
0.708 0.312 0.248
0.148 0.320 0.233
0.184 0.327 0.227
0.266 0.332 0.219
0.378 0.328 0.211
0.500 0.326 0.222
0.617 0.337 0.234
0.724 0.403 0.277
0.204 0.465 0.249
0.251 0.469 0.242
0.341 0.468 0.235
0.440 0.473 0.240
0.544 0.466 0.225
0.642 0.474 0.250
0.741 0.505 0.297
0.318 0.611 0.274
0.371 0.611 0.270
0.453 0.610 0.265
0.538 0.612 0.274
0.606 0.618 0.284
0.673 0.614 0.271
0.756 0.629 0.343
0.555 0.733 0.368
0.583 0.733 0.367
0.621 0.733 0.367
0.660 0.731 0.370
0.689 0.735 0.390
0.726 0.739 0.404
0.784 0.737 0.392
0.089 0.112 0.305
0.135 0.109 0.321
0.243 0.104 0.334
0.361 0.104 0.332
0.489 0.106 0.334
0.606 0.117 0.333
0.712 0.171 0.343
0.106 0.166 0.289
0.142 0.162 0.307
0.236 0.154 0.331
0.365 0.150 0.339
0.497 0.150 0.342
0.609 0.168 0.338
0.714 0.232 0.350
0.138 0.242 0.286
0.168 0.244 0.288
0.231 0.243 0.314
0.364 0.241 0.343
0.505 0.245 0.351
0.611 0.273 0.347
0.718 0.339 0.364
0.183 0.347 0.335
0.220 0.350 0.338
0.283 0.357 0.345
0.375 0.375 0.361
0.505 0.388 0.365
0.619 0.405 0.369
0.725 0.457 0.395
0.231 0.488 0.395
0.269 0.494 0.392
0.338 0.504 0.387
0.446 0.513 0.378
0.557 0.512 0.371
0.651 0.512 0.385
0.742 0.545 0.423
0.319 0.628 0.425
0.364 0.631 0.420
0.441 0.634 0.412
0.539 0.634 0.408
0.613 0.638 0.417
0.678 0.634 0.404
0.759 0.642 0.454
0.545 0.743 0.488
0.574 0.743 0.487
0.614 0.743 0.485
0.655 0.742 0.483
0.692 0.742 0.490
0.728 0.747 0.504
0.786 0.745 0.492
0.103 0.141 0.421
0.148 0.138 0.439
0.254 0.133 0.455
0.402 0.126 0.469
0.519 0.128 0.472
0.630 0.130 0.480
0.732 0.163 0.488
0.119 0.206 0.417
0.161 0.202 0.434
0.258 0.194 0.456
0.409 0.182 0.476
0.526 0.182 0.481
0.636 0.183 0.489
0.734 0.229 0.494
0.154 0.304 0.408
0.192 0.302 0.421
0.267 0.298 0.445
0.400 0.288 0.476
0.533 0.285 0.490
0.644 0.286 0.501
0.737 0.346 0.503
0.214 0.401 0.433
0.252 0.404 0.435
0.313 0.410 0.440
0.401 0.414 0.469
0.538 0.416 0.500
0.650 0.428 0.510
0.738 0.486 0.517
0.284 0.518 0.489
0.323 0.521 0.491
0.386 0.526 0.496
0.466 0.536 0.505
0.554 0.554 0.522
0.653 0.569 0.528
0.743 0.594 0.540
0.365 0.641 0.554
0.403 0.643 0.553
0.462 0.648 0.551
0.537 0.654 0.548
0.617 0.658 0.544
0.685 0.659 0.540
0.764 0.660 0.558
0.548 0.751 0.591
0.574 0.752 0.590
0.610 0.754 0.586
0.651 0.754 0.584
0.691 0.754 0.582
0.732 0.756 0.589
0.789 0.755 0.581
0.123 0.194 0.547
0.172 0.190 0.560
0.280 0.185 0.572
0.427 0.176 0.585
0.564 0.166 0.596
0.653 0.170 0.602
0.752 0.171 0.615
0.141 0.267 0.549
0.190 0.265 0.560
0.291 0.258 0.576
0.433 0.248 0.589
0.571 0.234 0.602
0.658 0.236 0.607
0.755 0.241 0.620
0.179 0.376 0.550
0.226 0.375 0.560
0.313 0.371 0.575
0.439 0.363 0.592
0.577 0.349 0.608
0.664 0.348 0.615
0.760 0.361 0.626
0.248 0.486 0.551
0.289 0.488 0.557
0.357 0.488 0.570
0.452 0.486 0.589
0.573 0.480 0.609
0.670 0.480 0.623
0.763 0.499 0.631
0.335 0.573 0.579
0.373 0.576 0.581
0.432 0.580 0.584
0.502 0.587 0.588
0.579 0.591 0.608
0.672 0.594 0.629
0.762 0.614 0.635
0.445 0.660 0.621
0.478 0.661 0.622
0.527 0.663 0.624
0.581 0.667 0.627
0.630 0.672 0.633
0.683 0.683 0.643
0.765 0.694 0.648
0.579 0.760 0.670
0.598 0.761 0.669
0.625 0.763 0.668
0.655 0.765 0.667
0.689 0.768 0.665
0.734 0.770 0.662
0.793 0.770 0.660
0.171 0.322 0.671
0.231 0.319 0.677
0.339 0.312 0.686
0.478 0.307 0.694
0.601 0.294 0.705
0.695 0.267 0.717
0.773 0.299 0.725
0.194 0.394 0.674
0.253 0.393 0.680
0.356 0.387 0.689
0.488 0.382 0.698
0.606 0.371 0.708
0.697 0.347 0.721
0.775 0.374 0.727
0.238 0.495 0.678
0.294 0.495 0.684
0.388 0.494 0.692
0.505 0.488 0.703
0.613 0.481 0.714
0.699 0.468 0.725
0.778 0.481 0.731
0.306 0.591 0.683
0.356 0.591 0.688
0.436 0.592 0.695
0.533 0.591 0.705
0.621 0.587 0.715
0.700 0.580 0.727
0.780 0.583 0.735
0.408 0.656 0.686
0.446 0.657 0.689
0.505 0.657 0.695
0.571 0.657 0.702
0.633 0.656 0.712
0.699 0.654 0.726
0.782 0.655 0.739
0.531 0.705 0.700
0.556 0.706 0.701
0.591 0.708 0.702
0.626 0.710 0.704
0.660 0.712 0.709
0.704 0.713 0.723
0.784 0.715 0.743
0.648 0.775 0.738
0.659 0.776 0.738
0.676 0.777 0.739
0.696 0.778 0.741
0.718 0.780 0.742
0.746 0.783 0.746
0.792 0.792 0.756
