FilterPlus/LUTs/Cinematic 07.cube
#Created by: Pixelmator Pro
#Color profile: "sRGB IEC61966-2.1"
TITLE "Cinematic 07"
#Data domain
DOMAIN_MIN 0.000 0.000 0.000
DOMAIN_MAX 1.000 1.000 1.000
#LUT size
LUT_3D_SIZE 35
0.076 0.076 0.076
0.076 0.076 0.076
0.076 0.076 0.076
0.076 0.076 0.076
0.076 0.076 0.076
0.076 0.076 0.076
0.088 0.076 0.076
0.101 0.077 0.076
0.114 0.078 0.076
0.130 0.078 0.076
0.147 0.079 0.076
0.166 0.080 0.076
0.188 0.081 0.076
0.211 0.082 0.076
0.235 0.083 0.076
0.258 0.084 0.077
0.280 0.086 0.078
0.304 0.088 0.079
0.328 0.090 0.080
0.353 0.093 0.081
0.380 0.095 0.082
0.407 0.098 0.084
0.436 0.101 0.085
0.466 0.104 0.087
0.497 0.108 0.088
0.528 0.112 0.090
0.560 0.117 0.093
0.592 0.124 0.095
0.622 0.131 0.098
0.652 0.141 0.101
0.682 0.155 0.106
0.715 0.174 0.111
0.753 0.204 0.119
0.794 0.266 0.143
0.836 0.383 0.210
0.076 0.076 0.076
0.076 0.076 0.076
0.076 0.076 0.076
0.076 0.076 0.076
0.078 0.076 0.076
0.087 0.077 0.076
0.098 0.078 0.076
0.109 0.079 0.076
0.123 0.080 0.076
0.138 0.081 0.076
0.155 0.082 0.076
0.175 0.083 0.076
0.196 0.084 0.076
0.219 0.084 0.076
0.240 0.086 0.077
0.262 0.088 0.078
0.284 0.090 0.079
0.308 0.092 0.080
0.332 0.094 0.081
0.357 0.096 0.082
0.384 0.099 0.084
0.411 0.102 0.085
0.440 0.105 0.086
0.469 0.108 0.088
0.500 0.112 0.090
0.532 0.116 0.092
0.563 0.122 0.094
0.594 0.128 0.096
0.624 0.136 0.099
0.653 0.146 0.103
0.684 0.160 0.107
0.716 0.180 0.113
0.754 0.211 0.120
0.795 0.274 0.146
0.836 0.390 0.213
0.076 0.076 0.076
0.076 0.076 0.076
0.076 0.076 0.076
0.080 0.078 0.076
0.087 0.079 0.076
0.095 0.080 0.076
0.104 0.081 0.076
0.116 0.082 0.076
0.129 0.083 0.076
0.145 0.084 0.076
0.162 0.085 0.076
0.182 0.086 0.076
0.204 0.087 0.076
0.224 0.088 0.077
0.244 0.090 0.078
0.266 0.092 0.079
0.288 0.094 0.080
0.312 0.096 0.081
0.336 0.098 0.082
0.362 0.101 0.084
0.388 0.103 0.085
0.415 0.106 0.086
0.444 0.109 0.088
0.473 0.112 0.089
0.504 0.116 0.091
0.535 0.121 0.093
0.566 0.126 0.095
0.597 0.133 0.098
0.626 0.141 0.101
0.655 0.152 0.104
0.685 0.166 0.109
0.718 0.187 0.114
0.755 0.218 0.122
0.795 0.282 0.149
0.836 0.398 0.217
0.077 0.080 0.076
0.080 0.082 0.076
0.083 0.083 0.076
0.086 0.083 0.076
0.092 0.084 0.076
0.100 0.085 0.076
0.110 0.086 0.076
0.121 0.086 0.076
0.134 0.087 0.076
0.150 0.087 0.076
0.169 0.088 0.076
0.189 0.089 0.076
0.208 0.091 0.077
0.228 0.093 0.078
0.249 0.094 0.079
0.271 0.096 0.080
0.293 0.098 0.081
0.317 0.100 0.082
0.341 0.102 0.084
0.367 0.105 0.085
0.393 0.108 0.086
0.420 0.110 0.088
0.448 0.114 0.089
0.478 0.117 0.091
0.508 0.121 0.093
0.539 0.126 0.094
0.570 0.132 0.097
0.600 0.139 0.099
0.629 0.147 0.102
0.657 0.158 0.106
0.687 0.173 0.110
0.719 0.194 0.116
0.756 0.226 0.124
0.796 0.291 0.152
0.837 0.406 0.221
0.081 0.089 0.076
0.084 0.089 0.076
0.088 0.090 0.076
0.092 0.090 0.076
0.097 0.090 0.076
0.104 0.090 0.076
0.114 0.091 0.076
0.125 0.092 0.076
0.139 0.092 0.076
0.155 0.093 0.076
0.174 0.093 0.076
0.194 0.094 0.076
0.213 0.095 0.078
0.233 0.097 0.079
0.254 0.099 0.080
0.276 0.101 0.081
0.299 0.103 0.082
0.323 0.105 0.084
0.347 0.107 0.085
0.372 0.110 0.086
0.398 0.113 0.088
0.425 0.116 0.089
0.454 0.119 0.091
0.483 0.123 0.092
0.513 0.127 0.094
0.543 0.132 0.096
0.573 0.138 0.098
0.603 0.145 0.101
0.631 0.154 0.104
0.659 0.166 0.108
0.689 0.181 0.112
0.721 0.203 0.118
0.758 0.235 0.126
0.797 0.301 0.156
0.837 0.414 0.225
0.084 0.097 0.076
0.088 0.097 0.076
0.092 0.098 0.076
0.097 0.099 0.076
0.103 0.098 0.076
0.109 0.098 0.076
0.118 0.098 0.076
0.129 0.098 0.076
0.143 0.099 0.076
0.160 0.099 0.076
0.178 0.100 0.077
0.197 0.100 0.077
0.218 0.101 0.078
0.239 0.102 0.079
0.261 0.104 0.080
0.282 0.106 0.082
0.305 0.108 0.083
0.329 0.111 0.085
0.353 0.113 0.086
0.378 0.116 0.087
0.404 0.118 0.089
0.431 0.121 0.090
0.459 0.125 0.092
0.488 0.129 0.094
0.518 0.133 0.095
0.548 0.139 0.098
0.577 0.145 0.100
0.606 0.152 0.103
0.634 0.162 0.106
0.662 0.174 0.109
0.691 0.190 0.114
0.722 0.212 0.120
0.759 0.245 0.128
0.798 0.312 0.160
0.837 0.424 0.230
0.088 0.107 0.076
0.093 0.106 0.076
0.097 0.107 0.076
0.102 0.108 0.076
0.108 0.108 0.076
0.114 0.107 0.076
0.122 0.106 0.076
0.133 0.106 0.076
0.147 0.107 0.076
0.164 0.107 0.076
0.181 0.108 0.078
0.200 0.108 0.078
0.221 0.109 0.079
0.243 0.110 0.080
0.266 0.111 0.081
0.290 0.112 0.082
0.313 0.114 0.084
0.336 0.117 0.085
0.360 0.119 0.087
0.385 0.122 0.088
0.411 0.125 0.090
0.438 0.128 0.091
0.466 0.132 0.093
0.494 0.136 0.095
0.523 0.141 0.097
0.553 0.146 0.099
0.582 0.153 0.102
0.610 0.161 0.104
0.637 0.171 0.107
0.664 0.183 0.111
0.693 0.200 0.116
0.724 0.223 0.122
0.760 0.257 0.132
0.799 0.324 0.164
0.838 0.434 0.235
0.092 0.118 0.076
0.097 0.117 0.076
0.102 0.118 0.076
0.107 0.118 0.076
0.113 0.119 0.076
0.120 0.118 0.076
0.128 0.117 0.076
0.138 0.116 0.076
0.151 0.115 0.076
0.168 0.116 0.077
0.185 0.117 0.078
0.204 0.118 0.079
0.225 0.119 0.081
0.247 0.120 0.082
0.270 0.120 0.083
0.294 0.121 0.083
0.319 0.122 0.084
0.344 0.124 0.085
0.369 0.126 0.087
0.393 0.129 0.089
0.419 0.133 0.091
0.446 0.136 0.092
0.473 0.140 0.094
0.501 0.145 0.096
0.530 0.149 0.098
0.558 0.155 0.101
0.587 0.162 0.103
0.614 0.171 0.106
0.640 0.181 0.109
0.667 0.194 0.113
0.695 0.211 0.118
0.727 0.235 0.124
0.762 0.271 0.135
0.800 0.338 0.169
0.838 0.445 0.240
0.096 0.131 0.076
0.102 0.129 0.076
0.107 0.130 0.076
0.112 0.130 0.077
0.118 0.131 0.077
0.125 0.131 0.077
0.134 0.130 0.077
0.145 0.129 0.077
0.157 0.127 0.076
0.173 0.126 0.077
0.190 0.128 0.078
0.209 0.129 0.080
0.230 0.130 0.081
0.252 0.131 0.083
0.275 0.132 0.084
0.299 0.133 0.085
0.324 0.134 0.086
0.349 0.135 0.087
0.376 0.136 0.088
0.402 0.138 0.089
0.428 0.141 0.091
0.454 0.145 0.093
0.481 0.149 0.095
0.509 0.154 0.097
0.537 0.160 0.100
0.565 0.166 0.102
0.592 0.173 0.105
0.618 0.182 0.108
0.644 0.193 0.111
0.670 0.206 0.115
0.698 0.224 0.121
0.729 0.248 0.127
0.764 0.286 0.140
0.801 0.352 0.174
0.839 0.458 0.246
0.102 0.145 0.077
0.108 0.143 0.077
0.113 0.143 0.078
0.118 0.143 0.078
0.124 0.144 0.079
0.132 0.144 0.079
0.140 0.144 0.079
0.151 0.144 0.079
0.164 0.143 0.078
0.179 0.141 0.078
0.196 0.139 0.078
0.215 0.141 0.080
0.236 0.142 0.082
0.258 0.143 0.084
0.281 0.145 0.085
0.305 0.146 0.086
0.329 0.147 0.087
0.355 0.149 0.089
0.381 0.150 0.090
0.408 0.152 0.091
0.435 0.153 0.092
0.463 0.155 0.093
0.490 0.160 0.095
0.517 0.165 0.098
0.544 0.171 0.100
0.571 0.178 0.103
0.598 0.186 0.106
0.623 0.195 0.109
0.648 0.206 0.113
0.674 0.220 0.118
0.701 0.238 0.123
0.732 0.263 0.130
0.765 0.302 0.145
0.802 0.368 0.180
0.839 0.471 0.253
0.108 0.160 0.079
0.114 0.159 0.079
0.120 0.158 0.079
0.125 0.159 0.080
0.132 0.159 0.080
0.139 0.160 0.081
0.148 0.161 0.081
0.158 0.160 0.081
0.171 0.160 0.081
0.186 0.158 0.080
0.203 0.156 0.079
0.222 0.155 0.079
0.243 0.156 0.082
0.265 0.158 0.084
0.288 0.160 0.086
0.312 0.161 0.087
0.336 0.163 0.089
0.361 0.164 0.090
0.387 0.166 0.091
0.414 0.168 0.093
0.441 0.170 0.094
0.469 0.172 0.095
0.498 0.174 0.096
0.526 0.177 0.098
0.552 0.184 0.101
0.578 0.191 0.104
0.604 0.199 0.107
0.628 0.209 0.111
0.652 0.221 0.115
0.678 0.235 0.119
0.704 0.254 0.125
0.734 0.279 0.132
0.767 0.320 0.150
0.803 0.384 0.187
0.840 0.484 0.260
0.115 0.178 0.081
0.121 0.177 0.081
0.128 0.175 0.081
0.133 0.176 0.082
0.140 0.177 0.082
0.147 0.178 0.083
0.156 0.179 0.083
0.167 0.179 0.083
0.180 0.179 0.083
0.195 0.178 0.083
0.212 0.177 0.082
0.231 0.174 0.081
0.251 0.172 0.081
0.273 0.174 0.083
0.296 0.176 0.086
0.319 0.178 0.088
0.344 0.180 0.090
0.369 0.182 0.091
0.394 0.184 0.093
0.420 0.186 0.094
0.448 0.188 0.096
0.475 0.190 0.097
0.503 0.193 0.098
0.532 0.196 0.100
0.560 0.199 0.101
0.585 0.205 0.104
0.610 0.214 0.108
0.633 0.224 0.112
0.657 0.236 0.116
0.681 0.252 0.121
0.708 0.271 0.127
0.737 0.296 0.135
0.769 0.338 0.155
0.804 0.401 0.193
0.841 0.498 0.268
0.122 0.198 0.083
0.129 0.197 0.083
0.136 0.195 0.083
0.142 0.195 0.083
0.149 0.197 0.084
0.156 0.198 0.085
0.166 0.199 0.085
0.177 0.199 0.086
0.190 0.200 0.086
0.205 0.200 0.086
0.221 0.199 0.085
0.240 0.197 0.084
0.260 0.195 0.083
0.282 0.192 0.082
0.304 0.194 0.085
0.328 0.197 0.088
0.352 0.199 0.090
0.377 0.201 0.092
0.402 0.203 0.094
0.428 0.206 0.095
0.455 0.208 0.097
0.482 0.211 0.099
0.509 0.214 0.100
0.537 0.217 0.102
0.565 0.220 0.103
0.591 0.224 0.105
0.616 0.230 0.107
0.639 0.240 0.112
0.662 0.253 0.117
0.685 0.268 0.122
0.711 0.288 0.129
0.740 0.314 0.138
0.771 0.357 0.161
0.806 0.418 0.200
0.841 0.511 0.275
0.131 0.220 0.085
0.137 0.218 0.085
0.145 0.217 0.085
0.152 0.217 0.085
0.159 0.218 0.086
0.167 0.219 0.087
0.176 0.220 0.087
0.187 0.221 0.088
0.200 0.222 0.088
0.215 0.222 0.088
0.232 0.222 0.088
0.250 0.221 0.087
0.270 0.219 0.086
0.291 0.217 0.085
0.314 0.214 0.084
0.337 0.217 0.087
0.361 0.219 0.090
0.385 0.222 0.092
0.410 0.224 0.094
0.436 0.227 0.096
0.462 0.230 0.098
0.489 0.233 0.100
0.516 0.236 0.102
0.543 0.239 0.104
0.570 0.243 0.105
0.596 0.247 0.107
0.620 0.251 0.109
0.644 0.257 0.111
0.666 0.270 0.117
0.690 0.286 0.123
0.715 0.306 0.130
0.743 0.334 0.142
0.773 0.376 0.166
0.807 0.435 0.207
0.842 0.525 0.283
0.140 0.243 0.087
0.147 0.242 0.087
0.154 0.240 0.087
0.163 0.239 0.087
0.170 0.240 0.088
0.178 0.242 0.089
0.188 0.243 0.089
0.199 0.244 0.090
0.212 0.246 0.090
0.227 0.246 0.090
0.244 0.247 0.090
0.262 0.246 0.090
0.282 0.245 0.089
0.302 0.244 0.088
0.324 0.241 0.087
0.347 0.238 0.086
0.371 0.241 0.089
0.395 0.244 0.092
0.419 0.246 0.094
0.445 0.250 0.097
0.470 0.253 0.099
0.497 0.256 0.101
0.523 0.259 0.103
0.549 0.263 0.105
0.575 0.267 0.107
0.600 0.271 0.109
0.624 0.276 0.112
0.648 0.281 0.114
0.671 0.288 0.116
0.694 0.304 0.123
0.719 0.325 0.131
0.746 0.354 0.146
0.775 0.395 0.171
0.808 0.452 0.214
0.843 0.538 0.291
0.150 0.267 0.089
0.157 0.266 0.089
0.165 0.265 0.089
0.174 0.264 0.089
0.182 0.264 0.090
0.191 0.266 0.091
0.201 0.267 0.091
0.212 0.269 0.092
0.225 0.270 0.093
0.240 0.272 0.093
0.256 0.272 0.093
0.274 0.273 0.093
0.294 0.272 0.092
0.314 0.271 0.091
0.335 0.269 0.090
0.358 0.267 0.089
0.381 0.264 0.088
0.405 0.266 0.090
0.429 0.270 0.094
0.454 0.273 0.096
0.479 0.276 0.099
0.505 0.280 0.102
0.530 0.283 0.104
0.556 0.287 0.107
0.581 0.292 0.109
0.605 0.296 0.111
0.628 0.301 0.114
0.651 0.307 0.116
0.674 0.314 0.119
0.698 0.324 0.122
0.723 0.344 0.131
0.748 0.374 0.149
0.778 0.415 0.176
0.810 0.470 0.220
0.844 0.551 0.298
0.161 0.294 0.091
0.169 0.293 0.091
0.177 0.291 0.091
0.187 0.290 0.091
0.196 0.290 0.092
0.204 0.291 0.093
0.214 0.293 0.093
0.226 0.295 0.094
0.239 0.296 0.095
0.254 0.298 0.095
0.270 0.299 0.095
0.288 0.300 0.095
0.307 0.300 0.095
0.327 0.300 0.094
0.348 0.299 0.093
0.369 0.297 0.092
0.392 0.294 0.091
0.415 0.291 0.089
0.439 0.294 0.092
0.463 0.297 0.096
0.488 0.301 0.099
0.513 0.305 0.102
0.538 0.309 0.105
0.563 0.313 0.108
0.587 0.318 0.110
0.610 0.322 0.113
0.633 0.328 0.116
0.655 0.334 0.119
0.678 0.341 0.122
0.701 0.349 0.125
0.726 0.365 0.132
0.751 0.394 0.152
0.780 0.434 0.181
0.811 0.488 0.227
0.844 0.564 0.306
0.174 0.321 0.094
0.182 0.320 0.094
0.191 0.319 0.094
0.200 0.318 0.094
0.210 0.317 0.094
0.219 0.318 0.095
0.229 0.320 0.096
0.241 0.322 0.096
0.254 0.324 0.097
0.269 0.325 0.098
0.285 0.327 0.098
0.303 0.328 0.098
0.321 0.329 0.098
0.341 0.329 0.098
0.361 0.329 0.097
0.382 0.328 0.096
0.404 0.326 0.094
0.427 0.324 0.093
0.450 0.320 0.091
0.474 0.323 0.094
0.498 0.327 0.098
0.522 0.331 0.101
0.546 0.335 0.105
0.570 0.340 0.108
0.593 0.344 0.111
0.616 0.349 0.115
0.637 0.355 0.118
0.659 0.362 0.121
0.681 0.369 0.124
0.704 0.377 0.128
0.729 0.390 0.136
0.754 0.415 0.155
0.782 0.453 0.186
0.813 0.505 0.233
0.845 0.576 0.314
0.188 0.349 0.096
0.196 0.349 0.096
0.205 0.348 0.096
0.215 0.347 0.096
0.226 0.345 0.096
0.235 0.346 0.097
0.246 0.348 0.098
0.257 0.350 0.099
0.270 0.352 0.099
0.285 0.354 0.100
0.301 0.356 0.101
0.318 0.357 0.101
0.337 0.358 0.101
0.356 0.359 0.101
0.375 0.359 0.100
0.396 0.359 0.099
0.417 0.358 0.098
0.439 0.356 0.096
0.462 0.354 0.095
0.485 0.351 0.093
0.508 0.353 0.096
0.532 0.358 0.100
0.555 0.362 0.104
0.578 0.367 0.108
0.600 0.372 0.112
0.621 0.377 0.115
0.642 0.383 0.119
0.663 0.390 0.123
0.685 0.397 0.127
0.707 0.407 0.132
0.731 0.419 0.142
0.757 0.436 0.157
0.784 0.472 0.190
0.814 0.522 0.240
0.846 0.588 0.321
0.204 0.379 0.098
0.212 0.379 0.098
0.221 0.378 0.098
0.231 0.377 0.098
0.242 0.375 0.098
0.253 0.376 0.099
0.263 0.377 0.100
0.275 0.379 0.101
0.288 0.381 0.102
0.303 0.383 0.103
0.318 0.385 0.103
0.335 0.387 0.104
0.353 0.388 0.104
0.372 0.390 0.104
0.391 0.390 0.103
0.411 0.391 0.103
0.431 0.390 0.102
0.452 0.390 0.100
0.474 0.388 0.099
0.496 0.386 0.097
0.519 0.383 0.095
0.542 0.385 0.098
0.564 0.390 0.102
0.586 0.395 0.107
0.607 0.400 0.111
0.627 0.406 0.116
0.647 0.412 0.120
0.668 0.419 0.124
0.689 0.426 0.129
0.710 0.436 0.138
0.734 0.448 0.149
0.759 0.464 0.163
0.787 0.492 0.193
0.816 0.539 0.246
0.847 0.600 0.329
0.221 0.410 0.101
0.230 0.410 0.101
0.239 0.409 0.101
0.249 0.408 0.101
0.260 0.407 0.101
0.272 0.406 0.101
0.283 0.408 0.102
0.294 0.410 0.103
0.307 0.412 0.104
0.322 0.414 0.105
0.337 0.416 0.106
0.354 0.418 0.107
0.371 0.420 0.107
0.389 0.421 0.107
0.407 0.422 0.107
0.427 0.423 0.106
0.447 0.423 0.105
0.467 0.423 0.104
0.488 0.422 0.103
0.509 0.421 0.101
0.530 0.419 0.099
0.552 0.416 0.097
0.573 0.419 0.100
0.594 0.424 0.105
0.614 0.429 0.110
0.633 0.435 0.115
0.653 0.441 0.120
0.672 0.448 0.125
0.692 0.456 0.133
0.713 0.466 0.143
0.736 0.478 0.156
0.761 0.492 0.172
0.789 0.512 0.196
0.818 0.555 0.251
0.848 0.611 0.336
0.241 0.442 0.104
0.250 0.442 0.104
0.259 0.441 0.104
0.269 0.440 0.104
0.280 0.439 0.104
0.293 0.438 0.104
0.304 0.439 0.105
0.315 0.441 0.106
0.328 0.443 0.107
0.342 0.446 0.108
0.357 0.448 0.109
0.373 0.450 0.110
0.390 0.452 0.110
0.408 0.453 0.111
0.426 0.455 0.111
0.444 0.456 0.110
0.463 0.457 0.110
0.482 0.457 0.108
0.502 0.457 0.107
0.522 0.456 0.105
0.543 0.455 0.103
0.563 0.453 0.101
0.583 0.450 0.098
0.602 0.453 0.102
0.621 0.459 0.108
0.640 0.465 0.114
0.658 0.471 0.120
0.677 0.478 0.128
0.696 0.487 0.138
0.716 0.496 0.149
0.739 0.507 0.163
0.764 0.520 0.181
0.791 0.537 0.205
0.820 0.571 0.256
0.849 0.623 0.343
0.262 0.476 0.107
0.271 0.475 0.107
0.281 0.475 0.107
0.291 0.474 0.107
0.302 0.473 0.107
0.315 0.472 0.107
0.327 0.472 0.108
0.338 0.474 0.109
0.351 0.476 0.110
0.364 0.478 0.111
0.379 0.480 0.112
0.395 0.482 0.113
0.411 0.484 0.114
0.428 0.486 0.114
0.445 0.488 0.114
0.463 0.489 0.114
0.481 0.491 0.114
0.499 0.492 0.113
0.518 0.492 0.112
0.537 0.492 0.110
0.556 0.491 0.108
0.575 0.490 0.106
0.593 0.488 0.103
0.611 0.486 0.100
0.629 0.489 0.104
0.647 0.495 0.112
0.664 0.502 0.121
0.682 0.509 0.131
0.700 0.517 0.142
0.720 0.525 0.155
0.742 0.535 0.171
0.766 0.548 0.190
0.793 0.563 0.216
0.821 0.587 0.260
0.850 0.634 0.351
0.287 0.510 0.110
0.296 0.509 0.110
0.305 0.509 0.110
0.315 0.508 0.110
0.326 0.508 0.110
0.339 0.507 0.110
0.352 0.506 0.110
0.363 0.508 0.112
0.376 0.510 0.113
0.389 0.512 0.114
0.403 0.514 0.115
0.418 0.516 0.116
0.434 0.518 0.117
0.450 0.520 0.118
0.466 0.521 0.118
0.483 0.523 0.118
0.500 0.524 0.118
0.517 0.526 0.117
0.535 0.527 0.117
0.552 0.527 0.115
0.570 0.527 0.113
0.587 0.527 0.111
0.604 0.526 0.108
0.621 0.524 0.106
0.637 0.522 0.104
0.653 0.526 0.111
0.670 0.532 0.122
0.687 0.538 0.133
0.704 0.546 0.146
0.724 0.554 0.161
0.745 0.563 0.179
0.768 0.574 0.200
0.795 0.587 0.228
0.823 0.604 0.266
0.851 0.645 0.358
0.314 0.544 0.114
0.323 0.543 0.114
0.332 0.543 0.114
0.342 0.543 0.114
0.353 0.542 0.114
0.365 0.541 0.114
0.379 0.541 0.114
0.391 0.541 0.115
0.403 0.543 0.116
0.415 0.545 0.117
0.429 0.547 0.119
0.443 0.549 0.120
0.458 0.551 0.121
0.474 0.553 0.122
0.489 0.554 0.122
0.505 0.556 0.123
0.521 0.558 0.123
0.537 0.559 0.123
0.553 0.560 0.122
0.569 0.561 0.121
0.584 0.562 0.119
0.600 0.562 0.118
0.615 0.562 0.117
0.630 0.561 0.116
0.645 0.559 0.114
0.660 0.557 0.112
0.676 0.561 0.121
0.692 0.567 0.135
0.709 0.574 0.150
0.728 0.581 0.167
0.748 0.589 0.187
0.771 0.598 0.210
0.797 0.609 0.240
0.825 0.624 0.280
0.852 0.656 0.364
0.345 0.577 0.118
0.353 0.577 0.118
0.363 0.577 0.118
0.372 0.576 0.118
0.383 0.576 0.118
0.395 0.575 0.118
0.408 0.575 0.118
0.421 0.574 0.118
0.432 0.576 0.120
0.445 0.578 0.121
0.458 0.579 0.123
0.471 0.581 0.124
0.485 0.583 0.125
0.499 0.584 0.126
0.514 0.586 0.127
0.528 0.588 0.127
0.543 0.589 0.128
0.557 0.590 0.129
0.572 0.592 0.130
0.586 0.593 0.130
0.599 0.593 0.130
0.613 0.594 0.130
0.627 0.594 0.129
0.640 0.594 0.128
0.654 0.593 0.126
