FilterPlus/LUTs/Cinematic 03.cube
#Created by: Pixelmator Pro
#Color profile: "sRGB IEC61966-2.1"
TITLE "Cinematic 03"
#Data domain
#LUT size
LUT_3D_SIZE 7
DOMAIN_MIN 0.000000 0.000000 0.000000
DOMAIN_MAX 0.882353 0.882353 0.882353
0.036 0.037 0.035
0.036 0.037 0.035
0.163 0.045 0.035
0.360 0.058 0.035
0.549 0.075 0.035
0.670 0.101 0.035
0.765 0.149 0.035
0.049 0.074 0.035
0.114 0.095 0.035
0.226 0.120 0.035
0.398 0.143 0.035
0.567 0.160 0.035
0.676 0.181 0.035
0.767 0.221 0.035
0.110 0.206 0.040
0.176 0.216 0.046
0.316 0.223 0.035
0.467 0.242 0.035
0.587 0.268 0.035
0.682 0.292 0.035
0.768 0.331 0.035
0.195 0.338 0.084
0.264 0.341 0.106
0.371 0.361 0.076
0.536 0.362 0.035
0.630 0.381 0.035
0.699 0.410 0.035
0.768 0.458 0.035
0.302 0.474 0.134
0.380 0.472 0.167
0.458 0.487 0.155
0.566 0.503 0.104
0.659 0.500 0.035
0.718 0.517 0.035
0.777 0.551 0.035
0.450 0.592 0.193
0.519 0.588 0.232
0.565 0.595 0.229
0.618 0.605 0.204
0.675 0.614 0.134
0.734 0.610 0.035
0.789 0.625 0.035
0.626 0.694 0.276
0.651 0.693 0.311
0.675 0.694 0.336
0.695 0.698 0.322
0.720 0.703 0.291
0.754 0.709 0.209
0.801 0.706 0.035
0.036 0.037 0.035
0.055 0.037 0.062
0.209 0.037 0.097
0.416 0.037 0.103
0.592 0.037 0.096
0.698 0.037 0.075
0.784 0.056 0.035
0.036 0.079 0.088
0.101 0.106 0.108
0.266 0.118 0.113
0.468 0.123 0.105
0.615 0.128 0.091
0.706 0.135 0.067
0.784 0.166 0.035
0.039 0.226 0.120
0.162 0.220 0.139
0.307 0.234 0.111
0.463 0.253 0.120
0.605 0.269 0.103
0.702 0.279 0.083
0.783 0.302 0.035
0.137 0.358 0.141
0.245 0.349 0.172
0.350 0.364 0.174
0.539 0.373 0.104
0.626 0.391 0.133
0.701 0.420 0.112
0.781 0.451 0.035
0.248 0.489 0.179
0.350 0.482 0.211
0.448 0.488 0.230
0.553 0.506 0.198
0.663 0.510 0.095
0.718 0.525 0.124
0.783 0.557 0.056
0.406 0.599 0.228
0.488 0.596 0.260
0.561 0.596 0.292
0.612 0.605 0.274
0.669 0.615 0.220
0.740 0.619 0.052
0.793 0.631 0.067
0.610 0.697 0.306
0.640 0.696 0.337
0.674 0.694 0.389
0.694 0.698 0.380
0.718 0.703 0.354
0.752 0.709 0.283
0.804 0.711 0.035
0.036 0.049 0.076
0.052 0.045 0.181
0.190 0.042 0.225
0.423 0.037 0.233
0.601 0.037 0.225
0.701 0.041 0.218
0.786 0.051 0.191
0.036 0.101 0.146
0.075 0.117 0.203
0.212 0.134 0.237
0.446 0.141 0.241
0.606 0.146 0.242
0.703 0.150 0.233
0.787 0.160 0.200
0.036 0.201 0.237
0.092 0.220 0.251
0.247 0.246 0.253
0.455 0.262 0.263
0.612 0.273 0.262
0.706 0.282 0.251
0.787 0.299 0.206
0.036 0.355 0.284
0.135 0.375 0.266
0.326 0.368 0.286
0.496 0.385 0.259
0.607 0.408 0.271
0.698 0.431 0.254
0.783 0.453 0.206
0.136 0.505 0.277
0.252 0.505 0.282
0.425 0.495 0.321
0.531 0.509 0.319
0.650 0.518 0.247
0.710 0.535 0.268
0.780 0.566 0.210
0.311 0.609 0.300
0.415 0.607 0.317
0.540 0.602 0.362
0.605 0.606 0.378
0.661 0.617 0.339
0.734 0.622 0.220
0.790 0.636 0.229
0.576 0.702 0.361
0.615 0.701 0.383
0.659 0.698 0.427
0.692 0.698 0.460
0.715 0.703 0.445
0.749 0.710 0.393
0.806 0.715 0.134
0.036 0.087 0.189
0.036 0.075 0.290
0.144 0.108 0.308
0.341 0.087 0.374
0.572 0.069 0.395
0.696 0.081 0.373
0.784 0.094 0.362
0.036 0.135 0.240
0.049 0.138 0.314
0.173 0.170 0.328
0.361 0.169 0.384
0.583 0.165 0.400
0.697 0.177 0.389
0.784 0.189 0.372
0.036 0.213 0.296
0.041 0.226 0.336
0.211 0.257 0.363
0.392 0.274 0.398
0.596 0.287 0.405
0.699 0.298 0.412
0.786 0.313 0.385
0.036 0.329 0.399
0.085 0.347 0.413
0.231 0.373 0.416
0.434 0.399 0.415
0.599 0.416 0.426
0.701 0.436 0.425
0.785 0.458 0.390
0.036 0.476 0.463
0.088 0.503 0.455
0.280 0.519 0.430
0.510 0.512 0.447
0.625 0.526 0.413
0.697 0.546 0.421
0.780 0.571 0.381
0.153 0.616 0.433
0.267 0.617 0.428
0.448 0.616 0.434
0.593 0.610 0.476
0.648 0.619 0.470
0.725 0.627 0.389
0.786 0.642 0.394
0.499 0.707 0.444
0.562 0.706 0.455
0.629 0.705 0.478
0.682 0.702 0.519
0.712 0.704 0.531
0.744 0.711 0.506
0.803 0.717 0.324
0.036 0.130 0.300
0.036 0.124 0.385
0.125 0.134 0.434
0.272 0.164 0.461
0.504 0.140 0.514
0.676 0.116 0.533
0.780 0.141 0.510
0.036 0.172 0.345
0.036 0.172 0.422
0.147 0.189 0.448
0.295 0.227 0.467
0.518 0.210 0.519
0.681 0.200 0.535
0.781 0.224 0.517
0.036 0.240 0.386
0.036 0.249 0.450
0.172 0.269 0.471
0.341 0.312 0.485
0.538 0.310 0.527
0.688 0.315 0.537
0.782 0.340 0.526
0.036 0.338 0.460
0.036 0.354 0.488
0.157 0.370 0.491
0.394 0.413 0.516
0.561 0.428 0.536
0.691 0.448 0.539
0.783 0.470 0.536
0.036 0.464 0.537
0.076 0.480 0.547
0.212 0.495 0.546
0.412 0.520 0.549
0.586 0.538 0.542
0.691 0.553 0.543
0.782 0.575 0.536
0.036 0.595 0.570
0.062 0.612 0.570
0.248 0.621 0.555
0.496 0.627 0.543
0.638 0.621 0.560
0.711 0.631 0.531
0.780 0.649 0.531
0.327 0.712 0.542
0.433 0.712 0.541
0.559 0.711 0.544
0.649 0.709 0.558
0.706 0.706 0.584
0.738 0.712 0.581
0.798 0.720 0.500
0.036 0.184 0.440
0.036 0.181 0.498
0.087 0.175 0.554
0.236 0.209 0.559
0.421 0.236 0.576
0.633 0.206 0.607
0.772 0.185 0.613
0.036 0.220 0.472
0.036 0.220 0.521
0.105 0.224 0.560
0.260 0.256 0.565
0.440 0.292 0.579
0.638 0.268 0.609
0.774 0.260 0.613
0.036 0.281 0.504
0.036 0.287 0.543
0.126 0.299 0.569
0.296 0.330 0.575
0.471 0.379 0.583
0.647 0.362 0.611
0.776 0.374 0.611
0.036 0.362 0.523
0.036 0.376 0.554
0.129 0.394 0.580
0.328 0.422 0.587
0.518 0.467 0.593
0.657 0.470 0.614
0.777 0.494 0.614
0.036 0.470 0.576
0.036 0.485 0.588
0.136 0.498 0.592
0.299 0.515 0.594
0.554 0.549 0.606
0.669 0.561 0.616
0.777 0.583 0.619
0.036 0.583 0.619
0.045 0.595 0.627
0.182 0.601 0.626
0.366 0.612 0.626
0.559 0.627 0.627
0.686 0.638 0.618
0.775 0.654 0.617
0.036 0.709 0.631
0.129 0.713 0.629
0.316 0.715 0.623
0.535 0.717 0.618
0.661 0.717 0.618
0.733 0.712 0.634
0.790 0.722 0.608
0.036 0.275 0.585
0.036 0.275 0.605
0.036 0.267 0.637
0.163 0.278 0.649
0.351 0.315 0.651
0.554 0.375 0.656
0.736 0.329 0.684
0.036 0.306 0.595
0.036 0.308 0.613
0.036 0.304 0.643
0.180 0.320 0.651
0.372 0.356 0.653
0.565 0.420 0.656
0.738 0.382 0.684
0.036 0.359 0.608
0.036 0.363 0.623
0.036 0.367 0.650
0.203 0.386 0.654
0.402 0.419 0.656
0.586 0.476 0.660
0.741 0.459 0.685
0.036 0.428 0.617
0.036 0.436 0.631
0.036 0.449 0.656
0.223 0.465 0.658
0.436 0.492 0.660
0.609 0.537 0.664
0.746 0.538 0.686
0.036 0.500 0.622
0.036 0.510 0.633
0.036 0.529 0.656
0.222 0.542 0.662
0.459 0.560 0.665
0.633 0.592 0.670
0.751 0.603 0.687
0.036 0.588 0.651
0.036 0.596 0.657
0.044 0.609 0.668
0.203 0.615 0.668
0.415 0.625 0.670
0.650 0.646 0.679
0.758 0.661 0.688
0.036 0.686 0.692
0.036 0.692 0.696
0.101 0.699 0.701
0.279 0.703 0.700
0.486 0.708 0.700
0.647 0.717 0.701
0.771 0.728 0.689
