FilterPlus/LUTs/CN3P.cube
# Negative film
TITLE "Negative film"
LUT_3D_SIZE 4
#LUT data points
0.023529 0.023529 0.023529
0.266667 0.054902 0.015686
0.705882 0.149020 0.000000
1.000000 0.215686 0.011765
0.000000 0.247059 0.113725
0.235294 0.262745 0.090196
0.729412 0.345098 0.000000
1.000000 0.368627 0.000000
0.003922 0.623529 0.290196
0.000000 0.596078 0.294118
0.647059 0.682353 0.262745
0.996078 0.682353 0.207843
0.560784 0.960784 0.701961
0.603922 0.956863 0.713725
0.760784 0.960784 0.741176
0.972549 0.984314 0.768627
0.090196 0.031373 0.286275
0.392157 0.000000 0.356863
0.745098 0.000000 0.243137
1.000000 0.172549 0.262745
0.000000 0.305882 0.305882
0.282353 0.305882 0.298039
0.733333 0.333333 0.278431
0.992157 0.372549 0.266667
0.000000 0.690196 0.447059
0.141176 0.658824 0.423529
0.670588 0.698039 0.431373
0.992157 0.686275 0.396078
0.596078 0.968627 0.741176
0.647059 0.960784 0.752941
0.768627 0.964706 0.772549
0.980392 0.976471 0.788235
0.219608 0.117647 0.749020
0.494118 0.000000 0.784314
0.976471 0.000000 0.827451
1.000000 0.462745 0.682353
0.086275 0.407843 0.694118
0.407843 0.396078 0.745098
0.933333 0.356863 0.807843
1.000000 0.588235 0.705882
0.003922 0.741176 0.737255
0.349020 0.745098 0.729412
0.737255 0.733333 0.717647
0.996078 0.749020 0.721569
0.603922 1.000000 0.835294
0.698039 0.988235 0.843137
0.803922 0.972549 0.854902
0.984314 0.988235 0.866667
0.521569 0.454902 1.000000
0.611765 0.423529 1.000000
0.870588 0.290196 1.000000
1.000000 0.337255 1.000000
0.611765 0.639216 0.992157
0.678431 0.623529 1.000000
0.862745 0.576471 1.000000
1.000000 0.580392 0.996078
0.713725 0.843137 0.964706
0.749020 0.847059 0.968627
0.862745 0.835294 0.996078
0.996078 0.847059 1.000000
0.647059 1.000000 1.000000
0.698039 0.996078 0.996078
0.843137 1.000000 1.000000
1.000000 1.000000 1.000000
