FilterPlus/LUTs/CN3P.cube
# Negative film
TITLE "Negative film"
LUT_3D_SIZE 8
#LUT data points
0.023529 0.023529 0.023529
0.101961 0.023529 0.019608
0.219608 0.043137 0.019608
0.376471 0.082353 0.007843
0.556863 0.121569 0.003922
0.776471 0.160784 0.000000
0.952941 0.180392 0.003922
1.000000 0.215686 0.011765
0.019608 0.086275 0.047059
0.086275 0.086275 0.039216
0.231373 0.113725 0.019608
0.388235 0.145098 0.000000
0.564706 0.180392 0.000000
0.784314 0.215686 0.007843
0.956863 0.235294 0.000000
0.996078 0.254902 0.003922
0.000000 0.200000 0.090196
0.031373 0.200000 0.094118
0.196078 0.211765 0.074510
0.380392 0.254902 0.031373
0.584314 0.286275 0.000000
0.792157 0.309804 0.000000
0.968627 0.321569 0.000000
1.000000 0.337255 0.003922
0.000000 0.337255 0.152941
0.000000 0.341176 0.164706
0.129412 0.337255 0.156863
0.325490 0.380392 0.137255
0.568627 0.411765 0.070588
0.796078 0.443137 0.000000
0.972549 0.447059 0.003922
1.000000 0.447059 0.000000
0.000000 0.498039 0.227451
0.000000 0.494118 0.231373
0.000000 0.478431 0.239216
0.235294 0.509804 0.223529
0.501961 0.556863 0.184314
0.776471 0.576471 0.164706
0.956863 0.588235 0.070588
1.000000 0.572549 0.003922
0.000000 0.682353 0.325490
0.003922 0.682353 0.329412
0.003922 0.662745 0.321569
0.086275 0.674510 0.333333
0.435294 0.698039 0.325490
0.705882 0.729412 0.305882
0.921569 0.717647 0.321569
1.000000 0.725490 0.290196
0.000000 0.831373 0.478431
0.003922 0.827451 0.470588
0.007843 0.823529 0.486275
0.313725 0.811765 0.509804
0.486275 0.827451 0.509804
0.662745 0.850980 0.513725
0.862745 0.862745 0.509804
1.000000 0.854902 0.541176
0.560784 0.960784 0.701961
0.560784 0.960784 0.705882
0.600000 0.960784 0.713725
0.647059 0.956863 0.733333
0.705882 0.952941 0.745098
0.776471 0.960784 0.749020
0.870588 0.980392 0.752941
0.972549 0.984314 0.768627
0.031373 0.027451 0.090196
0.129412 0.011765 0.113725
0.223529 0.015686 0.078431
0.380392 0.043137 0.094118
0.556863 0.094118 0.078431
0.772549 0.129412 0.031373
0.952941 0.156863 0.000000
1.000000 0.200000 0.000000
0.023529 0.101961 0.098039
0.105882 0.105882 0.113725
0.235294 0.113725 0.105882
0.376471 0.141176 0.098039
0.564706 0.164706 0.078431
0.772549 0.188235 0.019608
0.960784 0.211765 0.000000
1.000000 0.243137 0.000000
0.011765 0.223529 0.160784
0.078431 0.227451 0.145098
0.207843 0.227451 0.137255
0.384314 0.258824 0.109804
0.580392 0.278431 0.066667
0.792157 0.309804 0.007843
0.964706 0.317647 0.000000
0.996078 0.325490 0.003922
0.000000 0.360784 0.207843
0.003922 0.356863 0.207843
0.141176 0.356863 0.203922
0.333333 0.388235 0.188235
0.568627 0.415686 0.145098
0.800000 0.439216 0.043137
0.968627 0.443137 0.000000
1.000000 0.443137 0.003922
0.000000 0.521569 0.266667
0.000000 0.517647 0.262745
0.000000 0.498039 0.274510
0.250980 0.521569 0.258824
0.513725 0.560784 0.239216
0.772549 0.580392 0.215686
0.956863 0.584314 0.152941
1.000000 0.568627 0.078431
0.000000 0.694118 0.356863
0.000000 0.690196 0.356863
0.000000 0.682353 0.349020
0.137255 0.674510 0.368627
0.447059 0.705882 0.360784
0.709804 0.733333 0.349020
0.921569 0.721569 0.364706
0.996078 0.725490 0.329412
0.000000 0.839216 0.501961
0.000000 0.835294 0.505882
0.172549 0.827451 0.513725
0.352941 0.815686 0.525490
0.501961 0.831373 0.529412
0.678431 0.847059 0.533333
0.858824 0.866667 0.537255
1.000000 0.858824 0.560784
0.560784 0.960784 0.705882
0.584314 0.960784 0.713725
0.600000 0.956863 0.717647
0.647059 0.956863 0.733333
0.713725 0.956863 0.756863
0.784314 0.968627 0.764706
0.866667 0.972549 0.756863
0.968627 0.980392 0.764706
0.066667 0.035294 0.235294
0.160784 0.011765 0.250980
0.313725 0.000000 0.270588
0.388235 0.039216 0.219608
0.596078 0.000000 0.200000
0.796078 0.000000 0.184314
0.956863 0.101961 0.200000
1.000000 0.176471 0.203922
0.054902 0.125490 0.219608
0.133333 0.121569 0.243137
0.298039 0.094118 0.274510
0.396078 0.141176 0.235294
0.596078 0.047059 0.192157
0.780392 0.141176 0.207843
0.956863 0.188235 0.203922
1.000000 0.227451 0.196078
0.000000 0.254902 0.247059
0.074510 0.254902 0.254902
0.219608 0.254902 0.243137
0.384314 0.262745 0.243137
0.584314 0.278431 0.231373
0.792157 0.294118 0.219608
0.964706 0.301961 0.211765
0.992157 0.329412 0.200000
0.000000 0.419608 0.301961
0.011765 0.415686 0.301961
0.196078 0.384314 0.290196
0.352941 0.403922 0.286275
0.596078 0.427451 0.262745
0.811765 0.435294 0.235294
0.972549 0.443137 0.223529
1.000000 0.450980 0.211765
0.000000 0.572549 0.360784
0.000000 0.564706 0.352941
0.058824 0.537255 0.345098
0.278431 0.537255 0.349020
0.533333 0.580392 0.329412
0.784314 0.592157 0.321569
0.956863 0.592157 0.286275
0.992157 0.584314 0.250980
0.000000 0.721569 0.435294
0.003922 0.713725 0.435294
0.007843 0.701961 0.427451
0.231373 0.686275 0.431373
0.470588 0.705882 0.431373
0.721569 0.741176 0.419608
0.925490 0.737255 0.447059
0.996078 0.733333 0.415686
0.203922 0.847059 0.560784
0.243137 0.847059 0.564706
0.313725 0.839216 0.568627
0.400000 0.827451 0.564706
0.533333 0.831373 0.576471
0.694118 0.854902 0.588235
0.862745 0.870588 0.584314
1.000000 0.866667 0.615686
0.584314 0.968627 0.729412
0.607843 0.964706 0.733333
0.627451 0.960784 0.737255
0.662745 0.952941 0.745098
0.729412 0.952941 0.776471
0.788235 0.968627 0.776471
0.874510 0.980392 0.780392
0.972549 0.980392 0.784314
0.121569 0.043137 0.423529
0.203922 0.019608 0.427451
0.376471 0.000000 0.482353
0.572549 0.000000 0.513725
0.650980 0.000000 0.411765
0.839216 0.000000 0.384314
1.000000 0.003922 0.341176
0.996078 0.003922 0.329412
0.070588 0.152941 0.407843
0.172549 0.149020 0.431373
0.352941 0.101961 0.478431
0.564706 0.003922 0.505882
0.635294 0.125490 0.415686
0.835294 0.113725 0.396078
0.996078 0.000000 0.337255
1.000000 0.152941 0.337255
0.070588 0.286275 0.368627
0.137255 0.294118 0.392157
0.262745 0.278431 0.427451
0.501961 0.254902 0.470588
0.619608 0.305882 0.419608
0.823529 0.258824 0.388235
0.972549 0.282353 0.372549
0.996078 0.352941 0.388235
0.000000 0.435294 0.427451
0.000000 0.447059 0.435294
0.192157 0.435294 0.423529
0.388235 0.431373 0.415686
0.596078 0.435294 0.411765
0.811765 0.447059 0.415686
0.968627 0.458824 0.407843
0.996078 0.474510 0.415686
0.000000 0.643137 0.478431
0.003922 0.639216 0.486275
0.160784 0.615686 0.478431
0.364706 0.572549 0.462745
0.576471 0.600000 0.458824
0.800000 0.603922 0.466667
0.964706 0.603922 0.443137
1.000000 0.603922 0.431373
0.019608 0.760784 0.533333
0.215686 0.756863 0.556863
0.305882 0.749020 0.545098
0.388235 0.725490 0.533333
0.525490 0.717647 0.533333
0.737255 0.749020 0.541176
0.929412 0.749020 0.556863
1.000000 0.749020 0.529412
0.376471 0.870588 0.631373
0.400000 0.870588 0.631373
0.439216 0.858824 0.639216
0.501961 0.843137 0.627451
0.572549 0.835294 0.635294
0.717647 0.854902 0.643137
0.870588 0.874510 0.647059
0.996078 0.870588 0.670588
0.619608 0.972549 0.768627
0.623529 0.976471 0.764706
0.643137 0.972549 0.768627
0.678431 0.968627 0.776471
0.729412 0.960784 0.780392
0.796078 0.964706 0.796078
0.874510 0.976471 0.800000
0.976471 0.988235 0.811765
0.176471 0.078431 0.639216
0.254902 0.047059 0.647059
0.415686 0.000000 0.670588
0.639216 0.000000 0.713725
0.854902 0.000000 0.733333
0.898039 0.000000 0.607843
1.000000 0.250980 0.556863
0.996078 0.294118 0.549020
0.137255 0.184314 0.623529
0.219608 0.176471 0.639216
0.384314 0.137255 0.658824
0.623529 0.000000 0.705882
0.847059 0.000000 0.725490
0.894118 0.105882 0.607843
0.992157 0.325490 0.572549
1.000000 0.345098 0.549020
0.000000 0.329412 0.584314
0.121569 0.329412 0.603922
0.309804 0.313725 0.627451
0.564706 0.282353 0.682353
0.807843 0.227451 0.705882
0.866667 0.337255 0.600000
0.980392 0.435294 0.596078
1.000000 0.419608 0.568627
0.007843 0.458824 0.564706
0.109804 0.466667 0.580392
0.282353 0.466667 0.568627
0.450980 0.470588 0.619608
0.737255 0.462745 0.674510
0.819608 0.537255 0.615686
0.964706 0.521569 0.592157
1.000000 0.513725 0.576471
0.000000 0.635294 0.615686
0.000000 0.639216 0.619608
0.101961 0.635294 0.619608
0.407843 0.627451 0.615686
0.600000 0.619608 0.603922
0.792157 0.619608 0.607843
0.937255 0.635294 0.603922
0.996078 0.643137 0.607843
0.000000 0.811765 0.647059
0.000000 0.807843 0.658824
0.247059 0.800000 0.662745
0.486275 0.780392 0.658824
0.611765 0.737255 0.643137
0.752941 0.764706 0.650980
0.925490 0.772549 0.658824
1.000000 0.760784 0.639216
0.384314 0.901961 0.705882
0.423529 0.894118 0.713725
0.525490 0.890196 0.717647
0.600000 0.878431 0.713725
0.650980 0.854902 0.705882
0.733333 0.858824 0.713725
0.878431 0.882353 0.725490
1.000000 0.882353 0.733333
0.647059 0.980392 0.815686
0.662745 0.980392 0.811765
0.678431 0.980392 0.807843
0.709804 0.980392 0.807843
0.764706 0.968627 0.819608
0.815686 0.972549 0.835294
0.890196 0.976471 0.835294
0.984314 0.984314 0.843137
0.250980 0.152941 0.796078
0.305882 0.145098 0.800000
0.439216 0.094118 0.811765
0.619608 0.003922 0.839216
0.843137 0.003922 0.874510
1.000000 0.000000 0.878431
1.000000 0.125490 0.756863
1.000000 0.439216 0.713725
0.227451 0.239216 0.792157
0.290196 0.231373 0.800000
0.427451 0.203922 0.811765
0.607843 0.141176 0.839216
0.831373 0.000000 0.870588
1.000000 0.000000 0.870588
0.996078 0.254902 0.756863
1.000000 0.490196 0.725490
0.172549 0.376471 0.772549
0.250980 0.376471 0.780392
0.388235 0.364706 0.788235
0.576471 0.349020 0.823529
0.811765 0.294118 0.862745
0.996078 0.305882 0.866667
0.996078 0.435294 0.756863
1.000000 0.584314 0.749020
0.207843 0.525490 0.733333
0.270588 0.529412 0.733333
0.380392 0.533333 0.756863
0.545098 0.537255 0.792157
0.756863 0.537255 0.823529
0.945098 0.545098 0.843137
0.980392 0.600000 0.768627
1.000000 0.678431 0.764706
0.207843 0.639216 0.737255
0.282353 0.643137 0.741176
0.396078 0.650980 0.737255
0.529412 0.650980 0.721569
0.686275 0.670588 0.776471
0.890196 0.686275 0.835294
0.933333 0.721569 0.776471
1.000000 0.721569 0.768627
0.000000 0.784314 0.772549
0.176471 0.788235 0.776471
0.345098 0.788235 0.780392
0.509804 0.788235 0.764706
0.662745 0.780392 0.772549
0.776471 0.772549 0.756863
0.917647 0.788235 0.768627
1.000000 0.792157 0.768627
0.223529 0.933333 0.796078
0.305882 0.937255 0.803922
0.423529 0.929412 0.807843
0.572549 0.929412 0.807843
0.709804 0.901961 0.815686
0.788235 0.870588 0.803922
0.894118 0.890196 0.807843
1.000000 0.894118 0.811765
0.584314 1.000000 0.850980
0.600000 1.000000 0.847059
0.654902 0.996078 0.858824
0.729412 0.992157 0.862745
0.792157 0.984314 0.870588
0.839216 0.980392 0.878431
0.894118 0.980392 0.890196
0.980392 0.992157 0.886275
0.345098 0.270588 0.925490
0.384314 0.258824 0.921569
0.478431 0.243137 0.925490
0.627451 0.200000 0.945098
0.792157 0.047059 0.956863
0.976471 0.003922 0.972549
0.996078 0.000000 0.972549
0.992157 0.380392 0.878431
0.352941 0.337255 0.913725
0.396078 0.333333 0.921569
0.482353 0.321569 0.925490
0.623529 0.290196 0.941176
0.792157 0.223529 0.964706
0.976471 0.105882 0.980392
0.996078 0.215686 0.964706
1.000000 0.443137 0.882353
0.384314 0.470588 0.905882
0.427451 0.466667 0.917647
0.498039 0.458824 0.909804
0.627451 0.447059 0.933333
0.776471 0.423529 0.949020
0.956863 0.392157 0.976471
0.996078 0.443137 0.956863
0.996078 0.549020 0.882353
0.466667 0.611765 0.886275
0.486275 0.615686 0.894118
0.545098 0.607843 0.901961
0.639216 0.607843 0.909804
0.772549 0.607843 0.937255
0.929412 0.596078 0.960784
1.000000 0.611765 0.964706
0.996078 0.670588 0.890196
0.501961 0.709804 0.843137
0.529412 0.717647 0.858824
0.576471 0.713725 0.862745
0.650980 0.717647 0.886275
0.760784 0.725490 0.901961
0.886275 0.729412 0.937255
0.996078 0.745098 0.949020
1.000000 0.780392 0.886275
0.494118 0.796078 0.874510
0.521569 0.800000 0.878431
0.576471 0.800000 0.874510
0.650980 0.800000 0.874510
0.737255 0.803922 0.874510
0.843137 0.823529 0.909804
0.976471 0.843137 0.937255
1.000000 0.870588 0.905882
0.447059 0.913725 0.905882
0.482353 0.905882 0.905882
0.541176 0.909804 0.905882
0.627451 0.909804 0.905882
0.713725 0.909804 0.898039
0.815686 0.913725 0.901961
0.905882 0.901961 0.894118
1.000000 0.909804 0.901961
0.505882 1.000000 0.913725
0.533333 1.000000 0.913725
0.584314 1.000000 0.913725
0.662745 1.000000 0.921569
0.752941 1.000000 0.925490
0.858824 0.992157 0.929412
0.917647 0.988235 0.933333
0.988235 0.992157 0.937255
0.521569 0.454902 1.000000
0.533333 0.450980 1.000000
0.580392 0.431373 1.000000
0.658824 0.400000 0.996078
0.772549 0.345098 1.000000
0.913725 0.247059 1.000000
1.000000 0.203922 1.000000
1.000000 0.337255 1.000000
0.545098 0.501961 1.000000
0.560784 0.501961 1.000000
0.603922 0.486275 1.000000
0.682353 0.458824 1.000000
0.780392 0.415686 1.000000
0.905882 0.345098 1.000000
0.996078 0.313725 1.000000
1.000000 0.411765 1.000000
0.600000 0.607843 1.000000
0.611765 0.603922 1.000000
0.639216 0.596078 1.000000
0.705882 0.576471 0.996078
0.788235 0.552941 1.000000
0.905882 0.513725 1.000000
1.000000 0.490196 1.000000
1.000000 0.541176 1.000000
0.650980 0.705882 0.992157
0.658824 0.705882 0.988235
0.690196 0.698039 0.992157
0.737255 0.694118 1.000000
0.803922 0.682353 0.996078
0.905882 0.662745 1.000000
1.000000 0.635294 1.000000
1.000000 0.666667 1.000000
0.690196 0.796078 0.972549
0.701961 0.796078 0.984314
0.721569 0.792157 0.988235
0.749020 0.788235 0.996078
0.811765 0.784314 0.996078
0.890196 0.776471 1.000000
0.992157 0.764706 0.996078
1.000000 0.784314 1.000000
0.705882 0.862745 0.964706
0.725490 0.862745 0.972549
0.741176 0.862745 0.972549
0.772549 0.866667 0.976471
0.811765 0.862745 0.988235
0.882353 0.858824 0.992157
0.964706 0.862745 1.000000
1.000000 0.882353 0.992157
0.686275 0.917647 0.980392
0.698039 0.925490 0.980392
0.725490 0.917647 0.984314
0.768627 0.921569 0.988235
0.819608 0.929412 0.984314
0.878431 0.933333 0.976471
0.949020 0.941176 0.992157
1.000000 0.949020 1.000000
0.647059 1.000000 1.000000
0.650980 0.996078 1.000000
0.682353 0.996078 0.992157
0.737255 0.996078 0.992157
0.796078 0.996078 1.000000
0.862745 0.996078 0.992157
0.937255 1.000000 1.000000
1.000000 1.000000 1.000000
