FilterPlus/LUTs/CN3P.cube
# Negative film
TITLE "Negative film"
LUT_3D_SIZE 64
#LUT data points
0.023529 0.023529 0.023529
0.023529 0.023529 0.023529
0.027451 0.019608 0.023529
0.031373 0.023529 0.027451
0.047059 0.023529 0.023529
0.058824 0.023529 0.027451
0.070588 0.023529 0.023529
0.074510 0.019608 0.015686
0.094118 0.023529 0.015686
0.101961 0.023529 0.019608
0.109804 0.027451 0.023529
0.117647 0.023529 0.015686
0.129412 0.031373 0.015686
0.152941 0.031373 0.023529
0.168627 0.031373 0.023529
0.180392 0.023529 0.023529
0.188235 0.035294 0.015686
0.196078 0.035294 0.011765
0.219608 0.043137 0.019608
0.235294 0.043137 0.015686
0.254902 0.047059 0.015686
0.266667 0.054902 0.015686
0.282353 0.054902 0.007843
0.294118 0.062745 0.007843
0.313725 0.066667 0.000000
0.329412 0.066667 0.003922
0.352941 0.070588 0.011765
0.376471 0.082353 0.007843
0.396078 0.078431 0.000000
0.407843 0.086275 0.000000
0.427451 0.098039 0.000000
0.443137 0.098039 0.003922
0.470588 0.101961 0.000000
0.494118 0.109804 0.000000
0.521569 0.113725 0.000000
0.533333 0.121569 0.003922
0.556863 0.121569 0.003922
0.576471 0.125490 0.003922
0.603922 0.133333 0.000000
0.627451 0.141176 0.000000
0.650980 0.141176 0.007843
0.682353 0.141176 0.000000
0.705882 0.149020 0.000000
0.733333 0.152941 0.000000
0.756863 0.156863 0.000000
0.776471 0.160784 0.000000
0.796078 0.164706 0.000000
0.819608 0.160784 0.007843
0.843137 0.164706 0.000000
0.862745 0.168627 0.000000
0.882353 0.172549 0.000000
0.901961 0.168627 0.000000
0.921569 0.172549 0.000000
0.937255 0.184314 0.007843
0.952941 0.180392 0.003922
0.972549 0.184314 0.003922
0.996078 0.188235 0.000000
1.000000 0.192157 0.000000
1.000000 0.200000 0.003922
1.000000 0.200000 0.000000
0.996078 0.207843 0.003922
0.996078 0.207843 0.003922
1.000000 0.211765 0.007843
1.000000 0.215686 0.011765
0.019608 0.027451 0.023529
0.027451 0.027451 0.027451
0.031373 0.023529 0.027451
0.039216 0.023529 0.027451
0.047059 0.023529 0.023529
0.058824 0.027451 0.019608
0.066667 0.027451 0.023529
0.074510 0.031373 0.023529
0.082353 0.027451 0.015686
0.101961 0.031373 0.023529
0.113725 0.031373 0.019608
0.125490 0.031373 0.015686
0.133333 0.035294 0.015686
0.149020 0.035294 0.019608
0.168627 0.039216 0.019608
0.184314 0.039216 0.015686
0.188235 0.043137 0.019608
0.207843 0.047059 0.023529
0.223529 0.050980 0.015686
0.235294 0.047059 0.007843
0.250980 0.054902 0.011765
0.266667 0.062745 0.011765
0.282353 0.062745 0.011765
0.294118 0.070588 0.003922
0.313725 0.066667 0.000000
0.337255 0.074510 0.007843
0.352941 0.074510 0.000000
0.372549 0.078431 0.000000
0.388235 0.090196 0.000000
0.400000 0.094118 0.003922
0.435294 0.098039 0.000000
0.458824 0.098039 0.000000
0.474510 0.105882 0.003922
0.498039 0.113725 0.007843
0.517647 0.121569 0.003922
0.537255 0.125490 0.000000
0.560784 0.129412 0.000000
0.580392 0.133333 0.000000
0.603922 0.141176 0.000000
0.635294 0.137255 0.000000
0.650980 0.141176 0.000000
0.682353 0.145098 0.003922
0.705882 0.149020 0.000000
0.733333 0.152941 0.000000
0.756863 0.160784 0.000000
0.776471 0.160784 0.000000
0.800000 0.160784 0.000000
0.819608 0.164706 0.000000
0.839216 0.168627 0.000000
0.862745 0.168627 0.003922
0.886275 0.176471 0.000000
0.905882 0.180392 0.000000
0.917647 0.180392 0.000000
0.937255 0.184314 0.000000
0.956863 0.188235 0.000000
0.976471 0.192157 0.000000
0.996078 0.188235 0.000000
1.000000 0.200000 0.003922
0.992157 0.203922 0.000000
0.992157 0.203922 0.000000
0.996078 0.207843 0.000000
0.996078 0.207843 0.000000
1.000000 0.211765 0.000000
1.000000 0.215686 0.003922
0.023529 0.031373 0.027451
0.023529 0.031373 0.027451
0.031373 0.031373 0.023529
0.035294 0.031373 0.023529
0.047059 0.031373 0.019608
0.058824 0.039216 0.027451
0.070588 0.031373 0.023529
0.070588 0.035294 0.015686
0.090196 0.035294 0.023529
0.105882 0.035294 0.019608
0.113725 0.039216 0.015686
0.125490 0.035294 0.011765
0.133333 0.043137 0.019608
0.152941 0.043137 0.027451
0.164706 0.043137 0.023529
0.172549 0.035294 0.019608
0.184314 0.047059 0.023529
0.203922 0.054902 0.019608
0.223529 0.050980 0.007843
0.239216 0.058824 0.007843
0.254902 0.058824 0.015686
0.266667 0.062745 0.011765
0.286275 0.066667 0.015686
0.301961 0.070588 0.007843
0.313725 0.074510 0.003922
0.325490 0.078431 0.007843
0.349020 0.082353 0.000000
0.372549 0.090196 0.003922
0.392157 0.094118 0.003922
0.415686 0.094118 0.000000
0.431373 0.101961 0.000000
0.450980 0.109804 0.000000
0.470588 0.113725 0.000000
0.498039 0.113725 0.000000
0.517647 0.125490 0.000000
0.537255 0.125490 0.000000
0.556863 0.129412 0.000000
0.580392 0.141176 0.000000
0.603922 0.141176 0.000000
0.627451 0.141176 0.000000
0.658824 0.152941 0.000000
0.682353 0.149020 0.000000
0.709804 0.152941 0.000000
0.733333 0.160784 0.000000
0.760784 0.160784 0.000000
0.780392 0.164706 0.003922
0.800000 0.168627 0.003922
0.823529 0.168627 0.003922
0.843137 0.172549 0.000000
0.862745 0.176471 0.000000
0.878431 0.180392 0.000000
0.905882 0.180392 0.000000
0.917647 0.188235 0.003922
0.937255 0.184314 0.000000
0.956863 0.188235 0.000000
0.976471 0.192157 0.000000
0.988235 0.200000 0.000000
0.992157 0.203922 0.000000
1.000000 0.203922 0.003922
1.000000 0.203922 0.000000
1.000000 0.203922 0.000000
1.000000 0.211765 0.000000
1.000000 0.219608 0.003922
1.000000 0.219608 0.003922
0.015686 0.031373 0.027451
0.027451 0.035294 0.023529
0.027451 0.035294 0.023529
0.035294 0.039216 0.019608
0.047059 0.031373 0.019608
0.058824 0.039216 0.023529
0.070588 0.039216 0.027451
0.078431 0.039216 0.031373
0.082353 0.039216 0.023529
0.098039 0.039216 0.019608
0.113725 0.047059 0.019608
0.125490 0.047059 0.019608
0.137255 0.047059 0.015686
0.152941 0.047059 0.011765
0.160784 0.050980 0.007843
0.176471 0.047059 0.011765
0.188235 0.054902 0.007843
0.207843 0.058824 0.015686
0.223529 0.058824 0.011765
0.239216 0.058824 0.007843
0.250980 0.062745 0.007843
0.262745 0.070588 0.011765
0.286275 0.066667 0.000000
0.301961 0.070588 0.000000
0.317647 0.078431 0.003922
0.337255 0.082353 0.003922
0.352941 0.086275 0.000000
0.368627 0.094118 0.000000
0.384314 0.101961 0.003922
0.407843 0.105882 0.000000
0.435294 0.105882 0.000000
0.450980 0.109804 0.000000
0.470588 0.121569 0.003922
0.498039 0.125490 0.000000
0.513725 0.125490 0.000000
0.537255 0.133333 0.000000
0.560784 0.137255 0.000000
0.588235 0.141176 0.000000
0.607843 0.145098 0.000000
0.635294 0.149020 0.000000
0.650980 0.149020 0.000000
0.682353 0.156863 0.007843
0.709804 0.164706 0.003922
0.733333 0.160784 0.000000
0.749020 0.164706 0.000000
0.780392 0.168627 0.007843
0.800000 0.168627 0.000000
0.823529 0.172549 0.007843
0.847059 0.176471 0.000000
0.862745 0.176471 0.000000
0.882353 0.184314 0.003922
0.901961 0.188235 0.003922
0.917647 0.188235 0.003922
0.937255 0.192157 0.003922
0.960784 0.200000 0.000000
0.976471 0.203922 0.000000
0.992157 0.203922 0.000000
0.996078 0.207843 0.003922
0.996078 0.207843 0.003922
0.996078 0.207843 0.003922
1.000000 0.211765 0.007843
1.000000 0.219608 0.003922
1.000000 0.219608 0.003922
0.996078 0.227451 0.000000
0.019608 0.043137 0.027451
0.019608 0.043137 0.027451
0.023529 0.043137 0.027451
0.031373 0.039216 0.027451
0.043137 0.047059 0.027451
0.050980 0.047059 0.027451
0.066667 0.047059 0.031373
0.078431 0.050980 0.027451
0.086275 0.043137 0.019608
0.098039 0.047059 0.015686
0.117647 0.050980 0.023529
0.125490 0.050980 0.023529
0.141176 0.050980 0.019608
0.160784 0.054902 0.019608
0.168627 0.058824 0.015686
0.176471 0.058824 0.019608
0.200000 0.054902 0.019608
0.207843 0.066667 0.019608
0.223529 0.066667 0.019608
0.235294 0.070588 0.015686
0.250980 0.070588 0.011765
0.266667 0.074510 0.007843
0.286275 0.078431 0.007843
0.301961 0.086275 0.007843
0.325490 0.086275 0.011765
0.329412 0.090196 0.007843
0.349020 0.098039 0.000000
0.372549 0.098039 0.000000
0.388235 0.105882 0.007843
0.403922 0.109804 0.000000
0.431373 0.113725 0.000000
0.458824 0.117647 0.007843
0.462745 0.125490 0.000000
0.498039 0.133333 0.003922
0.517647 0.133333 0.000000
0.541176 0.137255 0.000000
0.560784 0.141176 0.000000
0.584314 0.145098 0.000000
0.607843 0.152941 0.000000
0.631373 0.152941 0.007843
0.658824 0.160784 0.000000
0.682353 0.160784 0.000000
0.705882 0.168627 0.003922
0.729412 0.168627 0.000000
0.752941 0.168627 0.000000
0.776471 0.180392 0.000000
0.796078 0.176471 0.000000
0.823529 0.176471 0.000000
0.843137 0.184314 0.000000
0.858824 0.184314 0.000000
0.882353 0.184314 0.000000
0.901961 0.188235 0.003922
0.921569 0.192157 0.007843
0.937255 0.192157 0.003922
0.956863 0.196078 0.000000
0.968627 0.200000 0.000000
0.988235 0.203922 0.000000
0.992157 0.211765 0.000000
1.000000 0.211765 0.000000
0.996078 0.215686 0.000000
1.000000 0.219608 0.003922
1.000000 0.219608 0.003922
1.000000 0.223529 0.000000
1.000000 0.223529 0.000000
0.015686 0.054902 0.023529
0.015686 0.054902 0.023529
0.023529 0.050980 0.023529
0.031373 0.050980 0.027451
0.043137 0.050980 0.031373
0.054902 0.050980 0.031373
0.062745 0.050980 0.023529
0.074510 0.054902 0.031373
0.090196 0.054902 0.027451
0.098039 0.058824 0.023529
0.109804 0.058824 0.027451
0.117647 0.062745 0.027451
0.133333 0.062745 0.023529
0.149020 0.062745 0.019608
0.164706 0.058824 0.015686
0.172549 0.062745 0.015686
0.196078 0.070588 0.027451
0.203922 0.074510 0.015686
0.223529 0.070588 0.011765
0.239216 0.070588 0.007843
0.258824 0.078431 0.015686
0.266667 0.082353 0.011765
0.290196 0.082353 0.011765
0.305882 0.082353 0.007843
0.329412 0.090196 0.015686
0.325490 0.098039 0.003922
0.345098 0.105882 0.000000
0.376471 0.101961 0.000000
0.396078 0.105882 0.000000
0.411765 0.117647 0.003922
0.431373 0.121569 0.000000
0.450980 0.125490 0.000000
0.466667 0.129412 0.000000
0.498039 0.133333 0.003922
0.513725 0.145098 0.003922
0.533333 0.149020 0.000000
0.564706 0.149020 0.000000
0.584314 0.156863 0.003922
0.603922 0.160784 0.000000
0.627451 0.160784 0.000000
0.654902 0.164706 0.000000
0.682353 0.168627 0.003922
0.705882 0.168627 0.003922
0.725490 0.172549 0.000000
0.752941 0.176471 0.003922
0.772549 0.180392 0.000000
0.796078 0.184314 0.000000
0.823529 0.188235 0.003922
0.843137 0.184314 0.000000
0.858824 0.192157 0.000000
0.882353 0.192157 0.000000
0.905882 0.200000 0.007843
0.917647 0.196078 0.000000
0.933333 0.200000 0.000000
0.964706 0.203922 0.003922
0.980392 0.207843 0.003922
0.992157 0.207843 0.003922
1.000000 0.211765 0.007843
1.000000 0.211765 0.000000
1.000000 0.211765 0.000000
1.000000 0.219608 0.000000
0.996078 0.227451 0.000000
0.996078 0.227451 0.000000
0.992157 0.227451 0.000000
0.015686 0.058824 0.035294
0.019608 0.054902 0.035294
0.023529 0.062745 0.031373
0.031373 0.058824 0.031373
0.039216 0.058824 0.035294
0.054902 0.058824 0.035294
0.058824 0.054902 0.035294
0.058824 0.058824 0.027451
0.086275 0.058824 0.019608
0.094118 0.058824 0.023529
0.105882 0.066667 0.027451
0.117647 0.062745 0.019608
0.129412 0.066667 0.015686
0.149020 0.074510 0.019608
0.164706 0.074510 0.019608
0.176471 0.074510 0.023529
0.184314 0.074510 0.019608
0.207843 0.078431 0.019608
0.227451 0.082353 0.011765
0.235294 0.086275 0.011765
0.250980 0.082353 0.007843
0.266667 0.090196 0.007843
0.282353 0.094118 0.003922
0.301961 0.098039 0.003922
0.321569 0.101961 0.003922
0.329412 0.105882 0.000000
0.352941 0.113725 0.000000
0.376471 0.113725 0.000000
0.396078 0.117647 0.007843
0.411765 0.125490 0.000000
0.435294 0.125490 0.000000
0.458824 0.137255 0.000000
0.470588 0.133333 0.000000
0.494118 0.141176 0.003922
0.513725 0.152941 0.000000
0.533333 0.156863 0.000000
0.560784 0.152941 0.000000
0.580392 0.156863 0.003922
0.603922 0.168627 0.000000
0.631373 0.172549 0.003922
0.654902 0.172549 0.000000
0.674510 0.172549 0.000000
0.705882 0.176471 0.000000
0.733333 0.180392 0.000000
0.756863 0.184314 0.000000
0.780392 0.188235 0.003922
0.800000 0.188235 0.000000
0.823529 0.188235 0.000000
0.839216 0.196078 0.000000
0.858824 0.203922 0.000000
0.882353 0.200000 0.000000
0.905882 0.200000 0.000000
0.925490 0.203922 0.000000
0.937255 0.203922 0.000000
0.952941 0.203922 0.000000
0.976471 0.211765 0.000000
0.984314 0.211765 0.000000
0.996078 0.215686 0.000000
1.000000 0.219608 0.003922
1.000000 0.223529 0.000000
0.996078 0.227451 0.000000
0.996078 0.231373 0.003922
0.996078 0.235294 0.000000
1.000000 0.239216 0.000000
0.019608 0.070588 0.035294
0.023529 0.066667 0.035294
0.023529 0.066667 0.035294
0.027451 0.066667 0.035294
0.039216 0.066667 0.039216
0.043137 0.062745 0.035294
0.054902 0.066667 0.039216
0.066667 0.070588 0.039216
0.082353 0.070588 0.035294
0.090196 0.074510 0.031373
0.105882 0.074510 0.031373
0.121569 0.074510 0.027451
0.125490 0.078431 0.023529
0.145098 0.082353 0.023529
0.156863 0.082353 0.023529
0.176471 0.074510 0.015686
0.196078 0.082353 0.011765
0.211765 0.090196 0.019608
0.227451 0.090196 0.015686
0.235294 0.090196 0.015686
0.254902 0.094118 0.007843
0.266667 0.101961 0.007843
0.282353 0.101961 0.000000
0.298039 0.113725 0.003922
0.313725 0.113725 0.000000
0.337255 0.113725 0.000000
0.356863 0.117647 0.000000
0.368627 0.121569 0.000000
0.392157 0.121569 0.000000
0.419608 0.133333 0.007843
0.435294 0.137255 0.003922
0.454902 0.141176 0.000000
0.466667 0.145098 0.000000
0.494118 0.149020 0.000000
0.517647 0.156863 0.000000
0.537255 0.160784 0.000000
0.560784 0.164706 0.000000
0.584314 0.172549 0.000000
0.600000 0.176471 0.000000
0.631373 0.180392 0.003922
0.650980 0.176471 0.000000
0.674510 0.184314 0.000000
0.701961 0.184314 0.000000
0.729412 0.188235 0.003922
0.756863 0.188235 0.003922
0.776471 0.196078 0.007843
0.800000 0.196078 0.000000
0.815686 0.200000 0.000000
0.843137 0.200000 0.000000
0.858824 0.203922 0.000000
0.882353 0.200000 0.000000
0.905882 0.211765 0.000000
0.917647 0.207843 0.000000
0.937255 0.211765 0.000000
0.960784 0.219608 0.000000
0.976471 0.219608 0.003922
0.984314 0.219608 0.000000
0.996078 0.227451 0.000000
1.000000 0.223529 0.000000
1.000000 0.223529 0.000000
1.000000 0.231373 0.000000
1.000000 0.231373 0.000000
0.996078 0.235294 0.000000
1.000000 0.239216 0.000000
0.023529 0.074510 0.039216
0.023529 0.074510 0.039216
0.023529 0.074510 0.039216
0.031373 0.074510 0.043137
0.035294 0.074510 0.043137
0.043137 0.070588 0.039216
0.062745 0.074510 0.047059
0.074510 0.078431 0.047059
0.078431 0.078431 0.039216
0.090196 0.078431 0.043137
0.105882 0.078431 0.039216
0.117647 0.078431 0.031373
0.137255 0.082353 0.031373
0.152941 0.090196 0.027451
0.156863 0.090196 0.019608
0.172549 0.101961 0.023529
0.196078 0.098039 0.011765
0.215686 0.094118 0.015686
0.235294 0.098039 0.019608
0.243137 0.101961 0.015686
0.254902 0.105882 0.015686
0.274510 0.109804 0.011765
0.298039 0.113725 0.011765
0.309804 0.117647 0.000000
0.321569 0.121569 0.007843
0.349020 0.125490 0.007843
0.360784 0.129412 0.000000
0.376471 0.141176 0.000000
0.396078 0.141176 0.000000
0.419608 0.145098 0.003922
0.439216 0.141176 0.000000
0.462745 0.149020 0.003922
0.482353 0.156863 0.000000
0.505882 0.160784 0.003922
0.525490 0.168627 0.000000
0.549020 0.168627 0.000000
0.560784 0.176471 0.000000
0.592157 0.172549 0.000000
0.615686 0.180392 0.000000
0.639216 0.184314 0.000000
0.658824 0.188235 0.000000
0.686275 0.192157 0.000000
0.713725 0.196078 0.003922
0.737255 0.196078 0.003922
0.764706 0.200000 0.003922
0.780392 0.203922 0.000000
0.800000 0.207843 0.000000
0.823529 0.207843 0.000000
0.839216 0.207843 0.000000
0.862745 0.215686 0.003922
0.882353 0.211765 0.000000
0.905882 0.211765 0.000000
0.925490 0.215686 0.000000
0.945098 0.219608 0.000000
0.964706 0.223529 0.003922
0.980392 0.223529 0.000000
0.992157 0.227451 0.000000
1.000000 0.231373 0.003922
1.000000 0.235294 0.007843
1.000000 0.231373 0.000000
1.000000 0.235294 0.000000
1.000000 0.239216 0.000000
1.000000 0.247059 0.000000
1.000000 0.247059 0.000000
0.019608 0.086275 0.047059
0.023529 0.086275 0.047059
0.019608 0.082353 0.043137
0.027451 0.078431 0.043137
0.035294 0.082353 0.043137
0.043137 0.082353 0.047059
0.054902 0.086275 0.043137
0.062745 0.086275 0.047059
0.074510 0.086275 0.043137
0.086275 0.086275 0.039216
0.105882 0.090196 0.047059
0.121569 0.090196 0.047059
0.125490 0.090196 0.031373
0.141176 0.094118 0.031373
0.160784 0.101961 0.027451
0.172549 0.105882 0.027451
0.188235 0.101961 0.019608
0.211765 0.109804 0.019608
0.231373 0.113725 0.019608
0.243137 0.109804 0.011765
0.258824 0.117647 0.015686
0.274510 0.117647 0.015686
0.294118 0.113725 0.011765
0.313725 0.121569 0.003922
0.329412 0.129412 0.007843
0.341176 0.133333 0.000000
0.360784 0.141176 0.000000
0.388235 0.145098 0.000000
0.403922 0.149020 0.000000
0.419608 0.156863 0.000000
0.435294 0.156863 0.000000
0.458824 0.164706 0.000000
0.478431 0.172549 0.000000
0.501961 0.172549 0.000000
0.529412 0.172549 0.000000
0.541176 0.180392 0.000000
0.564706 0.180392 0.000000
0.592157 0.180392 0.000000
0.611765 0.188235 0.000000
0.643137 0.188235 0.000000
0.674510 0.196078 0.003922
0.694118 0.200000 0.000000
0.717647 0.203922 0.000000
0.741176 0.207843 0.003922
0.760784 0.211765 0.003922
0.784314 0.215686 0.007843
0.803922 0.211765 0.003922
0.827451 0.219608 0.007843
0.847059 0.215686 0.000000
0.870588 0.223529 0.003922
0.890196 0.219608 0.000000
0.901961 0.223529 0.003922
0.925490 0.223529 0.000000
0.933333 0.223529 0.000000
0.956863 0.235294 0.000000
0.976471 0.231373 0.000000
0.996078 0.235294 0.000000
1.000000 0.239216 0.000000
1.000000 0.243137 0.000000
1.000000 0.243137 0.000000
1.000000 0.243137 0.000000
1.000000 0.250980 0.003922
1.000000 0.250980 0.003922
0.996078 0.254902 0.003922
0.015686 0.094118 0.047059
0.015686 0.094118 0.047059
0.023529 0.094118 0.047059
0.023529 0.094118 0.047059
0.027451 0.090196 0.047059
0.039216 0.094118 0.043137
0.047059 0.094118 0.047059
0.054902 0.094118 0.050980
0.058824 0.101961 0.039216
0.078431 0.105882 0.043137
0.098039 0.101961 0.047059
0.113725 0.105882 0.047059
0.117647 0.105882 0.039216
0.137255 0.109804 0.039216
0.152941 0.109804 0.031373
0.172549 0.113725 0.031373
0.184314 0.113725 0.027451
0.207843 0.121569 0.031373
0.219608 0.117647 0.019608
0.247059 0.125490 0.015686
0.266667 0.133333 0.023529
0.270588 0.125490 0.011765
0.290196 0.129412 0.003922
0.309804 0.141176 0.007843
0.333333 0.137255 0.000000
0.352941 0.149020 0.003922
0.360784 0.149020 0.000000
0.388235 0.156863 0.000000
0.400000 0.156863 0.003922
0.415686 0.160784 0.003922
0.447059 0.168627 0.003922
0.458824 0.164706 0.000000
0.478431 0.176471 0.000000
0.501961 0.180392 0.000000
0.525490 0.188235 0.000000
0.549020 0.188235 0.000000
0.576471 0.192157 0.000000
0.592157 0.192157 0.000000
0.619608 0.200000 0.000000
0.650980 0.203922 0.000000
0.666667 0.207843 0.000000
0.694118 0.207843 0.003922
0.721569 0.211765 0.007843
0.741176 0.219608 0.000000
0.764706 0.219608 0.003922
0.784314 0.223529 0.000000
0.800000 0.227451 0.000000
0.827451 0.227451 0.000000
0.847059 0.223529 0.000000
0.870588 0.231373 0.007843
0.894118 0.231373 0.000000
0.909804 0.231373 0.000000
0.921569 0.239216 0.000000
0.941176 0.243137 0.000000
0.960784 0.239216 0.000000
0.980392 0.243137 0.003922
0.996078 0.243137 0.000000
1.000000 0.247059 0.003922
1.000000 0.250980 0.007843
1.000000 0.250980 0.007843
0.996078 0.254902 0.003922
0.996078 0.254902 0.003922
1.000000 0.258824 0.000000
1.000000 0.262745 0.000000
0.011765 0.105882 0.054902
0.015686 0.101961 0.054902
0.015686 0.101961 0.054902
0.019608 0.105882 0.058824
0.023529 0.101961 0.054902
0.035294 0.105882 0.058824
0.039216 0.101961 0.058824
0.050980 0.101961 0.062745
0.062745 0.105882 0.043137
0.078431 0.109804 0.050980
0.094118 0.109804 0.050980
0.101961 0.109804 0.054902
0.117647 0.109804 0.050980
0.133333 0.109804 0.047059
0.149020 0.117647 0.043137
0.164706 0.121569 0.043137
0.188235 0.121569 0.043137
0.207843 0.129412 0.035294
0.223529 0.129412 0.027451
0.239216 0.133333 0.019608
0.258824 0.137255 0.015686
0.270588 0.141176 0.011765
0.294118 0.145098 0.003922
0.313725 0.145098 0.007843
0.337255 0.149020 0.007843
0.349020 0.156863 0.000000
0.364706 0.160784 0.003922
0.380392 0.172549 0.000000
0.411765 0.172549 0.000000
0.419608 0.172549 0.000000
0.439216 0.176471 0.000000
0.462745 0.184314 0.003922
0.486275 0.188235 0.000000
0.509804 0.196078 0.003922
0.521569 0.196078 0.000000
0.541176 0.200000 0.000000
0.568627 0.200000 0.000000
0.596078 0.203922 0.000000
0.615686 0.207843 0.000000
0.643137 0.215686 0.000000
0.666667 0.215686 0.000000
0.694118 0.219608 0.000000
0.721569 0.227451 0.000000
0.741176 0.231373 0.000000
0.756863 0.231373 0.000000
0.776471 0.235294 0.000000
0.800000 0.235294 0.000000
0.819608 0.239216 0.000000
0.850980 0.239216 0.007843
0.866667 0.239216 0.003922
0.886275 0.235294 0.000000
0.905882 0.239216 0.000000
0.925490 0.243137 0.003922
0.945098 0.247059 0.003922
0.964706 0.243137 0.000000
0.984314 0.247059 0.000000
0.996078 0.254902 0.003922
0.996078 0.254902 0.003922
1.000000 0.254902 0.000000
1.000000 0.254902 0.000000
1.000000 0.258824 0.000000
1.000000 0.262745 0.000000
1.000000 0.270588 0.000000
1.000000 0.270588 0.000000
0.011765 0.117647 0.058824
0.011765 0.117647 0.058824
0.019608 0.113725 0.058824
0.019608 0.113725 0.058824
0.023529 0.109804 0.058824
0.027451 0.109804 0.050980
0.043137 0.113725 0.058824
0.047059 0.117647 0.062745
0.054902 0.121569 0.058824
0.070588 0.121569 0.054902
0.090196 0.125490 0.058824
0.098039 0.125490 0.054902
0.117647 0.129412 0.054902
0.133333 0.129412 0.050980
0.149020 0.129412 0.050980
0.160784 0.133333 0.058824
0.180392 0.141176 0.035294
0.196078 0.141176 0.035294
0.215686 0.137255 0.031373
0.235294 0.145098 0.023529
0.250980 0.149020 0.019608
0.278431 0.149020 0.011765
0.294118 0.156863 0.007843
0.309804 0.156863 0.003922
0.333333 0.164706 0.000000
0.345098 0.172549 0.000000
0.360784 0.172549 0.000000
0.388235 0.176471 0.000000
0.407843 0.180392 0.000000
0.427451 0.188235 0.003922
0.439216 0.188235 0.000000
0.458824 0.192157 0.000000
0.478431 0.196078 0.000000
0.505882 0.200000 0.007843
0.525490 0.207843 0.000000
0.549020 0.207843 0.000000
0.580392 0.211765 0.007843
0.592157 0.211765 0.000000
0.627451 0.223529 0.000000
0.650980 0.223529 0.000000
0.670588 0.227451 0.000000
0.698039 0.231373 0.003922
0.721569 0.235294 0.000000
0.741176 0.239216 0.000000
0.764706 0.239216 0.000000
0.788235 0.239216 0.000000
0.807843 0.243137 0.003922
0.827451 0.239216 0.007843
0.850980 0.247059 0.003922
0.870588 0.250980 0.003922
0.886275 0.250980 0.000000
0.909804 0.250980 0.000000
0.929412 0.254902 0.000000
0.945098 0.258824 0.003922
0.960784 0.258824 0.000000
0.976471 0.258824 0.000000
0.996078 0.258824 0.007843
0.996078 0.262745 0.000000
1.000000 0.262745 0.000000
1.000000 0.266667 0.000000
1.000000 0.270588 0.000000
1.000000 0.270588 0.000000
1.000000 0.270588 0.000000
1.000000 0.278431 0.000000
0.003922 0.125490 0.066667
0.003922 0.125490 0.066667
0.011765 0.121569 0.066667
0.011765 0.121569 0.066667
0.019608 0.125490 0.066667
0.031373 0.125490 0.070588
0.035294 0.125490 0.062745
0.043137 0.125490 0.066667
0.058824 0.125490 0.054902
0.074510 0.129412 0.062745
0.082353 0.133333 0.062745
0.098039 0.133333 0.058824
0.117647 0.137255 0.058824
0.129412 0.137255 0.054902
0.145098 0.137255 0.054902
0.164706 0.141176 0.054902
0.188235 0.141176 0.054902
0.196078 0.149020 0.054902
0.211765 0.152941 0.039216
0.235294 0.152941 0.031373
0.250980 0.156863 0.023529
0.266667 0.164706 0.019608
0.286275 0.172549 0.007843
0.301961 0.172549 0.003922
0.337255 0.176471 0.000000
0.352941 0.180392 0.000000
0.380392 0.180392 0.000000
0.392157 0.188235 0.000000
0.400000 0.188235 0.003922
0.423529 0.196078 0.007843
0.443137 0.200000 0.000000
0.454902 0.207843 0.000000
0.482353 0.211765 0.000000
0.505882 0.211765 0.000000
0.529412 0.219608 0.000000
0.545098 0.223529 0.003922
0.576471 0.219608 0.003922
0.600000 0.227451 0.007843
0.623529 0.231373 0.000000
0.647059 0.231373 0.003922
0.670588 0.239216 0.000000
0.694118 0.243137 0.000000
0.721569 0.243137 0.000000
0.741176 0.250980 0.000000
0.772549 0.247059 0.000000
0.792157 0.250980 0.003922
0.807843 0.250980 0.000000
0.831373 0.250980 0.000000
0.854902 0.258824 0.000000
0.866667 0.258824 0.000000
0.894118 0.262745 0.000000
0.909804 0.262745 0.000000
0.925490 0.262745 0.000000
0.937255 0.266667 0.000000
